(CAM_AcrilicoEntrenador)
(T3  D=2 CR=0 - ZMIN=-2.9 - flat end mill)
G90 G94
G17
G21
G28 G91 Z0
G90

(FaltaUnHollo)
T3 M6
S18000 M3
G54
M8
G0 X107.165 Y36.414
Z15
Z3
G1 Z1.2 F30
X107.173 Y36.389 Z1.102 F10
X107.197 Y36.323 Z1.029
X107.24 Y36.236 Z1
G3 X108.816 Y37.104 Z0.901 I0.788 J0.434
X107.24 Y36.236 Z0.803 I-0.788 J-0.434
X108.816 Y37.104 Z0.704 I0.788 J0.434
X107.24 Y36.236 Z0.605 I-0.788 J-0.434
X108.816 Y37.104 Z0.506 I0.788 J0.434
X107.24 Y36.236 Z0.408 I-0.788 J-0.434
X108.816 Y37.104 Z0.309 I0.788 J0.434
X107.24 Y36.236 Z0.21 I-0.788 J-0.434
X108.816 Y37.104 Z0.111 I0.788 J0.434
X107.24 Y36.236 Z0.013 I-0.788 J-0.434
X108.816 Y37.104 Z-0.086 I0.788 J0.434
X107.24 Y36.236 Z-0.185 I-0.788 J-0.434
X108.816 Y37.104 Z-0.284 I0.788 J0.434
X107.24 Y36.236 Z-0.382 I-0.788 J-0.434
X108.816 Y37.104 Z-0.481 I0.788 J0.434
X107.24 Y36.236 Z-0.58 I-0.788 J-0.434
X108.816 Y37.104 Z-0.679 I0.788 J0.434
X107.24 Y36.236 Z-0.777 I-0.788 J-0.434
X108.816 Y37.104 Z-0.876 I0.788 J0.434
X107.24 Y36.236 Z-0.975 I-0.788 J-0.434
X107.794 Y35.801 Z-1 I0.788 J0.434
X108.225 Y36.128 I0.089 J0.331 F30
X108.228 Y36.67 I-54.576 J0.542
X107.828 Y36.67 I-0.2 J0
X108.228 Y36.67 I0.2 J0
G2 X108.489 Y37.186 I0.64 J0
G3 X108.402 Y37.757 I-0.193 J0.263
X107.654 Y35.583 I-0.374 J-1.087
X108.402 Y37.757 I0.374 J1.087
G1 X108.354 Y37.768 Z-0.987
X108.304 Y37.765 Z-0.973
X108.269 Y37.756 Z-0.937
X108.235 Y37.74 Z-0.9
X108.213 Y37.725 Z-0.8
G0 Z5
X107.165 Y36.414
Z3
G1 Z0.2 F30
X107.173 Y36.389 Z0.102 F10
X107.197 Y36.323 Z0.029
X107.24 Y36.236 Z0
G3 X108.816 Y37.104 Z-0.099 I0.788 J0.434
X107.24 Y36.236 Z-0.197 I-0.788 J-0.434
X108.816 Y37.104 Z-0.296 I0.788 J0.434
X107.24 Y36.236 Z-0.395 I-0.788 J-0.434
X108.816 Y37.104 Z-0.494 I0.788 J0.434
X107.24 Y36.236 Z-0.592 I-0.788 J-0.434
X108.816 Y37.104 Z-0.691 I0.788 J0.434
X107.24 Y36.236 Z-0.79 I-0.788 J-0.434
X108.816 Y37.104 Z-0.889 I0.788 J0.434
X107.24 Y36.236 Z-0.987 I-0.788 J-0.434
X108.816 Y37.104 Z-1.086 I0.788 J0.434
X107.24 Y36.236 Z-1.185 I-0.788 J-0.434
X108.816 Y37.104 Z-1.284 I0.788 J0.434
X107.24 Y36.236 Z-1.382 I-0.788 J-0.434
X108.816 Y37.104 Z-1.481 I0.788 J0.434
X107.24 Y36.236 Z-1.58 I-0.788 J-0.434
X108.816 Y37.104 Z-1.679 I0.788 J0.434
X107.24 Y36.236 Z-1.777 I-0.788 J-0.434
X108.816 Y37.104 Z-1.876 I0.788 J0.434
X107.24 Y36.236 Z-1.975 I-0.788 J-0.434
X107.794 Y35.801 Z-2 I0.788 J0.434
X108.225 Y36.128 I0.089 J0.331 F30
X108.228 Y36.67 I-54.576 J0.542
X107.828 Y36.67 I-0.2 J0
X108.228 Y36.67 I0.2 J0
G2 X108.489 Y37.186 I0.64 J0
G3 X108.402 Y37.757 I-0.193 J0.263
X107.654 Y35.583 I-0.374 J-1.087
X108.402 Y37.757 I0.374 J1.087
G1 X108.354 Y37.768 Z-1.987
X108.304 Y37.765 Z-1.973
X108.269 Y37.756 Z-1.937
X108.235 Y37.74 Z-1.9
X108.213 Y37.725 Z-1.8
G0 Z5
X108.88 Y36.961
Z3
G1 Z-0.8 F30
X108.871 Y36.985 Z-0.898 F10
X108.844 Y37.05 Z-0.971
X108.798 Y37.135 Z-1
G3 X107.258 Y36.205 Z-1.099 I-0.77 J-0.465
X108.798 Y37.135 Z-1.197 I0.77 J0.465
X107.258 Y36.205 Z-1.296 I-0.77 J-0.465
X108.798 Y37.135 Z-1.395 I0.77 J0.465
X107.258 Y36.205 Z-1.494 I-0.77 J-0.465
X108.798 Y37.135 Z-1.592 I0.77 J0.465
X107.258 Y36.205 Z-1.691 I-0.77 J-0.465
X108.798 Y37.135 Z-1.79 I0.77 J0.465
X107.258 Y36.205 Z-1.889 I-0.77 J-0.465
X108.798 Y37.135 Z-1.987 I0.77 J0.465
X107.258 Y36.205 Z-2.086 I-0.77 J-0.465
X108.798 Y37.135 Z-2.185 I0.77 J0.465
X107.258 Y36.205 Z-2.284 I-0.77 J-0.465
X108.798 Y37.135 Z-2.382 I0.77 J0.465
X107.258 Y36.205 Z-2.481 I-0.77 J-0.465
X108.798 Y37.135 Z-2.58 I0.77 J0.465
X107.258 Y36.205 Z-2.679 I-0.77 J-0.465
X108.798 Y37.135 Z-2.777 I0.77 J0.465
X107.258 Y36.205 Z-2.876 I-0.77 J-0.465
X107.794 Y35.801 Z-2.9 I0.77 J0.465
X108.225 Y36.128 I0.089 J0.331 F30
X108.228 Y36.67 I-54.576 J0.542
X107.828 Y36.67 I-0.2 J0
X108.228 Y36.67 I0.2 J0
G2 X108.489 Y37.186 I0.64 J0
G3 X108.402 Y37.757 I-0.193 J0.263
X107.654 Y35.583 I-0.374 J-1.087
X108.402 Y37.757 I0.374 J1.087
G1 X108.354 Y37.768 Z-2.887
X108.304 Y37.765 Z-2.873
X108.269 Y37.756 Z-2.837
X108.235 Y37.74 Z-2.8
X108.213 Y37.725 Z-2.7
G0 Z5
X107.165 Y47.821
Z3
G1 Z1.2 F30
X107.173 Y47.796 Z1.102 F10
X107.197 Y47.73 Z1.029
X107.24 Y47.643 Z1
G3 X108.816 Y48.511 Z0.901 I0.788 J0.434
X107.24 Y47.643 Z0.803 I-0.788 J-0.434
X108.816 Y48.511 Z0.704 I0.788 J0.434
X107.24 Y47.643 Z0.605 I-0.788 J-0.434
X108.816 Y48.511 Z0.506 I0.788 J0.434
X107.24 Y47.643 Z0.408 I-0.788 J-0.434
X108.816 Y48.511 Z0.309 I0.788 J0.434
X107.24 Y47.643 Z0.21 I-0.788 J-0.434
X108.816 Y48.511 Z0.111 I0.788 J0.434
X107.24 Y47.643 Z0.013 I-0.788 J-0.434
X108.816 Y48.511 Z-0.086 I0.788 J0.434
X107.24 Y47.643 Z-0.185 I-0.788 J-0.434
X108.816 Y48.511 Z-0.284 I0.788 J0.434
X107.24 Y47.643 Z-0.382 I-0.788 J-0.434
X108.816 Y48.511 Z-0.481 I0.788 J0.434
X107.24 Y47.643 Z-0.58 I-0.788 J-0.434
X108.816 Y48.511 Z-0.679 I0.788 J0.434
X107.24 Y47.643 Z-0.777 I-0.788 J-0.434
X108.816 Y48.511 Z-0.876 I0.788 J0.434
X107.24 Y47.643 Z-0.975 I-0.788 J-0.434
X107.794 Y47.208 Z-1 I0.788 J0.434
X108.225 Y47.535 I0.089 J0.331 F30
X108.228 Y48.077 I-54.576 J0.542
X107.828 Y48.077 I-0.2 J0
X108.228 Y48.077 I0.2 J0
G2 X108.489 Y48.593 I0.64 J0
G3 X108.402 Y49.164 I-0.193 J0.263
X107.654 Y46.99 I-0.374 J-1.087
X108.402 Y49.164 I0.374 J1.087
G1 X108.354 Y49.175 Z-0.987
X108.304 Y49.172 Z-0.973
X108.269 Y49.163 Z-0.937
X108.235 Y49.147 Z-0.9
X108.213 Y49.132 Z-0.8
G0 Z5
X107.165 Y47.821
Z3
G1 Z0.2 F30
X107.173 Y47.796 Z0.102 F10
X107.197 Y47.73 Z0.029
X107.24 Y47.643 Z0
G3 X108.816 Y48.511 Z-0.099 I0.788 J0.434
X107.24 Y47.643 Z-0.197 I-0.788 J-0.434
X108.816 Y48.511 Z-0.296 I0.788 J0.434
X107.24 Y47.643 Z-0.395 I-0.788 J-0.434
X108.816 Y48.511 Z-0.494 I0.788 J0.434
X107.24 Y47.643 Z-0.592 I-0.788 J-0.434
X108.816 Y48.511 Z-0.691 I0.788 J0.434
X107.24 Y47.643 Z-0.79 I-0.788 J-0.434
X108.816 Y48.511 Z-0.889 I0.788 J0.434
X107.24 Y47.643 Z-0.987 I-0.788 J-0.434
X108.816 Y48.511 Z-1.086 I0.788 J0.434
X107.24 Y47.643 Z-1.185 I-0.788 J-0.434
X108.816 Y48.511 Z-1.284 I0.788 J0.434
X107.24 Y47.643 Z-1.382 I-0.788 J-0.434
X108.816 Y48.511 Z-1.481 I0.788 J0.434
X107.24 Y47.643 Z-1.58 I-0.788 J-0.434
X108.816 Y48.511 Z-1.679 I0.788 J0.434
X107.24 Y47.643 Z-1.777 I-0.788 J-0.434
X108.816 Y48.511 Z-1.876 I0.788 J0.434
X107.24 Y47.643 Z-1.975 I-0.788 J-0.434
X107.794 Y47.208 Z-2 I0.788 J0.434
X108.225 Y47.535 I0.089 J0.331 F30
X108.228 Y48.077 I-54.576 J0.542
X107.828 Y48.077 I-0.2 J0
X108.228 Y48.077 I0.2 J0
G2 X108.489 Y48.593 I0.64 J0
G3 X108.402 Y49.164 I-0.193 J0.263
X107.654 Y46.99 I-0.374 J-1.087
X108.402 Y49.164 I0.374 J1.087
G1 X108.354 Y49.175 Z-1.987
X108.304 Y49.172 Z-1.973
X108.269 Y49.163 Z-1.937
X108.235 Y49.147 Z-1.9
X108.213 Y49.132 Z-1.8
G0 Z5
X108.88 Y48.368
Z3
G1 Z-0.8 F30
X108.871 Y48.392 Z-0.898 F10
X108.844 Y48.457 Z-0.971
X108.798 Y48.542 Z-1
G3 X107.258 Y47.612 Z-1.099 I-0.77 J-0.465
X108.798 Y48.542 Z-1.197 I0.77 J0.465
X107.258 Y47.612 Z-1.296 I-0.77 J-0.465
X108.798 Y48.542 Z-1.395 I0.77 J0.465
X107.258 Y47.612 Z-1.494 I-0.77 J-0.465
X108.798 Y48.542 Z-1.592 I0.77 J0.465
X107.258 Y47.612 Z-1.691 I-0.77 J-0.465
X108.798 Y48.542 Z-1.79 I0.77 J0.465
X107.258 Y47.612 Z-1.889 I-0.77 J-0.465
X108.798 Y48.542 Z-1.987 I0.77 J0.465
X107.258 Y47.612 Z-2.086 I-0.77 J-0.465
X108.798 Y48.542 Z-2.185 I0.77 J0.465
X107.258 Y47.612 Z-2.284 I-0.77 J-0.465
X108.798 Y48.542 Z-2.382 I0.77 J0.465
X107.258 Y47.612 Z-2.481 I-0.77 J-0.465
X108.798 Y48.542 Z-2.58 I0.77 J0.465
X107.258 Y47.612 Z-2.679 I-0.77 J-0.465
X108.798 Y48.542 Z-2.777 I0.77 J0.465
X107.258 Y47.612 Z-2.876 I-0.77 J-0.465
X107.794 Y47.208 Z-2.9 I0.77 J0.465
X108.225 Y47.535 I0.089 J0.331 F30
X108.228 Y48.077 I-54.576 J0.542
X107.828 Y48.077 I-0.2 J0
X108.228 Y48.077 I0.2 J0
G2 X108.489 Y48.593 I0.64 J0
G3 X108.402 Y49.164 I-0.193 J0.263
X107.654 Y46.99 I-0.374 J-1.087
X108.402 Y49.164 I0.374 J1.087
G1 X108.354 Y49.175 Z-2.887
X108.304 Y49.172 Z-2.873
X108.269 Y49.163 Z-2.837
X108.235 Y49.147 Z-2.8
X108.213 Y49.132 Z-2.7
G0 Z5
X127.088 Y43.934
Z3
G1 Z1.2 F30
G19 G2 Y43.741 Z1 J-0.2 K0 F10
G1 Y29.968 Z0.519
G17 G3 X127.648 Y29.968 Z0.488 I0.28 J0
G1 Y50.788 Z-0.239
G3 X127.088 Y50.788 Z-0.269 I-0.28 J0
G1 Y29.968 Z-0.997
X127.092 Y29.918 Z-0.998
X127.106 Y29.87 Z-1
G3 X127.648 Y29.968 I0.262 J0.098 F30
G1 Y50.788
G3 X127.088 Y50.788 I-0.28 J0
G1 Y29.968
X127.092 Y29.918
X127.106 Y29.87
G2 X127.049 Y29.434 I-0.441 J-0.165
G3 X127.221 Y29.03 I0.211 J-0.149
X128.318 Y29.968 I0.147 J0.938
G1 Y50.788
G3 X126.418 Y50.788 I-0.95 J0
G1 Y29.968
G3 X127.221 Y29.03 I0.95 J0
G2 X127.766 Y28.597 I-0.11 J-0.698
G3 X128.432 Y28.394 I0.415 J0.168
X129.268 Y29.968 I-1.064 J1.574
G1 Y50.788
G3 X125.468 Y50.788 I-1.9 J0
G1 Y29.968
G3 X128.432 Y28.394 I1.9 J0
G1 X128.469 Y28.427 Z-0.987
X128.498 Y28.468 Z-0.973
X128.511 Y28.502 Z-0.937
X128.519 Y28.537 Z-0.9
X128.52 Y28.564 Z-0.8
G0 Z5
X127.088 Y43.934
Z3
G1 Z0.2 F30
G19 G2 Y43.741 Z0 J-0.2 K0 F10
G1 Y29.968 Z-0.481
G17 G3 X127.648 Y29.968 Z-0.512 I0.28 J0
G1 Y50.788 Z-1.239
G3 X127.088 Y50.788 Z-1.269 I-0.28 J0
G1 Y29.968 Z-1.997
X127.092 Y29.918 Z-1.998
X127.106 Y29.87 Z-2
G3 X127.648 Y29.968 I0.262 J0.098 F30
G1 Y50.788
G3 X127.088 Y50.788 I-0.28 J0
G1 Y29.968
X127.092 Y29.918
X127.106 Y29.87
G2 X127.049 Y29.434 I-0.441 J-0.165
G3 X127.221 Y29.03 I0.211 J-0.149
X128.318 Y29.968 I0.147 J0.938
G1 Y50.788
G3 X126.418 Y50.788 I-0.95 J0
G1 Y29.968
G3 X127.221 Y29.03 I0.95 J0
G2 X127.766 Y28.597 I-0.11 J-0.698
G3 X128.432 Y28.394 I0.415 J0.168
X129.268 Y29.968 I-1.064 J1.574
G1 Y50.788
G3 X125.468 Y50.788 I-1.9 J0
G1 Y29.968
G3 X128.432 Y28.394 I1.9 J0
G1 X128.469 Y28.427 Z-1.987
X128.498 Y28.468 Z-1.973
X128.511 Y28.502 Z-1.937
X128.519 Y28.537 Z-1.9
X128.52 Y28.564 Z-1.8
G0 Z5
X127.088 Y41.071
Z3
G1 Z-0.8 F30
G19 G2 Y40.878 Z-1 J-0.2 K0 F10
G1 Y29.968 Z-1.381
G17 G3 X127.648 Y29.968 Z-1.412 I0.28 J0
G1 Y50.788 Z-2.139
G3 X127.088 Y50.788 Z-2.169 I-0.28 J0
G1 Y29.968 Z-2.897
X127.092 Y29.918 Z-2.898
X127.106 Y29.87 Z-2.9
G3 X127.648 Y29.968 I0.262 J0.098 F30
G1 Y50.788
G3 X127.088 Y50.788 I-0.28 J0
G1 Y29.968
X127.092 Y29.918
X127.106 Y29.87
G2 X127.049 Y29.434 I-0.441 J-0.165
G3 X127.221 Y29.03 I0.211 J-0.149
X128.318 Y29.968 I0.147 J0.938
G1 Y50.788
G3 X126.418 Y50.788 I-0.95 J0
G1 Y29.968
G3 X127.221 Y29.03 I0.95 J0
G2 X127.766 Y28.597 I-0.11 J-0.698
G3 X128.432 Y28.394 I0.415 J0.168
X129.268 Y29.968 I-1.064 J1.574
G1 Y50.788
G3 X125.468 Y50.788 I-1.9 J0
G1 Y29.968
G3 X128.432 Y28.394 I1.9 J0
G1 X128.469 Y28.427 Z-2.887
X128.498 Y28.468 Z-2.873
X128.511 Y28.502 Z-2.837
X128.519 Y28.537 Z-2.8
X128.52 Y28.564 Z-2.7
G0 Z5
X130.66 Y21.732
Z3
G1 Z1.2 F30
X130.668 Y21.707 Z1.102 F10
X130.692 Y21.641 Z1.029
X130.735 Y21.554 Z1
G3 X132.311 Y22.422 Z0.901 I0.788 J0.434
X130.735 Y21.554 Z0.803 I-0.788 J-0.434
X132.311 Y22.422 Z0.704 I0.788 J0.434
X130.735 Y21.554 Z0.605 I-0.788 J-0.434
X132.311 Y22.422 Z0.506 I0.788 J0.434
X130.735 Y21.554 Z0.408 I-0.788 J-0.434
X132.311 Y22.422 Z0.309 I0.788 J0.434
X130.735 Y21.554 Z0.21 I-0.788 J-0.434
X132.311 Y22.422 Z0.111 I0.788 J0.434
X130.735 Y21.554 Z0.013 I-0.788 J-0.434
X132.311 Y22.422 Z-0.086 I0.788 J0.434
X130.735 Y21.554 Z-0.185 I-0.788 J-0.434
X132.311 Y22.422 Z-0.284 I0.788 J0.434
X130.735 Y21.554 Z-0.382 I-0.788 J-0.434
X132.311 Y22.422 Z-0.481 I0.788 J0.434
X130.735 Y21.554 Z-0.58 I-0.788 J-0.434
X132.311 Y22.422 Z-0.679 I0.788 J0.434
X130.735 Y21.554 Z-0.777 I-0.788 J-0.434
X132.311 Y22.422 Z-0.876 I0.788 J0.434
X130.735 Y21.554 Z-0.975 I-0.788 J-0.434
X131.289 Y21.119 Z-1 I0.788 J0.434
X131.72 Y21.446 I0.089 J0.331 F30
X131.723 Y21.988 I-54.576 J0.542
X131.323 Y21.988 I-0.2 J0
X131.723 Y21.988 I0.2 J0
G2 X131.984 Y22.504 I0.64 J0
G3 X131.897 Y23.075 I-0.193 J0.263
X131.149 Y20.901 I-0.374 J-1.087
X131.897 Y23.075 I0.374 J1.087
G1 X131.849 Y23.086 Z-0.987
X131.799 Y23.083 Z-0.973
X131.764 Y23.074 Z-0.937
X131.73 Y23.058 Z-0.9
X131.708 Y23.043 Z-0.8
G0 Z5
X130.66 Y21.732
Z3
G1 Z0.2 F30
X130.668 Y21.707 Z0.102 F10
X130.692 Y21.641 Z0.029
X130.735 Y21.554 Z0
G3 X132.311 Y22.422 Z-0.099 I0.788 J0.434
X130.735 Y21.554 Z-0.197 I-0.788 J-0.434
X132.311 Y22.422 Z-0.296 I0.788 J0.434
X130.735 Y21.554 Z-0.395 I-0.788 J-0.434
X132.311 Y22.422 Z-0.494 I0.788 J0.434
X130.735 Y21.554 Z-0.592 I-0.788 J-0.434
X132.311 Y22.422 Z-0.691 I0.788 J0.434
X130.735 Y21.554 Z-0.79 I-0.788 J-0.434
X132.311 Y22.422 Z-0.889 I0.788 J0.434
X130.735 Y21.554 Z-0.987 I-0.788 J-0.434
X132.311 Y22.422 Z-1.086 I0.788 J0.434
X130.735 Y21.554 Z-1.185 I-0.788 J-0.434
X132.311 Y22.422 Z-1.284 I0.788 J0.434
X130.735 Y21.554 Z-1.382 I-0.788 J-0.434
X132.311 Y22.422 Z-1.481 I0.788 J0.434
X130.735 Y21.554 Z-1.58 I-0.788 J-0.434
X132.311 Y22.422 Z-1.679 I0.788 J0.434
X130.735 Y21.554 Z-1.777 I-0.788 J-0.434
X132.311 Y22.422 Z-1.876 I0.788 J0.434
X130.735 Y21.554 Z-1.975 I-0.788 J-0.434
X131.289 Y21.119 Z-2 I0.788 J0.434
X131.72 Y21.446 I0.089 J0.331 F30
X131.723 Y21.988 I-54.576 J0.542
X131.323 Y21.988 I-0.2 J0
X131.723 Y21.988 I0.2 J0
G2 X131.984 Y22.504 I0.64 J0
G3 X131.897 Y23.075 I-0.193 J0.263
X131.149 Y20.901 I-0.374 J-1.087
X131.897 Y23.075 I0.374 J1.087
G1 X131.849 Y23.086 Z-1.987
X131.799 Y23.083 Z-1.973
X131.764 Y23.074 Z-1.937
X131.73 Y23.058 Z-1.9
X131.708 Y23.043 Z-1.8
G0 Z5
X132.375 Y22.279
Z3
G1 Z-0.8 F30
X132.366 Y22.303 Z-0.898 F10
X132.339 Y22.368 Z-0.971
X132.293 Y22.453 Z-1
G3 X130.753 Y21.523 Z-1.099 I-0.77 J-0.465
X132.293 Y22.453 Z-1.197 I0.77 J0.465
X130.753 Y21.523 Z-1.296 I-0.77 J-0.465
X132.293 Y22.453 Z-1.395 I0.77 J0.465
X130.753 Y21.523 Z-1.494 I-0.77 J-0.465
X132.293 Y22.453 Z-1.592 I0.77 J0.465
X130.753 Y21.523 Z-1.691 I-0.77 J-0.465
X132.293 Y22.453 Z-1.79 I0.77 J0.465
X130.753 Y21.523 Z-1.889 I-0.77 J-0.465
X132.293 Y22.453 Z-1.987 I0.77 J0.465
X130.753 Y21.523 Z-2.086 I-0.77 J-0.465
X132.293 Y22.453 Z-2.185 I0.77 J0.465
X130.753 Y21.523 Z-2.284 I-0.77 J-0.465
X132.293 Y22.453 Z-2.382 I0.77 J0.465
X130.753 Y21.523 Z-2.481 I-0.77 J-0.465
X132.293 Y22.453 Z-2.58 I0.77 J0.465
X130.753 Y21.523 Z-2.679 I-0.77 J-0.465
X132.293 Y22.453 Z-2.777 I0.77 J0.465
X130.753 Y21.523 Z-2.876 I-0.77 J-0.465
X131.289 Y21.119 Z-2.9 I0.77 J0.465
X131.72 Y21.446 I0.089 J0.331 F30
X131.723 Y21.988 I-54.576 J0.542
X131.323 Y21.988 I-0.2 J0
X131.723 Y21.988 I0.2 J0
G2 X131.984 Y22.504 I0.64 J0
G3 X131.897 Y23.075 I-0.193 J0.263
X131.149 Y20.901 I-0.374 J-1.087
X131.897 Y23.075 I0.374 J1.087
G1 X131.849 Y23.086 Z-2.887
X131.799 Y23.083 Z-2.873
X131.764 Y23.074 Z-2.837
X131.73 Y23.058 Z-2.8
X131.708 Y23.043 Z-2.7
G0 Z5
X143.36 Y21.732
Z3
G1 Z1.2 F30
X143.368 Y21.707 Z1.102 F10
X143.392 Y21.641 Z1.029
X143.435 Y21.554 Z1
G3 X145.011 Y22.422 Z0.901 I0.788 J0.434
X143.435 Y21.554 Z0.803 I-0.788 J-0.434
X145.011 Y22.422 Z0.704 I0.788 J0.434
X143.435 Y21.554 Z0.605 I-0.788 J-0.434
X145.011 Y22.422 Z0.506 I0.788 J0.434
X143.435 Y21.554 Z0.408 I-0.788 J-0.434
X145.011 Y22.422 Z0.309 I0.788 J0.434
X143.435 Y21.554 Z0.21 I-0.788 J-0.434
X145.011 Y22.422 Z0.111 I0.788 J0.434
X143.435 Y21.554 Z0.013 I-0.788 J-0.434
X145.011 Y22.422 Z-0.086 I0.788 J0.434
X143.435 Y21.554 Z-0.185 I-0.788 J-0.434
X145.011 Y22.422 Z-0.284 I0.788 J0.434
X143.435 Y21.554 Z-0.382 I-0.788 J-0.434
X145.011 Y22.422 Z-0.481 I0.788 J0.434
X143.435 Y21.554 Z-0.58 I-0.788 J-0.434
X145.011 Y22.422 Z-0.679 I0.788 J0.434
X143.435 Y21.554 Z-0.777 I-0.788 J-0.434
X145.011 Y22.422 Z-0.876 I0.788 J0.434
X143.435 Y21.554 Z-0.975 I-0.788 J-0.434
X143.989 Y21.119 Z-1 I0.788 J0.434
X144.42 Y21.446 I0.089 J0.331 F30
X144.423 Y21.988 I-54.576 J0.542
X144.023 Y21.988 I-0.2 J0
X144.423 Y21.988 I0.2 J0
G2 X144.684 Y22.504 I0.64 J0
G3 X144.597 Y23.075 I-0.193 J0.263
X143.849 Y20.901 I-0.374 J-1.087
X144.597 Y23.075 I0.374 J1.087
G1 X144.549 Y23.086 Z-0.987
X144.499 Y23.083 Z-0.973
X144.464 Y23.074 Z-0.937
X144.43 Y23.058 Z-0.9
X144.408 Y23.043 Z-0.8
G0 Z5
X143.36 Y21.732
Z3
G1 Z0.2 F30
X143.368 Y21.707 Z0.102 F10
X143.392 Y21.641 Z0.029
X143.435 Y21.554 Z0
G3 X145.011 Y22.422 Z-0.099 I0.788 J0.434
X143.435 Y21.554 Z-0.197 I-0.788 J-0.434
X145.011 Y22.422 Z-0.296 I0.788 J0.434
X143.435 Y21.554 Z-0.395 I-0.788 J-0.434
X145.011 Y22.422 Z-0.494 I0.788 J0.434
X143.435 Y21.554 Z-0.592 I-0.788 J-0.434
X145.011 Y22.422 Z-0.691 I0.788 J0.434
X143.435 Y21.554 Z-0.79 I-0.788 J-0.434
X145.011 Y22.422 Z-0.889 I0.788 J0.434
X143.435 Y21.554 Z-0.987 I-0.788 J-0.434
X145.011 Y22.422 Z-1.086 I0.788 J0.434
X143.435 Y21.554 Z-1.185 I-0.788 J-0.434
X145.011 Y22.422 Z-1.284 I0.788 J0.434
X143.435 Y21.554 Z-1.382 I-0.788 J-0.434
X145.011 Y22.422 Z-1.481 I0.788 J0.434
X143.435 Y21.554 Z-1.58 I-0.788 J-0.434
X145.011 Y22.422 Z-1.679 I0.788 J0.434
X143.435 Y21.554 Z-1.777 I-0.788 J-0.434
X145.011 Y22.422 Z-1.876 I0.788 J0.434
X143.435 Y21.554 Z-1.975 I-0.788 J-0.434
X143.989 Y21.119 Z-2 I0.788 J0.434
X144.42 Y21.446 I0.089 J0.331 F30
X144.423 Y21.988 I-54.576 J0.542
X144.023 Y21.988 I-0.2 J0
X144.423 Y21.988 I0.2 J0
G2 X144.684 Y22.504 I0.64 J0
G3 X144.597 Y23.075 I-0.193 J0.263
X143.849 Y20.901 I-0.374 J-1.087
X144.597 Y23.075 I0.374 J1.087
G1 X144.549 Y23.086 Z-1.987
X144.499 Y23.083 Z-1.973
X144.464 Y23.074 Z-1.937
X144.43 Y23.058 Z-1.9
X144.408 Y23.043 Z-1.8
G0 Z5
X145.075 Y22.279
Z3
G1 Z-0.8 F30
X145.066 Y22.303 Z-0.898 F10
X145.039 Y22.368 Z-0.971
X144.993 Y22.453 Z-1
G3 X143.453 Y21.523 Z-1.099 I-0.77 J-0.465
X144.993 Y22.453 Z-1.197 I0.77 J0.465
X143.453 Y21.523 Z-1.296 I-0.77 J-0.465
X144.993 Y22.453 Z-1.395 I0.77 J0.465
X143.453 Y21.523 Z-1.494 I-0.77 J-0.465
X144.993 Y22.453 Z-1.592 I0.77 J0.465
X143.453 Y21.523 Z-1.691 I-0.77 J-0.465
X144.993 Y22.453 Z-1.79 I0.77 J0.465
X143.453 Y21.523 Z-1.889 I-0.77 J-0.465
X144.993 Y22.453 Z-1.987 I0.77 J0.465
X143.453 Y21.523 Z-2.086 I-0.77 J-0.465
X144.993 Y22.453 Z-2.185 I0.77 J0.465
X143.453 Y21.523 Z-2.284 I-0.77 J-0.465
X144.993 Y22.453 Z-2.382 I0.77 J0.465
X143.453 Y21.523 Z-2.481 I-0.77 J-0.465
X144.993 Y22.453 Z-2.58 I0.77 J0.465
X143.453 Y21.523 Z-2.679 I-0.77 J-0.465
X144.993 Y22.453 Z-2.777 I0.77 J0.465
X143.453 Y21.523 Z-2.876 I-0.77 J-0.465
X143.989 Y21.119 Z-2.9 I0.77 J0.465
X144.42 Y21.446 I0.089 J0.331 F30
X144.423 Y21.988 I-54.576 J0.542
X144.023 Y21.988 I-0.2 J0
X144.423 Y21.988 I0.2 J0
G2 X144.684 Y22.504 I0.64 J0
G3 X144.597 Y23.075 I-0.193 J0.263
X143.849 Y20.901 I-0.374 J-1.087
X144.597 Y23.075 I0.374 J1.087
G1 X144.549 Y23.086 Z-2.887
X144.499 Y23.083 Z-2.873
X144.464 Y23.074 Z-2.837
X144.43 Y23.058 Z-2.8
X144.408 Y23.043 Z-2.7
G0 Z5
X171.578 Y28.248
Z3
G1 Z1.2 F30
X171.584 Y28.223 Z1.102 F10
X171.604 Y28.156 Z1.029
X171.641 Y28.066 Z1
G3 X173.269 Y28.834 Z0.901 I0.814 J0.384
X171.641 Y28.066 Z0.803 I-0.814 J-0.384
X173.269 Y28.834 Z0.704 I0.814 J0.384
X171.641 Y28.066 Z0.605 I-0.814 J-0.384
X173.269 Y28.834 Z0.506 I0.814 J0.384
X171.641 Y28.066 Z0.408 I-0.814 J-0.384
X173.269 Y28.834 Z0.309 I0.814 J0.384
X171.641 Y28.066 Z0.21 I-0.814 J-0.384
X173.269 Y28.834 Z0.111 I0.814 J0.384
X171.641 Y28.066 Z0.013 I-0.814 J-0.384
X173.269 Y28.834 Z-0.086 I0.814 J0.384
X171.641 Y28.066 Z-0.185 I-0.814 J-0.384
X173.269 Y28.834 Z-0.284 I0.814 J0.384
X171.641 Y28.066 Z-0.382 I-0.814 J-0.384
X173.269 Y28.834 Z-0.481 I0.814 J0.384
X171.641 Y28.066 Z-0.58 I-0.814 J-0.384
X173.269 Y28.834 Z-0.679 I0.814 J0.384
X171.641 Y28.066 Z-0.777 I-0.814 J-0.384
X173.269 Y28.834 Z-0.876 I0.814 J0.384
X171.641 Y28.066 Z-0.975 I-0.814 J-0.384
X172.167 Y27.597 Z-1 I0.814 J0.384
X172.605 Y27.912 I0.106 J0.314 F30
G1 Y28.45
G3 X172.305 Y28.45 I-0.15 J0
X172.605 Y28.45 I0.15 J0
G2 X172.845 Y28.93 I0.599 J0
G3 X172.75 Y29.458 I-0.179 J0.24
X172.16 Y27.442 I-0.295 J-1.008
X172.75 Y29.458 I0.295 J1.008
G2 X172.285 Y29.942 I0.19 J0.648
G3 X171.683 Y30.241 I-0.428 J-0.107
X173.227 Y26.659 I0.772 J-1.791
X171.683 Y30.241 I-0.772 J1.791
G2 X170.935 Y30.341 I-0.29 J0.673
G3 X170.186 Y30.256 I-0.332 J-0.417
X174.724 Y26.644 I2.269 J-1.806
X170.186 Y30.256 I-2.269 J1.806
G1 X170.16 Y30.213 Z-0.987
X170.145 Y30.166 Z-0.973
X170.142 Y30.129 Z-0.937
X170.146 Y30.093 Z-0.9
X170.153 Y30.067 Z-0.8
G0 Z5
X171.578 Y28.248
Z3
G1 Z0.2 F30
X171.584 Y28.223 Z0.102 F10
X171.604 Y28.156 Z0.029
X171.641 Y28.066 Z0
G3 X173.269 Y28.834 Z-0.099 I0.814 J0.384
X171.641 Y28.066 Z-0.197 I-0.814 J-0.384
X173.269 Y28.834 Z-0.296 I0.814 J0.384
X171.641 Y28.066 Z-0.395 I-0.814 J-0.384
X173.269 Y28.834 Z-0.494 I0.814 J0.384
X171.641 Y28.066 Z-0.592 I-0.814 J-0.384
X173.269 Y28.834 Z-0.691 I0.814 J0.384
X171.641 Y28.066 Z-0.79 I-0.814 J-0.384
X173.269 Y28.834 Z-0.889 I0.814 J0.384
X171.641 Y28.066 Z-0.987 I-0.814 J-0.384
X173.269 Y28.834 Z-1.086 I0.814 J0.384
X171.641 Y28.066 Z-1.185 I-0.814 J-0.384
X173.269 Y28.834 Z-1.284 I0.814 J0.384
X171.641 Y28.066 Z-1.382 I-0.814 J-0.384
X173.269 Y28.834 Z-1.481 I0.814 J0.384
X171.641 Y28.066 Z-1.58 I-0.814 J-0.384
X173.269 Y28.834 Z-1.679 I0.814 J0.384
X171.641 Y28.066 Z-1.777 I-0.814 J-0.384
X173.269 Y28.834 Z-1.876 I0.814 J0.384
X171.641 Y28.066 Z-1.975 I-0.814 J-0.384
X172.167 Y27.597 Z-2 I0.814 J0.384
X172.605 Y27.912 I0.106 J0.314 F30
G1 Y28.45
G3 X172.305 Y28.45 I-0.15 J0
X172.605 Y28.45 I0.15 J0
G2 X172.845 Y28.93 I0.599 J0
G3 X172.75 Y29.458 I-0.179 J0.24
X172.16 Y27.442 I-0.295 J-1.008
X172.75 Y29.458 I0.295 J1.008
G2 X172.285 Y29.942 I0.19 J0.648
G3 X171.683 Y30.241 I-0.428 J-0.107
X173.227 Y26.659 I0.772 J-1.791
X171.683 Y30.241 I-0.772 J1.791
G2 X170.935 Y30.341 I-0.29 J0.673
G3 X170.186 Y30.256 I-0.332 J-0.417
X174.724 Y26.644 I2.269 J-1.806
X170.186 Y30.256 I-2.269 J1.806
G1 X170.16 Y30.213 Z-1.987
X170.145 Y30.166 Z-1.973
X170.142 Y30.129 Z-1.937
X170.146 Y30.093 Z-1.9
X170.153 Y30.067 Z-1.8
G0 Z5
X173.323 Y28.687
Z3
G1 Z-0.8 F30
X173.316 Y28.712 Z-0.898 F10
X173.293 Y28.778 Z-0.971
X173.253 Y28.867 Z-1
G3 X171.657 Y28.033 Z-1.099 I-0.798 J-0.417
X173.253 Y28.867 Z-1.197 I0.798 J0.417
X171.657 Y28.033 Z-1.296 I-0.798 J-0.417
X173.253 Y28.867 Z-1.395 I0.798 J0.417
X171.657 Y28.033 Z-1.494 I-0.798 J-0.417
X173.253 Y28.867 Z-1.592 I0.798 J0.417
X171.657 Y28.033 Z-1.691 I-0.798 J-0.417
X173.253 Y28.867 Z-1.79 I0.798 J0.417
X171.657 Y28.033 Z-1.889 I-0.798 J-0.417
X173.253 Y28.867 Z-1.987 I0.798 J0.417
X171.657 Y28.033 Z-2.086 I-0.798 J-0.417
X173.253 Y28.867 Z-2.185 I0.798 J0.417
X171.657 Y28.033 Z-2.284 I-0.798 J-0.417
X173.253 Y28.867 Z-2.382 I0.798 J0.417
X171.657 Y28.033 Z-2.481 I-0.798 J-0.417
X173.253 Y28.867 Z-2.58 I0.798 J0.417
X171.657 Y28.033 Z-2.679 I-0.798 J-0.417
X173.253 Y28.867 Z-2.777 I0.798 J0.417
X171.657 Y28.033 Z-2.876 I-0.798 J-0.417
X172.167 Y27.597 Z-2.9 I0.798 J0.417
X172.605 Y27.912 I0.106 J0.314 F30
G1 Y28.45
G3 X172.305 Y28.45 I-0.15 J0
X172.605 Y28.45 I0.15 J0
G2 X172.845 Y28.93 I0.599 J0
G3 X172.75 Y29.458 I-0.179 J0.24
X172.16 Y27.442 I-0.295 J-1.008
X172.75 Y29.458 I0.295 J1.008
G2 X172.285 Y29.942 I0.19 J0.648
G3 X171.683 Y30.241 I-0.428 J-0.107
X173.227 Y26.659 I0.772 J-1.791
X171.683 Y30.241 I-0.772 J1.791
G2 X170.935 Y30.341 I-0.29 J0.673
G3 X170.186 Y30.256 I-0.332 J-0.417
X174.724 Y26.644 I2.269 J-1.806
X170.186 Y30.256 I-2.269 J1.806
G1 X170.16 Y30.213 Z-2.887
X170.145 Y30.166 Z-2.873
X170.142 Y30.129 Z-2.837
X170.146 Y30.093 Z-2.8
X170.153 Y30.067 Z-2.7
G0 Z5
X177.102 Y14.638
Z3
G1 Z2 F30
Z-0.8 F10
X177.08 Y14.622 Z-0.9
X177.055 Y14.596 Z-0.937
X177.034 Y14.566 Z-0.973
X177.016 Y14.519 Z-0.987
X177.01 Y14.47 Z-1
G3 X178.31 Y14.47 I0.65 J0 F30
X177.01 Y14.47 I-0.65 J0
X178.31 Y14.47 Z-1.071 I0.65 J0 F10
X177.01 Y14.47 Z-1.143 I-0.65 J0
X178.31 Y14.47 Z-1.214 I0.65 J0
X177.01 Y14.47 Z-1.285 I-0.65 J0
X178.31 Y14.47 Z-1.357 I0.65 J0
X177.01 Y14.47 Z-1.428 I-0.65 J0
X178.31 Y14.47 Z-1.499 I0.65 J0
X177.01 Y14.47 Z-1.57 I-0.65 J0
X178.31 Y14.47 Z-1.642 I0.65 J0
X177.01 Y14.47 Z-1.713 I-0.65 J0
X178.31 Y14.47 Z-1.784 I0.65 J0
X177.01 Y14.47 Z-1.856 I-0.65 J0
X178.31 Y14.47 Z-1.927 I0.65 J0
X177.636 Y15.12 Z-1.964 I-0.65 J0
X177.012 Y14.422 Z-2 I0.024 J-0.65
X178.308 Y14.518 I0.648 J0.048 F30
X177.012 Y14.422 I-0.648 J-0.048
X178.308 Y14.518 Z-2.071 I0.648 J0.048 F10
X177.012 Y14.422 Z-2.143 I-0.648 J-0.048
X178.308 Y14.518 Z-2.214 I0.648 J0.048
X177.012 Y14.422 Z-2.285 I-0.648 J-0.048
X178.308 Y14.518 Z-2.357 I0.648 J0.048
X177.012 Y14.422 Z-2.428 I-0.648 J-0.048
X178.308 Y14.518 Z-2.499 I0.648 J0.048
X177.012 Y14.422 Z-2.57 I-0.648 J-0.048
X178.308 Y14.518 Z-2.642 I0.648 J0.048
X177.012 Y14.422 Z-2.713 I-0.648 J-0.048
X178.308 Y14.518 Z-2.784 I0.648 J0.048
X177.012 Y14.422 Z-2.856 I-0.648 J-0.048
X177.945 Y13.886 Z-2.9 I0.648 J0.048
X177.375 Y15.054 I-0.285 J0.584 F30
X177.945 Y13.886 I0.285 J-0.584
G1 X177.987 Y13.913 Z-2.887
X178.02 Y13.95 Z-2.873
X178.039 Y13.981 Z-2.837
X178.051 Y14.016 Z-2.8
X178.056 Y14.042 Z-2.7
G0 Z5
X171.578 Y51.098
Z3
G1 Z1.2 F30
X171.584 Y51.073 Z1.102 F10
X171.604 Y51.006 Z1.029
X171.641 Y50.916 Z1
G3 X173.269 Y51.684 Z0.901 I0.814 J0.384
X171.641 Y50.916 Z0.803 I-0.814 J-0.384
X173.269 Y51.684 Z0.704 I0.814 J0.384
X171.641 Y50.916 Z0.605 I-0.814 J-0.384
X173.269 Y51.684 Z0.506 I0.814 J0.384
X171.641 Y50.916 Z0.408 I-0.814 J-0.384
X173.269 Y51.684 Z0.309 I0.814 J0.384
X171.641 Y50.916 Z0.21 I-0.814 J-0.384
X173.269 Y51.684 Z0.111 I0.814 J0.384
X171.641 Y50.916 Z0.013 I-0.814 J-0.384
X173.269 Y51.684 Z-0.086 I0.814 J0.384
X171.641 Y50.916 Z-0.185 I-0.814 J-0.384
X173.269 Y51.684 Z-0.284 I0.814 J0.384
X171.641 Y50.916 Z-0.382 I-0.814 J-0.384
X173.269 Y51.684 Z-0.481 I0.814 J0.384
X171.641 Y50.916 Z-0.58 I-0.814 J-0.384
X173.269 Y51.684 Z-0.679 I0.814 J0.384
X171.641 Y50.916 Z-0.777 I-0.814 J-0.384
X173.269 Y51.684 Z-0.876 I0.814 J0.384
X171.641 Y50.916 Z-0.975 I-0.814 J-0.384
X172.167 Y50.447 Z-1 I0.814 J0.384
X172.605 Y50.762 I0.106 J0.314 F30
G1 Y51.3
G3 X172.305 Y51.3 I-0.15 J0
X172.605 Y51.3 I0.15 J0
G2 X172.845 Y51.78 I0.599 J0
G3 X172.75 Y52.308 I-0.179 J0.24
X172.16 Y50.292 I-0.295 J-1.008
X172.75 Y52.308 I0.295 J1.008
G2 X172.285 Y52.792 I0.19 J0.648
G3 X171.683 Y53.091 I-0.428 J-0.107
X173.227 Y49.509 I0.772 J-1.791
X171.683 Y53.091 I-0.772 J1.791
G2 X170.935 Y53.191 I-0.29 J0.673
G3 X170.186 Y53.106 I-0.332 J-0.417
X174.724 Y49.494 I2.269 J-1.806
X170.186 Y53.106 I-2.269 J1.806
G1 X170.16 Y53.063 Z-0.987
X170.145 Y53.016 Z-0.973
X170.142 Y52.979 Z-0.937
X170.146 Y52.943 Z-0.9
X170.153 Y52.917 Z-0.8
G0 Z5
X171.578 Y51.098
Z3
G1 Z0.2 F30
X171.584 Y51.073 Z0.102 F10
X171.604 Y51.006 Z0.029
X171.641 Y50.916 Z0
G3 X173.269 Y51.684 Z-0.099 I0.814 J0.384
X171.641 Y50.916 Z-0.197 I-0.814 J-0.384
X173.269 Y51.684 Z-0.296 I0.814 J0.384
X171.641 Y50.916 Z-0.395 I-0.814 J-0.384
X173.269 Y51.684 Z-0.494 I0.814 J0.384
X171.641 Y50.916 Z-0.592 I-0.814 J-0.384
X173.269 Y51.684 Z-0.691 I0.814 J0.384
X171.641 Y50.916 Z-0.79 I-0.814 J-0.384
X173.269 Y51.684 Z-0.889 I0.814 J0.384
X171.641 Y50.916 Z-0.987 I-0.814 J-0.384
X173.269 Y51.684 Z-1.086 I0.814 J0.384
X171.641 Y50.916 Z-1.185 I-0.814 J-0.384
X173.269 Y51.684 Z-1.284 I0.814 J0.384
X171.641 Y50.916 Z-1.382 I-0.814 J-0.384
X173.269 Y51.684 Z-1.481 I0.814 J0.384
X171.641 Y50.916 Z-1.58 I-0.814 J-0.384
X173.269 Y51.684 Z-1.679 I0.814 J0.384
X171.641 Y50.916 Z-1.777 I-0.814 J-0.384
X173.269 Y51.684 Z-1.876 I0.814 J0.384
X171.641 Y50.916 Z-1.975 I-0.814 J-0.384
X172.167 Y50.447 Z-2 I0.814 J0.384
X172.605 Y50.762 I0.106 J0.314 F30
G1 Y51.3
G3 X172.305 Y51.3 I-0.15 J0
X172.605 Y51.3 I0.15 J0
G2 X172.845 Y51.78 I0.599 J0
G3 X172.75 Y52.308 I-0.179 J0.24
X172.16 Y50.292 I-0.295 J-1.008
X172.75 Y52.308 I0.295 J1.008
G2 X172.285 Y52.792 I0.19 J0.648
G3 X171.683 Y53.091 I-0.428 J-0.107
X173.227 Y49.509 I0.772 J-1.791
X171.683 Y53.091 I-0.772 J1.791
G2 X170.935 Y53.191 I-0.29 J0.673
G3 X170.186 Y53.106 I-0.332 J-0.417
X174.724 Y49.494 I2.269 J-1.806
X170.186 Y53.106 I-2.269 J1.806
G1 X170.16 Y53.063 Z-1.987
X170.145 Y53.016 Z-1.973
X170.142 Y52.979 Z-1.937
X170.146 Y52.943 Z-1.9
X170.153 Y52.917 Z-1.8
G0 Z5
X173.323 Y51.537
Z3
G1 Z-0.8 F30
X173.316 Y51.562 Z-0.898 F10
X173.293 Y51.628 Z-0.971
X173.253 Y51.717 Z-1
G3 X171.657 Y50.883 Z-1.099 I-0.798 J-0.417
X173.253 Y51.717 Z-1.197 I0.798 J0.417
X171.657 Y50.883 Z-1.296 I-0.798 J-0.417
X173.253 Y51.717 Z-1.395 I0.798 J0.417
X171.657 Y50.883 Z-1.494 I-0.798 J-0.417
X173.253 Y51.717 Z-1.592 I0.798 J0.417
X171.657 Y50.883 Z-1.691 I-0.798 J-0.417
X173.253 Y51.717 Z-1.79 I0.798 J0.417
X171.657 Y50.883 Z-1.889 I-0.798 J-0.417
X173.253 Y51.717 Z-1.987 I0.798 J0.417
X171.657 Y50.883 Z-2.086 I-0.798 J-0.417
X173.253 Y51.717 Z-2.185 I0.798 J0.417
X171.657 Y50.883 Z-2.284 I-0.798 J-0.417
X173.253 Y51.717 Z-2.382 I0.798 J0.417
X171.657 Y50.883 Z-2.481 I-0.798 J-0.417
X173.253 Y51.717 Z-2.58 I0.798 J0.417
X171.657 Y50.883 Z-2.679 I-0.798 J-0.417
X173.253 Y51.717 Z-2.777 I0.798 J0.417
X171.657 Y50.883 Z-2.876 I-0.798 J-0.417
X172.167 Y50.447 Z-2.9 I0.798 J0.417
X172.605 Y50.762 I0.106 J0.314 F30
G1 Y51.3
G3 X172.305 Y51.3 I-0.15 J0
X172.605 Y51.3 I0.15 J0
G2 X172.845 Y51.78 I0.599 J0
G3 X172.75 Y52.308 I-0.179 J0.24
X172.16 Y50.292 I-0.295 J-1.008
X172.75 Y52.308 I0.295 J1.008
G2 X172.285 Y52.792 I0.19 J0.648
G3 X171.683 Y53.091 I-0.428 J-0.107
X173.227 Y49.509 I0.772 J-1.791
X171.683 Y53.091 I-0.772 J1.791
G2 X170.935 Y53.191 I-0.29 J0.673
G3 X170.186 Y53.106 I-0.332 J-0.417
X174.724 Y49.494 I2.269 J-1.806
X170.186 Y53.106 I-2.269 J1.806
G1 X170.16 Y53.063 Z-2.887
X170.145 Y53.016 Z-2.873
X170.142 Y52.979 Z-2.837
X170.146 Y52.943 Z-2.8
X170.153 Y52.917 Z-2.7
G0 Z5
X162.087 Y64.355
Z3
G1 Z1.2 F30
G18 G2 X162.28 Z1 I0.2 K0 F10
G1 X164.575 Z0.92
G17 G3 X164.575 Y64.915 Z0.889 I0 J0.28
G1 X156.455 Z0.606
G3 X156.455 Y64.355 Z0.575 I0 J-0.28
G1 X164.575 Z0.291
G3 X164.575 Y64.915 Z0.261 I0 J0.28
G1 X156.455 Z-0.023
G3 X156.455 Y64.355 Z-0.054 I0 J-0.28
G1 X164.575 Z-0.337
G3 X164.575 Y64.915 Z-0.368 I0 J0.28
G1 X156.455 Z-0.652
G3 X156.455 Y64.355 Z-0.682 I0 J-0.28
G1 X164.575 Z-0.966
G3 X164.575 Y64.915 Z-0.997 I0 J0.28
G1 X164.475 Z-1
X156.455 F30
G3 X156.455 Y64.355 I0 J-0.28
G1 X164.575
G3 X164.575 Y64.915 I0 J0.28
G1 X164.475
G2 X163.973 Y65.25 I0 J0.544
G3 X163.47 Y65.585 I-0.503 J-0.209
G1 X156.455
G3 X156.455 Y63.685 I0 J-0.95
G1 X164.575
G3 X164.575 Y65.585 I0 J0.95
G1 X163.47
G2 X162.758 Y66.06 I0 J0.772
G3 X162.045 Y66.535 I-0.713 J-0.297
G1 X156.455
G3 X156.455 Y62.735 I0 J-1.9
G1 X164.575
G3 X164.575 Y66.535 I0 J1.9
G1 X162.045
X161.996 Y66.529 Z-0.987
X161.949 Y66.511 Z-0.973
X161.919 Y66.49 Z-0.937
X161.893 Y66.465 Z-0.9
X161.877 Y66.443 Z-0.8
G0 Z5
X162.087 Y64.355
Z3
G1 Z0.2 F30
G18 G2 X162.28 Z0 I0.2 K0 F10
G1 X164.575 Z-0.08
G17 G3 X164.575 Y64.915 Z-0.111 I0 J0.28
G1 X156.455 Z-0.394
G3 X156.455 Y64.355 Z-0.425 I0 J-0.28
G1 X164.575 Z-0.709
G3 X164.575 Y64.915 Z-0.739 I0 J0.28
G1 X156.455 Z-1.023
G3 X156.455 Y64.355 Z-1.054 I0 J-0.28
G1 X164.575 Z-1.337
G3 X164.575 Y64.915 Z-1.368 I0 J0.28
G1 X156.455 Z-1.652
G3 X156.455 Y64.355 Z-1.682 I0 J-0.28
G1 X164.575 Z-1.966
G3 X164.575 Y64.915 Z-1.997 I0 J0.28
G1 X164.475 Z-2
X156.455 F30
G3 X156.455 Y64.355 I0 J-0.28
G1 X164.575
G3 X164.575 Y64.915 I0 J0.28
G1 X164.475
G2 X163.973 Y65.25 I0 J0.544
G3 X163.47 Y65.585 I-0.503 J-0.209
G1 X156.455
G3 X156.455 Y63.685 I0 J-0.95
G1 X164.575
G3 X164.575 Y65.585 I0 J0.95
G1 X163.47
G2 X162.758 Y66.06 I0 J0.772
G3 X162.045 Y66.535 I-0.713 J-0.297
G1 X156.455
G3 X156.455 Y62.735 I0 J-1.9
G1 X164.575
G3 X164.575 Y66.535 I0 J1.9
G1 X162.045
X161.996 Y66.529 Z-1.987
X161.949 Y66.511 Z-1.973
X161.919 Y66.49 Z-1.937
X161.893 Y66.465 Z-1.9
X161.877 Y66.443 Z-1.8
G0 Z5
X164.848 Y64.571
Z3
G1 Z-0.8 F30
X164.851 Y64.588 Z-0.88 F10
X164.855 Y64.635 Z-0.947
X164.849 Y64.694 Z-0.985
X164.839 Y64.727 Z-0.993
X164.826 Y64.759 Z-1
G3 X164.575 Y64.915 Z-1.011 I-0.251 J-0.124
G1 X156.455 Z-1.294
G3 X156.455 Y64.355 Z-1.325 I0 J-0.28
G1 X164.575 Z-1.609
G3 X164.575 Y64.915 Z-1.639 I0 J0.28
G1 X156.455 Z-1.923
G3 X156.455 Y64.355 Z-1.954 I0 J-0.28
G1 X164.575 Z-2.237
G3 X164.575 Y64.915 Z-2.268 I0 J0.28
G1 X156.455 Z-2.552
G3 X156.455 Y64.355 Z-2.582 I0 J-0.28
G1 X164.575 Z-2.866
G3 X164.575 Y64.915 Z-2.897 I0 J0.28
G1 X164.475 Z-2.9
X156.455 F30
G3 X156.455 Y64.355 I0 J-0.28
G1 X164.575
G3 X164.575 Y64.915 I0 J0.28
G1 X164.475
G2 X163.973 Y65.25 I0 J0.544
G3 X163.47 Y65.585 I-0.503 J-0.209
G1 X156.455
G3 X156.455 Y63.685 I0 J-0.95
G1 X164.575
G3 X164.575 Y65.585 I0 J0.95
G1 X163.47
G2 X162.758 Y66.06 I0 J0.772
G3 X162.045 Y66.535 I-0.713 J-0.297
G1 X156.455
G3 X156.455 Y62.735 I0 J-1.9
G1 X164.575
G3 X164.575 Y66.535 I0 J1.9
G1 X162.045
X161.996 Y66.529 Z-2.887
X161.949 Y66.511 Z-2.873
X161.919 Y66.49 Z-2.837
X161.893 Y66.465 Z-2.8
X161.877 Y66.443 Z-2.7
G0 Z5
X177.828 Y69.638
Z3
G1 Z2 F30
Z-0.8 F10
X177.812 Y69.66 Z-0.9
X177.786 Y69.685 Z-0.937
X177.756 Y69.706 Z-0.973
X177.709 Y69.724 Z-0.987
X177.66 Y69.73 Z-1
G3 X177.66 Y68.43 I0 J-0.65 F30
X177.66 Y69.73 I0 J0.65
X177.66 Y68.43 Z-1.071 I0 J-0.65 F10
X177.66 Y69.73 Z-1.143 I0 J0.65
X177.66 Y68.43 Z-1.214 I0 J-0.65
X177.66 Y69.73 Z-1.285 I0 J0.65
X177.66 Y68.43 Z-1.357 I0 J-0.65
X177.66 Y69.73 Z-1.428 I0 J0.65
X177.66 Y68.43 Z-1.499 I0 J-0.65
X177.66 Y69.73 Z-1.57 I0 J0.65
X177.66 Y68.43 Z-1.642 I0 J-0.65
X177.66 Y69.73 Z-1.713 I0 J0.65
X177.66 Y68.43 Z-1.784 I0 J-0.65
X177.66 Y69.73 Z-1.856 I0 J0.65
X177.66 Y68.43 Z-1.927 I0 J-0.65
X178.31 Y69.104 Z-1.964 I0 J0.65
X177.612 Y69.728 Z-2 I-0.65 J-0.024
X177.708 Y68.432 I0.048 J-0.648 F30
X177.612 Y69.728 I-0.048 J0.648
X177.708 Y68.432 Z-2.071 I0.048 J-0.648 F10
X177.612 Y69.728 Z-2.143 I-0.048 J0.648
X177.708 Y68.432 Z-2.214 I0.048 J-0.648
X177.612 Y69.728 Z-2.285 I-0.048 J0.648
X177.708 Y68.432 Z-2.357 I0.048 J-0.648
X177.612 Y69.728 Z-2.428 I-0.048 J0.648
X177.708 Y68.432 Z-2.499 I0.048 J-0.648
X177.612 Y69.728 Z-2.57 I-0.048 J0.648
X177.708 Y68.432 Z-2.642 I0.048 J-0.648
X177.612 Y69.728 Z-2.713 I-0.048 J0.648
X177.708 Y68.432 Z-2.784 I0.048 J-0.648
X177.612 Y69.728 Z-2.856 I-0.048 J0.648
X177.076 Y68.795 Z-2.9 I0.048 J-0.648
X178.244 Y69.365 I0.584 J0.285 F30
X177.076 Y68.795 I-0.584 J-0.285
G1 X177.103 Y68.753 Z-2.887
X177.14 Y68.72 Z-2.873
X177.171 Y68.701 Z-2.837
X177.206 Y68.689 Z-2.8
X177.232 Y68.684 Z-2.7
G0 Z5
X143.305 Y62.172
Z3
G1 Z1.2 F30
X143.313 Y62.147 Z1.102 F10
X143.337 Y62.081 Z1.029
X143.38 Y61.994 Z1
G3 X144.956 Y62.862 Z0.901 I0.788 J0.434
X143.38 Y61.994 Z0.803 I-0.788 J-0.434
X144.956 Y62.862 Z0.704 I0.788 J0.434
X143.38 Y61.994 Z0.605 I-0.788 J-0.434
X144.956 Y62.862 Z0.506 I0.788 J0.434
X143.38 Y61.994 Z0.408 I-0.788 J-0.434
X144.956 Y62.862 Z0.309 I0.788 J0.434
X143.38 Y61.994 Z0.21 I-0.788 J-0.434
X144.956 Y62.862 Z0.111 I0.788 J0.434
X143.38 Y61.994 Z0.013 I-0.788 J-0.434
X144.956 Y62.862 Z-0.086 I0.788 J0.434
X143.38 Y61.994 Z-0.185 I-0.788 J-0.434
X144.956 Y62.862 Z-0.284 I0.788 J0.434
X143.38 Y61.994 Z-0.382 I-0.788 J-0.434
X144.956 Y62.862 Z-0.481 I0.788 J0.434
X143.38 Y61.994 Z-0.58 I-0.788 J-0.434
X144.956 Y62.862 Z-0.679 I0.788 J0.434
X143.38 Y61.994 Z-0.777 I-0.788 J-0.434
X144.956 Y62.862 Z-0.876 I0.788 J0.434
X143.38 Y61.994 Z-0.975 I-0.788 J-0.434
X143.934 Y61.559 Z-1 I0.788 J0.434
X144.365 Y61.886 I0.089 J0.331 F30
X144.368 Y62.428 I-54.576 J0.542
X143.968 Y62.428 I-0.2 J0
X144.368 Y62.428 I0.2 J0
G2 X144.629 Y62.944 I0.64 J0
G3 X144.542 Y63.515 I-0.193 J0.263
X143.794 Y61.341 I-0.374 J-1.087
X144.542 Y63.515 I0.374 J1.087
G1 X144.494 Y63.526 Z-0.987
X144.444 Y63.523 Z-0.973
X144.409 Y63.514 Z-0.937
X144.375 Y63.498 Z-0.9
X144.353 Y63.483 Z-0.8
G0 Z5
X143.305 Y62.172
Z3
G1 Z0.2 F30
X143.313 Y62.147 Z0.102 F10
X143.337 Y62.081 Z0.029
X143.38 Y61.994 Z0
G3 X144.956 Y62.862 Z-0.099 I0.788 J0.434
X143.38 Y61.994 Z-0.197 I-0.788 J-0.434
X144.956 Y62.862 Z-0.296 I0.788 J0.434
X143.38 Y61.994 Z-0.395 I-0.788 J-0.434
X144.956 Y62.862 Z-0.494 I0.788 J0.434
X143.38 Y61.994 Z-0.592 I-0.788 J-0.434
X144.956 Y62.862 Z-0.691 I0.788 J0.434
X143.38 Y61.994 Z-0.79 I-0.788 J-0.434
X144.956 Y62.862 Z-0.889 I0.788 J0.434
X143.38 Y61.994 Z-0.987 I-0.788 J-0.434
X144.956 Y62.862 Z-1.086 I0.788 J0.434
X143.38 Y61.994 Z-1.185 I-0.788 J-0.434
X144.956 Y62.862 Z-1.284 I0.788 J0.434
X143.38 Y61.994 Z-1.382 I-0.788 J-0.434
X144.956 Y62.862 Z-1.481 I0.788 J0.434
X143.38 Y61.994 Z-1.58 I-0.788 J-0.434
X144.956 Y62.862 Z-1.679 I0.788 J0.434
X143.38 Y61.994 Z-1.777 I-0.788 J-0.434
X144.956 Y62.862 Z-1.876 I0.788 J0.434
X143.38 Y61.994 Z-1.975 I-0.788 J-0.434
X143.934 Y61.559 Z-2 I0.788 J0.434
X144.365 Y61.886 I0.089 J0.331 F30
X144.368 Y62.428 I-54.576 J0.542
X143.968 Y62.428 I-0.2 J0
X144.368 Y62.428 I0.2 J0
G2 X144.629 Y62.944 I0.64 J0
G3 X144.542 Y63.515 I-0.193 J0.263
X143.794 Y61.341 I-0.374 J-1.087
X144.542 Y63.515 I0.374 J1.087
G1 X144.494 Y63.526 Z-1.987
X144.444 Y63.523 Z-1.973
X144.409 Y63.514 Z-1.937
X144.375 Y63.498 Z-1.9
X144.353 Y63.483 Z-1.8
G0 Z5
X145.02 Y62.719
Z3
G1 Z-0.8 F30
X145.011 Y62.743 Z-0.898 F10
X144.984 Y62.808 Z-0.971
X144.938 Y62.893 Z-1
G3 X143.398 Y61.963 Z-1.099 I-0.77 J-0.465
X144.938 Y62.893 Z-1.197 I0.77 J0.465
X143.398 Y61.963 Z-1.296 I-0.77 J-0.465
X144.938 Y62.893 Z-1.395 I0.77 J0.465
X143.398 Y61.963 Z-1.494 I-0.77 J-0.465
X144.938 Y62.893 Z-1.592 I0.77 J0.465
X143.398 Y61.963 Z-1.691 I-0.77 J-0.465
X144.938 Y62.893 Z-1.79 I0.77 J0.465
X143.398 Y61.963 Z-1.889 I-0.77 J-0.465
X144.938 Y62.893 Z-1.987 I0.77 J0.465
X143.398 Y61.963 Z-2.086 I-0.77 J-0.465
X144.938 Y62.893 Z-2.185 I0.77 J0.465
X143.398 Y61.963 Z-2.284 I-0.77 J-0.465
X144.938 Y62.893 Z-2.382 I0.77 J0.465
X143.398 Y61.963 Z-2.481 I-0.77 J-0.465
X144.938 Y62.893 Z-2.58 I0.77 J0.465
X143.398 Y61.963 Z-2.679 I-0.77 J-0.465
X144.938 Y62.893 Z-2.777 I0.77 J0.465
X143.398 Y61.963 Z-2.876 I-0.77 J-0.465
X143.934 Y61.559 Z-2.9 I0.77 J0.465
X144.365 Y61.886 I0.089 J0.331 F30
X144.368 Y62.428 I-54.576 J0.542
X143.968 Y62.428 I-0.2 J0
X144.368 Y62.428 I0.2 J0
G2 X144.629 Y62.944 I0.64 J0
G3 X144.542 Y63.515 I-0.193 J0.263
X143.794 Y61.341 I-0.374 J-1.087
X144.542 Y63.515 I0.374 J1.087
G1 X144.494 Y63.526 Z-2.887
X144.444 Y63.523 Z-2.873
X144.409 Y63.514 Z-2.837
X144.375 Y63.498 Z-2.8
X144.353 Y63.483 Z-2.7
G0 Z5
X135.321 Y54.628
Z3
G1 Z1.2 F30
G18 G3 X135.128 Z1 I-0.2 K0 F10
G1 X132.833 Z0.92
G17 G3 X132.833 Y54.068 Z0.889 I0 J-0.28
G1 X140.953 Z0.606
G3 X140.953 Y54.628 Z0.575 I0 J0.28
G1 X132.833 Z0.291
G3 X132.833 Y54.068 Z0.261 I0 J-0.28
G1 X140.953 Z-0.023
G3 X140.953 Y54.628 Z-0.054 I0 J0.28
G1 X132.833 Z-0.337
G3 X132.833 Y54.068 Z-0.368 I0 J-0.28
G1 X140.953 Z-0.652
G3 X140.953 Y54.628 Z-0.682 I0 J0.28
G1 X132.833 Z-0.966
G3 X132.833 Y54.068 Z-0.997 I0 J-0.28
G1 X132.933 Z-1
X140.953 F30
G3 X140.953 Y54.628 I0 J0.28
G1 X132.833
G3 X132.833 Y54.068 I0 J-0.28
G1 X132.933
G2 X133.436 Y53.733 I0 J-0.544
G3 X133.938 Y53.398 I0.503 J0.209
G1 X140.953
G3 X140.953 Y55.298 I0 J0.95
G1 X132.833
G3 X132.833 Y53.398 I0 J-0.95
G1 X133.938
G2 X134.65 Y52.923 I0 J-0.772
G3 X135.363 Y52.448 I0.713 J0.297
G1 X140.953
G3 X140.953 Y56.248 I0 J1.9
G1 X132.833
G3 X132.833 Y52.448 I0 J-1.9
G1 X135.363
X135.412 Y52.454 Z-0.987
X135.459 Y52.472 Z-0.973
X135.489 Y52.493 Z-0.937
X135.515 Y52.518 Z-0.9
X135.531 Y52.54 Z-0.8
G0 Z5
X135.321 Y54.628
Z3
G1 Z0.2 F30
G18 G3 X135.128 Z0 I-0.2 K0 F10
G1 X132.833 Z-0.08
G17 G3 X132.833 Y54.068 Z-0.111 I0 J-0.28
G1 X140.953 Z-0.394
G3 X140.953 Y54.628 Z-0.425 I0 J0.28
G1 X132.833 Z-0.709
G3 X132.833 Y54.068 Z-0.739 I0 J-0.28
G1 X140.953 Z-1.023
G3 X140.953 Y54.628 Z-1.054 I0 J0.28
G1 X132.833 Z-1.337
G3 X132.833 Y54.068 Z-1.368 I0 J-0.28
G1 X140.953 Z-1.652
G3 X140.953 Y54.628 Z-1.682 I0 J0.28
G1 X132.833 Z-1.966
G3 X132.833 Y54.068 Z-1.997 I0 J-0.28
G1 X132.933 Z-2
X140.953 F30
G3 X140.953 Y54.628 I0 J0.28
G1 X132.833
G3 X132.833 Y54.068 I0 J-0.28
G1 X132.933
G2 X133.436 Y53.733 I0 J-0.544
G3 X133.938 Y53.398 I0.503 J0.209
G1 X140.953
G3 X140.953 Y55.298 I0 J0.95
G1 X132.833
G3 X132.833 Y53.398 I0 J-0.95
G1 X133.938
G2 X134.65 Y52.923 I0 J-0.772
G3 X135.363 Y52.448 I0.713 J0.297
G1 X140.953
G3 X140.953 Y56.248 I0 J1.9
G1 X132.833
G3 X132.833 Y52.448 I0 J-1.9
G1 X135.363
X135.412 Y52.454 Z-1.987
X135.459 Y52.472 Z-1.973
X135.489 Y52.493 Z-1.937
X135.515 Y52.518 Z-1.9
X135.531 Y52.54 Z-1.8
G0 Z5
X132.56 Y54.412
Z3
G1 Z-0.8 F30
X132.557 Y54.395 Z-0.88 F10
X132.553 Y54.348 Z-0.947
X132.559 Y54.289 Z-0.985
X132.569 Y54.256 Z-0.993
X132.582 Y54.224 Z-1
G3 X132.833 Y54.068 Z-1.011 I0.251 J0.124
G1 X140.953 Z-1.294
G3 X140.953 Y54.628 Z-1.325 I0 J0.28
G1 X132.833 Z-1.609
G3 X132.833 Y54.068 Z-1.639 I0 J-0.28
G1 X140.953 Z-1.923
G3 X140.953 Y54.628 Z-1.954 I0 J0.28
G1 X132.833 Z-2.237
G3 X132.833 Y54.068 Z-2.268 I0 J-0.28
G1 X140.953 Z-2.552
G3 X140.953 Y54.628 Z-2.582 I0 J0.28
G1 X132.833 Z-2.866
G3 X132.833 Y54.068 Z-2.897 I0 J-0.28
G1 X132.933 Z-2.9
X140.953 F30
G3 X140.953 Y54.628 I0 J0.28
G1 X132.833
G3 X132.833 Y54.068 I0 J-0.28
G1 X132.933
G2 X133.436 Y53.733 I0 J-0.544
G3 X133.938 Y53.398 I0.503 J0.209
G1 X140.953
G3 X140.953 Y55.298 I0 J0.95
G1 X132.833
G3 X132.833 Y53.398 I0 J-0.95
G1 X133.938
G2 X134.65 Y52.923 I0 J-0.772
G3 X135.363 Y52.448 I0.713 J0.297
G1 X140.953
G3 X140.953 Y56.248 I0 J1.9
G1 X132.833
G3 X132.833 Y52.448 I0 J-1.9
G1 X135.363
X135.412 Y52.454 Z-2.887
X135.459 Y52.472 Z-2.873
X135.489 Y52.493 Z-2.837
X135.515 Y52.518 Z-2.8
X135.531 Y52.54 Z-2.7
G0 Z5
X130.605 Y62.172
Z3
G1 Z1.2 F30
X130.613 Y62.147 Z1.102 F10
X130.637 Y62.081 Z1.029
X130.68 Y61.994 Z1
G3 X132.256 Y62.862 Z0.901 I0.788 J0.434
X130.68 Y61.994 Z0.803 I-0.788 J-0.434
X132.256 Y62.862 Z0.704 I0.788 J0.434
X130.68 Y61.994 Z0.605 I-0.788 J-0.434
X132.256 Y62.862 Z0.506 I0.788 J0.434
X130.68 Y61.994 Z0.408 I-0.788 J-0.434
X132.256 Y62.862 Z0.309 I0.788 J0.434
X130.68 Y61.994 Z0.21 I-0.788 J-0.434
X132.256 Y62.862 Z0.111 I0.788 J0.434
X130.68 Y61.994 Z0.013 I-0.788 J-0.434
X132.256 Y62.862 Z-0.086 I0.788 J0.434
X130.68 Y61.994 Z-0.185 I-0.788 J-0.434
X132.256 Y62.862 Z-0.284 I0.788 J0.434
X130.68 Y61.994 Z-0.382 I-0.788 J-0.434
X132.256 Y62.862 Z-0.481 I0.788 J0.434
X130.68 Y61.994 Z-0.58 I-0.788 J-0.434
X132.256 Y62.862 Z-0.679 I0.788 J0.434
X130.68 Y61.994 Z-0.777 I-0.788 J-0.434
X132.256 Y62.862 Z-0.876 I0.788 J0.434
X130.68 Y61.994 Z-0.975 I-0.788 J-0.434
X131.234 Y61.559 Z-1 I0.788 J0.434
X131.665 Y61.886 I0.089 J0.331 F30
X131.668 Y62.428 I-54.576 J0.542
X131.268 Y62.428 I-0.2 J0
X131.668 Y62.428 I0.2 J0
G2 X131.929 Y62.944 I0.64 J0
G3 X131.842 Y63.515 I-0.193 J0.263
X131.094 Y61.341 I-0.374 J-1.087
X131.842 Y63.515 I0.374 J1.087
G1 X131.794 Y63.526 Z-0.987
X131.744 Y63.523 Z-0.973
X131.709 Y63.514 Z-0.937
X131.675 Y63.498 Z-0.9
X131.653 Y63.483 Z-0.8
G0 Z5
X130.605 Y62.172
Z3
G1 Z0.2 F30
X130.613 Y62.147 Z0.102 F10
X130.637 Y62.081 Z0.029
X130.68 Y61.994 Z0
G3 X132.256 Y62.862 Z-0.099 I0.788 J0.434
X130.68 Y61.994 Z-0.197 I-0.788 J-0.434
X132.256 Y62.862 Z-0.296 I0.788 J0.434
X130.68 Y61.994 Z-0.395 I-0.788 J-0.434
X132.256 Y62.862 Z-0.494 I0.788 J0.434
X130.68 Y61.994 Z-0.592 I-0.788 J-0.434
X132.256 Y62.862 Z-0.691 I0.788 J0.434
X130.68 Y61.994 Z-0.79 I-0.788 J-0.434
X132.256 Y62.862 Z-0.889 I0.788 J0.434
X130.68 Y61.994 Z-0.987 I-0.788 J-0.434
X132.256 Y62.862 Z-1.086 I0.788 J0.434
X130.68 Y61.994 Z-1.185 I-0.788 J-0.434
X132.256 Y62.862 Z-1.284 I0.788 J0.434
X130.68 Y61.994 Z-1.382 I-0.788 J-0.434
X132.256 Y62.862 Z-1.481 I0.788 J0.434
X130.68 Y61.994 Z-1.58 I-0.788 J-0.434
X132.256 Y62.862 Z-1.679 I0.788 J0.434
X130.68 Y61.994 Z-1.777 I-0.788 J-0.434
X132.256 Y62.862 Z-1.876 I0.788 J0.434
X130.68 Y61.994 Z-1.975 I-0.788 J-0.434
X131.234 Y61.559 Z-2 I0.788 J0.434
X131.665 Y61.886 I0.089 J0.331 F30
X131.668 Y62.428 I-54.576 J0.542
X131.268 Y62.428 I-0.2 J0
X131.668 Y62.428 I0.2 J0
G2 X131.929 Y62.944 I0.64 J0
G3 X131.842 Y63.515 I-0.193 J0.263
X131.094 Y61.341 I-0.374 J-1.087
X131.842 Y63.515 I0.374 J1.087
G1 X131.794 Y63.526 Z-1.987
X131.744 Y63.523 Z-1.973
X131.709 Y63.514 Z-1.937
X131.675 Y63.498 Z-1.9
X131.653 Y63.483 Z-1.8
G0 Z5
X132.32 Y62.719
Z3
G1 Z-0.8 F30
X132.311 Y62.743 Z-0.898 F10
X132.284 Y62.808 Z-0.971
X132.238 Y62.893 Z-1
G3 X130.698 Y61.963 Z-1.099 I-0.77 J-0.465
X132.238 Y62.893 Z-1.197 I0.77 J0.465
X130.698 Y61.963 Z-1.296 I-0.77 J-0.465
X132.238 Y62.893 Z-1.395 I0.77 J0.465
X130.698 Y61.963 Z-1.494 I-0.77 J-0.465
X132.238 Y62.893 Z-1.592 I0.77 J0.465
X130.698 Y61.963 Z-1.691 I-0.77 J-0.465
X132.238 Y62.893 Z-1.79 I0.77 J0.465
X130.698 Y61.963 Z-1.889 I-0.77 J-0.465
X132.238 Y62.893 Z-1.987 I0.77 J0.465
X130.698 Y61.963 Z-2.086 I-0.77 J-0.465
X132.238 Y62.893 Z-2.185 I0.77 J0.465
X130.698 Y61.963 Z-2.284 I-0.77 J-0.465
X132.238 Y62.893 Z-2.382 I0.77 J0.465
X130.698 Y61.963 Z-2.481 I-0.77 J-0.465
X132.238 Y62.893 Z-2.58 I0.77 J0.465
X130.698 Y61.963 Z-2.679 I-0.77 J-0.465
X132.238 Y62.893 Z-2.777 I0.77 J0.465
X130.698 Y61.963 Z-2.876 I-0.77 J-0.465
X131.234 Y61.559 Z-2.9 I0.77 J0.465
X131.665 Y61.886 I0.089 J0.331 F30
X131.668 Y62.428 I-54.576 J0.542
X131.268 Y62.428 I-0.2 J0
X131.668 Y62.428 I0.2 J0
G2 X131.929 Y62.944 I0.64 J0
G3 X131.842 Y63.515 I-0.193 J0.263
X131.094 Y61.341 I-0.374 J-1.087
X131.842 Y63.515 I0.374 J1.087
G1 X131.794 Y63.526 Z-2.887
X131.744 Y63.523 Z-2.873
X131.709 Y63.514 Z-2.837
X131.675 Y63.498 Z-2.8
X131.653 Y63.483 Z-2.7
G0 Z5
X85.829 Y62.45
Z3
G1 Z1.2 F30
G18 G2 X86.022 Z1 I0.2 K0 F10
G1 X98.916 Z0.55
G17 G3 X98.916 Y63.01 Z0.519 I0 J0.28
G1 X78.096 Z-0.208
G3 X78.096 Y62.45 Z-0.239 I0 J-0.28
G1 X98.916 Z-0.966
G3 X98.916 Y63.01 Z-0.997 I0 J0.28
G1 X98.816 Z-1
X78.096 F30
G3 X78.096 Y62.45 I0 J-0.28
G1 X98.916
G3 X98.916 Y63.01 I0 J0.28
G1 X98.816
G2 X98.313 Y63.345 I0 J0.544
G3 X97.811 Y63.68 I-0.503 J-0.209
G1 X78.096
G3 X78.096 Y61.78 I0 J-0.95
G1 X98.916
G3 X98.916 Y63.68 I0 J0.95
G1 X97.811
G2 X97.099 Y64.155 I0 J0.772
G3 X96.386 Y64.63 I-0.713 J-0.297
G1 X78.096
G3 X78.096 Y60.83 I0 J-1.9
G1 X98.916
G3 X98.916 Y64.63 I0 J1.9
G1 X96.386
X96.337 Y64.624 Z-0.987
X96.29 Y64.606 Z-0.973
X96.26 Y64.585 Z-0.937
X96.234 Y64.56 Z-0.9
X96.218 Y64.538 Z-0.8
G0 Z5
X85.829 Y62.45
Z3
G1 Z0.2 F30
G18 G2 X86.022 Z0 I0.2 K0 F10
G1 X98.916 Z-0.45
G17 G3 X98.916 Y63.01 Z-0.481 I0 J0.28
G1 X78.096 Z-1.208
G3 X78.096 Y62.45 Z-1.239 I0 J-0.28
G1 X98.916 Z-1.966
G3 X98.916 Y63.01 Z-1.997 I0 J0.28
G1 X98.816 Z-2
X78.096 F30
G3 X78.096 Y62.45 I0 J-0.28
G1 X98.916
G3 X98.916 Y63.01 I0 J0.28
G1 X98.816
G2 X98.313 Y63.345 I0 J0.544
G3 X97.811 Y63.68 I-0.503 J-0.209
G1 X78.096
G3 X78.096 Y61.78 I0 J-0.95
G1 X98.916
G3 X98.916 Y63.68 I0 J0.95
G1 X97.811
G2 X97.099 Y64.155 I0 J0.772
G3 X96.386 Y64.63 I-0.713 J-0.297
G1 X78.096
G3 X78.096 Y60.83 I0 J-1.9
G1 X98.916
G3 X98.916 Y64.63 I0 J1.9
G1 X96.386
X96.337 Y64.624 Z-1.987
X96.29 Y64.606 Z-1.973
X96.26 Y64.585 Z-1.937
X96.234 Y64.56 Z-1.9
X96.218 Y64.538 Z-1.8
G0 Z5
X88.693 Y62.45
Z3
G1 Z-0.8 F30
G18 G2 X88.886 Z-1 I0.2 K0 F10
G1 X98.916 Z-1.35
G17 G3 X98.916 Y63.01 Z-1.381 I0 J0.28
G1 X78.096 Z-2.108
G3 X78.096 Y62.45 Z-2.139 I0 J-0.28
G1 X98.916 Z-2.866
G3 X98.916 Y63.01 Z-2.897 I0 J0.28
G1 X98.816 Z-2.9
X78.096 F30
G3 X78.096 Y62.45 I0 J-0.28
G1 X98.916
G3 X98.916 Y63.01 I0 J0.28
G1 X98.816
G2 X98.313 Y63.345 I0 J0.544
G3 X97.811 Y63.68 I-0.503 J-0.209
G1 X78.096
G3 X78.096 Y61.78 I0 J-0.95
G1 X98.916
G3 X98.916 Y63.68 I0 J0.95
G1 X97.811
G2 X97.099 Y64.155 I0 J0.772
G3 X96.386 Y64.63 I-0.713 J-0.297
G1 X78.096
G3 X78.096 Y60.83 I0 J-1.9
G1 X98.916
G3 X98.916 Y64.63 I0 J1.9
G1 X96.386
X96.337 Y64.624 Z-2.887
X96.29 Y64.606 Z-2.873
X96.26 Y64.585 Z-2.837
X96.234 Y64.56 Z-2.8
X96.218 Y64.538 Z-2.7
G0 Z5
X80.749 Y21.81
Z3
G1 Z1.2 F30
G18 G2 X80.942 Z1 I0.2 K0 F10
G1 X98.916 Z0.372
G17 G3 X98.916 Y22.37 Z0.342 I0 J0.28
G1 X80.636 Z-0.297
G3 X80.636 Y21.81 Z-0.327 I0 J-0.28
G1 X98.916 Z-0.966
G3 X98.916 Y22.37 Z-0.997 I0 J0.28
G1 X98.816 Z-1
X80.636 F30
G3 X80.636 Y21.81 I0 J-0.28
G1 X98.916
G3 X98.916 Y22.37 I0 J0.28
G1 X98.816
G2 X98.313 Y22.705 I0 J0.544
G3 X97.811 Y23.04 I-0.503 J-0.209
G1 X80.636
G3 X80.636 Y21.14 I0 J-0.95
G1 X98.916
G3 X98.916 Y23.04 I0 J0.95
G1 X97.811
G2 X97.099 Y23.515 I0 J0.772
G3 X96.386 Y23.99 I-0.713 J-0.297
G1 X80.636
G3 X80.636 Y20.19 I0 J-1.9
G1 X98.916
G3 X98.916 Y23.99 I0 J1.9
G1 X96.386
X96.337 Y23.984 Z-0.987
X96.29 Y23.966 Z-0.973
X96.26 Y23.945 Z-0.937
X96.234 Y23.92 Z-0.9
X96.218 Y23.898 Z-0.8
G0 Z5
X80.749 Y21.81
Z3
G1 Z0.2 F30
G18 G2 X80.942 Z0 I0.2 K0 F10
G1 X98.916 Z-0.628
G17 G3 X98.916 Y22.37 Z-0.658 I0 J0.28
G1 X80.636 Z-1.297
G3 X80.636 Y21.81 Z-1.327 I0 J-0.28
G1 X98.916 Z-1.966
G3 X98.916 Y22.37 Z-1.997 I0 J0.28
G1 X98.816 Z-2
X80.636 F30
G3 X80.636 Y21.81 I0 J-0.28
G1 X98.916
G3 X98.916 Y22.37 I0 J0.28
G1 X98.816
G2 X98.313 Y22.705 I0 J0.544
G3 X97.811 Y23.04 I-0.503 J-0.209
G1 X80.636
G3 X80.636 Y21.14 I0 J-0.95
G1 X98.916
G3 X98.916 Y23.04 I0 J0.95
G1 X97.811
G2 X97.099 Y23.515 I0 J0.772
G3 X96.386 Y23.99 I-0.713 J-0.297
G1 X80.636
G3 X80.636 Y20.19 I0 J-1.9
G1 X98.916
G3 X98.916 Y23.99 I0 J1.9
G1 X96.386
X96.337 Y23.984 Z-1.987
X96.29 Y23.966 Z-1.973
X96.26 Y23.945 Z-1.937
X96.234 Y23.92 Z-1.9
X96.218 Y23.898 Z-1.8
G0 Z5
X83.613 Y21.81
Z3
G1 Z-0.8 F30
G18 G2 X83.806 Z-1 I0.2 K0 F10
G1 X98.916 Z-1.528
G17 G3 X98.916 Y22.37 Z-1.558 I0 J0.28
G1 X80.636 Z-2.197
G3 X80.636 Y21.81 Z-2.227 I0 J-0.28
G1 X98.916 Z-2.866
G3 X98.916 Y22.37 Z-2.897 I0 J0.28
G1 X98.816 Z-2.9
X80.636 F30
G3 X80.636 Y21.81 I0 J-0.28
G1 X98.916
G3 X98.916 Y22.37 I0 J0.28
G1 X98.816
G2 X98.313 Y22.705 I0 J0.544
G3 X97.811 Y23.04 I-0.503 J-0.209
G1 X80.636
G3 X80.636 Y21.14 I0 J-0.95
G1 X98.916
G3 X98.916 Y23.04 I0 J0.95
G1 X97.811
G2 X97.099 Y23.515 I0 J0.772
G3 X96.386 Y23.99 I-0.713 J-0.297
G1 X80.636
G3 X80.636 Y20.19 I0 J-1.9
G1 X98.916
G3 X98.916 Y23.99 I0 J1.9
G1 X96.386
X96.337 Y23.984 Z-2.887
X96.29 Y23.966 Z-2.873
X96.26 Y23.945 Z-2.837
X96.234 Y23.92 Z-2.8
X96.218 Y23.898 Z-2.7
G0 Z5
X50.269 Y21.81
Z3
G1 Z1.2 F30
G18 G2 X50.462 Z1 I0.2 K0 F10
G1 X68.436 Z0.372
G17 G3 X68.436 Y22.37 Z0.342 I0 J0.28
G1 X50.156 Z-0.297
G3 X50.156 Y21.81 Z-0.327 I0 J-0.28
G1 X68.436 Z-0.966
G3 X68.436 Y22.37 Z-0.997 I0 J0.28
G1 X68.336 Z-1
X50.156 F30
G3 X50.156 Y21.81 I0 J-0.28
G1 X68.436
G3 X68.436 Y22.37 I0 J0.28
G1 X68.336
G2 X67.834 Y22.705 I0 J0.544
G3 X67.331 Y23.04 I-0.503 J-0.209
G1 X50.156
G3 X50.156 Y21.14 I0 J-0.95
G1 X68.436
G3 X68.436 Y23.04 I0 J0.95
G1 X67.331
G2 X66.618 Y23.515 I0 J0.772
G3 X65.906 Y23.99 I-0.713 J-0.297
G1 X50.156
G3 X50.156 Y20.19 I0 J-1.9
G1 X68.436
G3 X68.436 Y23.99 I0 J1.9
G1 X65.906
X65.857 Y23.984 Z-0.987
X65.81 Y23.966 Z-0.973
X65.78 Y23.945 Z-0.937
X65.754 Y23.92 Z-0.9
X65.738 Y23.898 Z-0.8
G0 Z5
X50.269 Y21.81
Z3
G1 Z0.2 F30
G18 G2 X50.462 Z0 I0.2 K0 F10
G1 X68.436 Z-0.628
G17 G3 X68.436 Y22.37 Z-0.658 I0 J0.28
G1 X50.156 Z-1.297
G3 X50.156 Y21.81 Z-1.327 I0 J-0.28
G1 X68.436 Z-1.966
G3 X68.436 Y22.37 Z-1.997 I0 J0.28
G1 X68.336 Z-2
X50.156 F30
G3 X50.156 Y21.81 I0 J-0.28
G1 X68.436
G3 X68.436 Y22.37 I0 J0.28
G1 X68.336
G2 X67.834 Y22.705 I0 J0.544
G3 X67.331 Y23.04 I-0.503 J-0.209
G1 X50.156
G3 X50.156 Y21.14 I0 J-0.95
G1 X68.436
G3 X68.436 Y23.04 I0 J0.95
G1 X67.331
G2 X66.618 Y23.515 I0 J0.772
G3 X65.906 Y23.99 I-0.713 J-0.297
G1 X50.156
G3 X50.156 Y20.19 I0 J-1.9
G1 X68.436
G3 X68.436 Y23.99 I0 J1.9
G1 X65.906
X65.857 Y23.984 Z-1.987
X65.81 Y23.966 Z-1.973
X65.78 Y23.945 Z-1.937
X65.754 Y23.92 Z-1.9
X65.738 Y23.898 Z-1.8
G0 Z5
X53.133 Y21.81
Z3
G1 Z-0.8 F30
G18 G2 X53.326 Z-1 I0.2 K0 F10
G1 X68.436 Z-1.528
G17 G3 X68.436 Y22.37 Z-1.558 I0 J0.28
G1 X50.156 Z-2.197
G3 X50.156 Y21.81 Z-2.227 I0 J-0.28
G1 X68.436 Z-2.866
G3 X68.436 Y22.37 Z-2.897 I0 J0.28
G1 X68.336 Z-2.9
X50.156 F30
G3 X50.156 Y21.81 I0 J-0.28
G1 X68.436
G3 X68.436 Y22.37 I0 J0.28
G1 X68.336
G2 X67.834 Y22.705 I0 J0.544
G3 X67.331 Y23.04 I-0.503 J-0.209
G1 X50.156
G3 X50.156 Y21.14 I0 J-0.95
G1 X68.436
G3 X68.436 Y23.04 I0 J0.95
G1 X67.331
G2 X66.618 Y23.515 I0 J0.772
G3 X65.906 Y23.99 I-0.713 J-0.297
G1 X50.156
G3 X50.156 Y20.19 I0 J-1.9
G1 X68.436
G3 X68.436 Y23.99 I0 J1.9
G1 X65.906
X65.857 Y23.984 Z-2.887
X65.81 Y23.966 Z-2.873
X65.78 Y23.945 Z-2.837
X65.754 Y23.92 Z-2.8
X65.738 Y23.898 Z-2.7
G0 Z5
X42.431 Y20.901
Z3
G1 Z1.2 F30
G19 G3 Y21.094 Z1 J0.2 K0 F10
G1 Y24.63 Z0.877
G17 G3 X41.871 Y24.63 Z0.846 I-0.28 J0
G1 Y19.55 Z0.668
G3 X42.431 Y19.55 Z0.638 I0.28 J0
G1 Y24.63 Z0.46
G3 X41.871 Y24.63 Z0.43 I-0.28 J0
G1 Y19.55 Z0.252
G3 X42.431 Y19.55 Z0.221 I0.28 J0
G1 Y24.63 Z0.044
G3 X41.871 Y24.63 Z0.013 I-0.28 J0
G1 Y19.55 Z-0.164
G3 X42.431 Y19.55 Z-0.195 I0.28 J0
G1 Y24.63 Z-0.372
G3 X41.871 Y24.63 Z-0.403 I-0.28 J0
G1 Y19.55 Z-0.58
G3 X42.431 Y19.55 Z-0.611 I0.28 J0
G1 Y24.63 Z-0.788
G3 X41.871 Y24.63 Z-0.819 I-0.28 J0
G1 Y19.55 Z-0.997
X41.875 Y19.5 Z-0.998
X41.889 Y19.452 Z-1
G3 X42.431 Y19.55 I0.262 J0.098 F30
G1 Y24.63
G3 X41.871 Y24.63 I-0.28 J0
G1 Y19.55
X41.875 Y19.5
X41.889 Y19.452
G2 X41.832 Y19.016 I-0.441 J-0.165
G3 X42.004 Y18.611 I0.211 J-0.149
X43.101 Y19.55 I0.147 J0.938
G1 Y24.63
G3 X41.201 Y24.63 I-0.95 J0
G1 Y19.55
G3 X42.004 Y18.611 I0.95 J0
G2 X42.549 Y18.179 I-0.11 J-0.698
G3 X43.215 Y17.976 I0.415 J0.168
X44.051 Y19.55 I-1.064 J1.574
G1 Y24.63
G3 X40.251 Y24.63 I-1.9 J0
G1 Y19.55
G3 X43.215 Y17.976 I1.9 J0
G1 X43.252 Y18.009 Z-0.987
X43.281 Y18.05 Z-0.973
X43.294 Y18.084 Z-0.937
X43.302 Y18.119 Z-0.9
X43.303 Y18.146 Z-0.8
G0 Z5
X42.431 Y20.901
Z3
G1 Z0.2 F30
G19 G3 Y21.094 Z0 J0.2 K0 F10
G1 Y24.63 Z-0.123
G17 G3 X41.871 Y24.63 Z-0.154 I-0.28 J0
G1 Y19.55 Z-0.332
G3 X42.431 Y19.55 Z-0.362 I0.28 J0
G1 Y24.63 Z-0.54
G3 X41.871 Y24.63 Z-0.57 I-0.28 J0
G1 Y19.55 Z-0.748
G3 X42.431 Y19.55 Z-0.779 I0.28 J0
G1 Y24.63 Z-0.956
G3 X41.871 Y24.63 Z-0.987 I-0.28 J0
G1 Y19.55 Z-1.164
G3 X42.431 Y19.55 Z-1.195 I0.28 J0
G1 Y24.63 Z-1.372
G3 X41.871 Y24.63 Z-1.403 I-0.28 J0
G1 Y19.55 Z-1.58
G3 X42.431 Y19.55 Z-1.611 I0.28 J0
G1 Y24.63 Z-1.788
G3 X41.871 Y24.63 Z-1.819 I-0.28 J0
G1 Y19.55 Z-1.997
X41.875 Y19.5 Z-1.998
X41.889 Y19.452 Z-2
G3 X42.431 Y19.55 I0.262 J0.098 F30
G1 Y24.63
G3 X41.871 Y24.63 I-0.28 J0
G1 Y19.55
X41.875 Y19.5
X41.889 Y19.452
G2 X41.832 Y19.016 I-0.441 J-0.165
G3 X42.004 Y18.611 I0.211 J-0.149
X43.101 Y19.55 I0.147 J0.938
G1 Y24.63
G3 X41.201 Y24.63 I-0.95 J0
G1 Y19.55
G3 X42.004 Y18.611 I0.95 J0
G2 X42.549 Y18.179 I-0.11 J-0.698
G3 X43.215 Y17.976 I0.415 J0.168
X44.051 Y19.55 I-1.064 J1.574
G1 Y24.63
G3 X40.251 Y24.63 I-1.9 J0
G1 Y19.55
G3 X43.215 Y17.976 I1.9 J0
G1 X43.252 Y18.009 Z-1.987
X43.281 Y18.05 Z-1.973
X43.294 Y18.084 Z-1.937
X43.302 Y18.119 Z-1.9
X43.303 Y18.146 Z-1.8
G0 Z5
X42.431 Y23.765
Z3
G1 Z-0.8 F30
G19 G3 Y23.958 Z-1 J0.2 K0 F10
G1 Y24.63 Z-1.023
G17 G3 X41.871 Y24.63 Z-1.054 I-0.28 J0
G1 Y19.55 Z-1.232
G3 X42.431 Y19.55 Z-1.262 I0.28 J0
G1 Y24.63 Z-1.44
G3 X41.871 Y24.63 Z-1.47 I-0.28 J0
G1 Y19.55 Z-1.648
G3 X42.431 Y19.55 Z-1.679 I0.28 J0
G1 Y24.63 Z-1.856
G3 X41.871 Y24.63 Z-1.887 I-0.28 J0
G1 Y19.55 Z-2.064
G3 X42.431 Y19.55 Z-2.095 I0.28 J0
G1 Y24.63 Z-2.272
G3 X41.871 Y24.63 Z-2.303 I-0.28 J0
G1 Y19.55 Z-2.48
G3 X42.431 Y19.55 Z-2.511 I0.28 J0
G1 Y24.63 Z-2.688
G3 X41.871 Y24.63 Z-2.719 I-0.28 J0
G1 Y19.55 Z-2.897
X41.875 Y19.5 Z-2.898
X41.889 Y19.452 Z-2.9
G3 X42.431 Y19.55 I0.262 J0.098 F30
G1 Y24.63
G3 X41.871 Y24.63 I-0.28 J0
G1 Y19.55
X41.875 Y19.5
X41.889 Y19.452
G2 X41.832 Y19.016 I-0.441 J-0.165
G3 X42.004 Y18.611 I0.211 J-0.149
X43.101 Y19.55 I0.147 J0.938
G1 Y24.63
G3 X41.201 Y24.63 I-0.95 J0
G1 Y19.55
G3 X42.004 Y18.611 I0.95 J0
G2 X42.549 Y18.179 I-0.11 J-0.698
G3 X43.215 Y17.976 I0.415 J0.168
X44.051 Y19.55 I-1.064 J1.574
G1 Y24.63
G3 X40.251 Y24.63 I-1.9 J0
G1 Y19.55
G3 X43.215 Y17.976 I1.9 J0
G1 X43.252 Y18.009 Z-2.887
X43.281 Y18.05 Z-2.873
X43.294 Y18.084 Z-2.837
X43.302 Y18.119 Z-2.8
X43.303 Y18.146 Z-2.7
G0 Z5
X30.898 Y14.302
Z3
G1 Z2 F30
Z-0.8 F10
X30.92 Y14.318 Z-0.9
X30.945 Y14.344 Z-0.937
X30.966 Y14.374 Z-0.973
X30.984 Y14.421 Z-0.987
X30.99 Y14.47 Z-1
G3 X29.69 Y14.47 I-0.65 J0 F30
X30.99 Y14.47 I0.65 J0
X29.69 Y14.47 Z-1.071 I-0.65 J0 F10
X30.99 Y14.47 Z-1.143 I0.65 J0
X29.69 Y14.47 Z-1.214 I-0.65 J0
X30.99 Y14.47 Z-1.285 I0.65 J0
X29.69 Y14.47 Z-1.357 I-0.65 J0
X30.99 Y14.47 Z-1.428 I0.65 J0
X29.69 Y14.47 Z-1.499 I-0.65 J0
X30.99 Y14.47 Z-1.57 I0.65 J0
X29.69 Y14.47 Z-1.642 I-0.65 J0
X30.99 Y14.47 Z-1.713 I0.65 J0
X29.69 Y14.47 Z-1.784 I-0.65 J0
X30.99 Y14.47 Z-1.856 I0.65 J0
X29.69 Y14.47 Z-1.927 I-0.65 J0
X30.364 Y13.82 Z-1.964 I0.65 J0
X30.988 Y14.518 Z-2 I-0.024 J0.65
X29.692 Y14.422 I-0.648 J-0.048 F30
X30.988 Y14.518 I0.648 J0.048
X29.692 Y14.422 Z-2.071 I-0.648 J-0.048 F10
X30.988 Y14.518 Z-2.143 I0.648 J0.048
X29.692 Y14.422 Z-2.214 I-0.648 J-0.048
X30.988 Y14.518 Z-2.285 I0.648 J0.048
X29.692 Y14.422 Z-2.357 I-0.648 J-0.048
X30.988 Y14.518 Z-2.428 I0.648 J0.048
X29.692 Y14.422 Z-2.499 I-0.648 J-0.048
X30.988 Y14.518 Z-2.57 I0.648 J0.048
X29.692 Y14.422 Z-2.642 I-0.648 J-0.048
X30.988 Y14.518 Z-2.713 I0.648 J0.048
X29.692 Y14.422 Z-2.784 I-0.648 J-0.048
X30.988 Y14.518 Z-2.856 I0.648 J0.048
X30.055 Y15.054 Z-2.9 I-0.648 J-0.048
X30.625 Y13.886 I0.285 J-0.584 F30
X30.055 Y15.054 I-0.285 J0.584
G1 X30.013 Y15.027 Z-2.887
X29.98 Y14.99 Z-2.873
X29.961 Y14.959 Z-2.837
X29.949 Y14.924 Z-2.8
X29.944 Y14.898 Z-2.7
G0 Z5
X38.95 Y39.789
Z3
G1 Z1.2 F30
G19 G2 Y39.596 Z1 J-0.2 K0 F10
G1 Y36.06 Z0.877
G17 G3 X39.51 Y36.06 Z0.846 I0.28 J0
G1 Y41.14 Z0.668
G3 X38.95 Y41.14 Z0.638 I-0.28 J0
G1 Y36.06 Z0.46
G3 X39.51 Y36.06 Z0.43 I0.28 J0
G1 Y41.14 Z0.252
G3 X38.95 Y41.14 Z0.221 I-0.28 J0
G1 Y36.06 Z0.044
G3 X39.51 Y36.06 Z0.013 I0.28 J0
G1 Y41.14 Z-0.164
G3 X38.95 Y41.14 Z-0.195 I-0.28 J0
G1 Y36.06 Z-0.372
G3 X39.51 Y36.06 Z-0.403 I0.28 J0
G1 Y41.14 Z-0.58
G3 X38.95 Y41.14 Z-0.611 I-0.28 J0
G1 Y36.06 Z-0.788
G3 X39.51 Y36.06 Z-0.819 I0.28 J0
G1 Y41.14 Z-0.997
X39.506 Y41.19 Z-0.998
X39.492 Y41.238 Z-1
G3 X38.95 Y41.14 I-0.262 J-0.098 F30
G1 Y36.06
G3 X39.51 Y36.06 I0.28 J0
G1 Y41.14
X39.506 Y41.19
X39.492 Y41.238
G2 X39.549 Y41.674 I0.441 J0.165
G3 X39.377 Y42.078 I-0.211 J0.149
X38.28 Y41.14 I-0.147 J-0.938
G1 Y36.06
G3 X40.18 Y36.06 I0.95 J0
G1 Y41.14
G3 X39.377 Y42.078 I-0.95 J0
G2 X38.832 Y42.511 I0.11 J0.698
G3 X38.166 Y42.714 I-0.415 J-0.168
X37.33 Y41.14 I1.064 J-1.574
G1 Y36.06
G3 X41.13 Y36.06 I1.9 J0
G1 Y41.14
G3 X38.166 Y42.714 I-1.9 J0
G1 X38.129 Y42.681 Z-0.987
X38.1 Y42.64 Z-0.973
X38.087 Y42.606 Z-0.937
X38.079 Y42.571 Z-0.9
X38.078 Y42.544 Z-0.8
G0 Z5
X38.95 Y39.789
Z3
G1 Z0.2 F30
G19 G2 Y39.596 Z0 J-0.2 K0 F10
G1 Y36.06 Z-0.123
G17 G3 X39.51 Y36.06 Z-0.154 I0.28 J0
G1 Y41.14 Z-0.332
G3 X38.95 Y41.14 Z-0.362 I-0.28 J0
G1 Y36.06 Z-0.54
G3 X39.51 Y36.06 Z-0.57 I0.28 J0
G1 Y41.14 Z-0.748
G3 X38.95 Y41.14 Z-0.779 I-0.28 J0
G1 Y36.06 Z-0.956
G3 X39.51 Y36.06 Z-0.987 I0.28 J0
G1 Y41.14 Z-1.164
G3 X38.95 Y41.14 Z-1.195 I-0.28 J0
G1 Y36.06 Z-1.372
G3 X39.51 Y36.06 Z-1.403 I0.28 J0
G1 Y41.14 Z-1.58
G3 X38.95 Y41.14 Z-1.611 I-0.28 J0
G1 Y36.06 Z-1.788
G3 X39.51 Y36.06 Z-1.819 I0.28 J0
G1 Y41.14 Z-1.997
X39.506 Y41.19 Z-1.998
X39.492 Y41.238 Z-2
G3 X38.95 Y41.14 I-0.262 J-0.098 F30
G1 Y36.06
G3 X39.51 Y36.06 I0.28 J0
G1 Y41.14
X39.506 Y41.19
X39.492 Y41.238
G2 X39.549 Y41.674 I0.441 J0.165
G3 X39.377 Y42.078 I-0.211 J0.149
X38.28 Y41.14 I-0.147 J-0.938
G1 Y36.06
G3 X40.18 Y36.06 I0.95 J0
G1 Y41.14
G3 X39.377 Y42.078 I-0.95 J0
G2 X38.832 Y42.511 I0.11 J0.698
G3 X38.166 Y42.714 I-0.415 J-0.168
X37.33 Y41.14 I1.064 J-1.574
G1 Y36.06
G3 X41.13 Y36.06 I1.9 J0
G1 Y41.14
G3 X38.166 Y42.714 I-1.9 J0
G1 X38.129 Y42.681 Z-1.987
X38.1 Y42.64 Z-1.973
X38.087 Y42.606 Z-1.937
X38.079 Y42.571 Z-1.9
X38.078 Y42.544 Z-1.8
G0 Z5
X38.95 Y36.925
Z3
G1 Z-0.8 F30
G19 G2 Y36.732 Z-1 J-0.2 K0 F10
G1 Y36.06 Z-1.023
G17 G3 X39.51 Y36.06 Z-1.054 I0.28 J0
G1 Y41.14 Z-1.232
G3 X38.95 Y41.14 Z-1.262 I-0.28 J0
G1 Y36.06 Z-1.44
G3 X39.51 Y36.06 Z-1.47 I0.28 J0
G1 Y41.14 Z-1.648
G3 X38.95 Y41.14 Z-1.679 I-0.28 J0
G1 Y36.06 Z-1.856
G3 X39.51 Y36.06 Z-1.887 I0.28 J0
G1 Y41.14 Z-2.064
G3 X38.95 Y41.14 Z-2.095 I-0.28 J0
G1 Y36.06 Z-2.272
G3 X39.51 Y36.06 Z-2.303 I0.28 J0
G1 Y41.14 Z-2.48
G3 X38.95 Y41.14 Z-2.511 I-0.28 J0
G1 Y36.06 Z-2.688
G3 X39.51 Y36.06 Z-2.719 I0.28 J0
G1 Y41.14 Z-2.897
X39.506 Y41.19 Z-2.898
X39.492 Y41.238 Z-2.9
G3 X38.95 Y41.14 I-0.262 J-0.098 F30
G1 Y36.06
G3 X39.51 Y36.06 I0.28 J0
G1 Y41.14
X39.506 Y41.19
X39.492 Y41.238
G2 X39.549 Y41.674 I0.441 J0.165
G3 X39.377 Y42.078 I-0.211 J0.149
X38.28 Y41.14 I-0.147 J-0.938
G1 Y36.06
G3 X40.18 Y36.06 I0.95 J0
G1 Y41.14
G3 X39.377 Y42.078 I-0.95 J0
G2 X38.832 Y42.511 I0.11 J0.698
G3 X38.166 Y42.714 I-0.415 J-0.168
X37.33 Y41.14 I1.064 J-1.574
G1 Y36.06
G3 X41.13 Y36.06 I1.9 J0
G1 Y41.14
G3 X38.166 Y42.714 I-1.9 J0
G1 X38.129 Y42.681 Z-2.887
X38.1 Y42.64 Z-2.873
X38.087 Y42.606 Z-2.837
X38.079 Y42.571 Z-2.8
X38.078 Y42.544 Z-2.7
G0 Z5
X50.269 Y62.45
Z3
G1 Z1.2 F30
G18 G2 X50.462 Z1 I0.2 K0 F10
G1 X68.436 Z0.372
G17 G3 X68.436 Y63.01 Z0.342 I0 J0.28
G1 X50.156 Z-0.297
G3 X50.156 Y62.45 Z-0.327 I0 J-0.28
G1 X68.436 Z-0.966
G3 X68.436 Y63.01 Z-0.997 I0 J0.28
G1 X68.336 Z-1
X50.156 F30
G3 X50.156 Y62.45 I0 J-0.28
G1 X68.436
G3 X68.436 Y63.01 I0 J0.28
G1 X68.336
G2 X67.834 Y63.345 I0 J0.544
G3 X67.331 Y63.68 I-0.503 J-0.209
G1 X50.156
G3 X50.156 Y61.78 I0 J-0.95
G1 X68.436
G3 X68.436 Y63.68 I0 J0.95
G1 X67.331
G2 X66.618 Y64.155 I0 J0.772
G3 X65.906 Y64.63 I-0.713 J-0.297
G1 X50.156
G3 X50.156 Y60.83 I0 J-1.9
G1 X68.436
G3 X68.436 Y64.63 I0 J1.9
G1 X65.906
X65.857 Y64.624 Z-0.987
X65.81 Y64.606 Z-0.973
X65.78 Y64.585 Z-0.937
X65.754 Y64.56 Z-0.9
X65.738 Y64.538 Z-0.8
G0 Z5
X50.269 Y62.45
Z3
G1 Z0.2 F30
G18 G2 X50.462 Z0 I0.2 K0 F10
G1 X68.436 Z-0.628
G17 G3 X68.436 Y63.01 Z-0.658 I0 J0.28
G1 X50.156 Z-1.297
G3 X50.156 Y62.45 Z-1.327 I0 J-0.28
G1 X68.436 Z-1.966
G3 X68.436 Y63.01 Z-1.997 I0 J0.28
G1 X68.336 Z-2
X50.156 F30
G3 X50.156 Y62.45 I0 J-0.28
G1 X68.436
G3 X68.436 Y63.01 I0 J0.28
G1 X68.336
G2 X67.834 Y63.345 I0 J0.544
G3 X67.331 Y63.68 I-0.503 J-0.209
G1 X50.156
G3 X50.156 Y61.78 I0 J-0.95
G1 X68.436
G3 X68.436 Y63.68 I0 J0.95
G1 X67.331
G2 X66.618 Y64.155 I0 J0.772
G3 X65.906 Y64.63 I-0.713 J-0.297
G1 X50.156
G3 X50.156 Y60.83 I0 J-1.9
G1 X68.436
G3 X68.436 Y64.63 I0 J1.9
G1 X65.906
X65.857 Y64.624 Z-1.987
X65.81 Y64.606 Z-1.973
X65.78 Y64.585 Z-1.937
X65.754 Y64.56 Z-1.9
X65.738 Y64.538 Z-1.8
G0 Z5
X53.133 Y62.45
Z3
G1 Z-0.8 F30
G18 G2 X53.326 Z-1 I0.2 K0 F10
G1 X68.436 Z-1.528
G17 G3 X68.436 Y63.01 Z-1.558 I0 J0.28
G1 X50.156 Z-2.197
G3 X50.156 Y62.45 Z-2.227 I0 J-0.28
G1 X68.436 Z-2.866
G3 X68.436 Y63.01 Z-2.897 I0 J0.28
G1 X68.336 Z-2.9
X50.156 F30
G3 X50.156 Y62.45 I0 J-0.28
G1 X68.436
G3 X68.436 Y63.01 I0 J0.28
G1 X68.336
G2 X67.834 Y63.345 I0 J0.544
G3 X67.331 Y63.68 I-0.503 J-0.209
G1 X50.156
G3 X50.156 Y61.78 I0 J-0.95
G1 X68.436
G3 X68.436 Y63.68 I0 J0.95
G1 X67.331
G2 X66.618 Y64.155 I0 J0.772
G3 X65.906 Y64.63 I-0.713 J-0.297
G1 X50.156
G3 X50.156 Y60.83 I0 J-1.9
G1 X68.436
G3 X68.436 Y64.63 I0 J1.9
G1 X65.906
X65.857 Y64.624 Z-2.887
X65.81 Y64.606 Z-2.873
X65.78 Y64.585 Z-2.837
X65.754 Y64.56 Z-2.8
X65.738 Y64.538 Z-2.7
G0 Z5
X30.172 Y68.397
Z3
G1 Z2 F30
Z-0.8 F10
X30.188 Y68.375 Z-0.9
X30.214 Y68.35 Z-0.937
X30.244 Y68.329 Z-0.973
X30.291 Y68.311 Z-0.987
X30.34 Y68.305 Z-1
G3 X30.34 Y69.855 I0 J0.775 F30
X30.34 Y68.305 I0 J-0.775
X30.34 Y69.855 Z-1.085 I0 J0.775 F10
X30.34 Y68.305 Z-1.17 I0 J-0.775
X30.34 Y69.855 Z-1.255 I0 J0.775
X30.34 Y68.305 Z-1.34 I0 J-0.775
X30.34 Y69.855 Z-1.425 I0 J0.775
X30.34 Y68.305 Z-1.51 I0 J-0.775
X30.34 Y69.855 Z-1.595 I0 J0.775
X30.34 Y68.305 Z-1.68 I0 J-0.775
X30.34 Y69.855 Z-1.765 I0 J0.775
X30.34 Y68.305 Z-1.85 I0 J-0.775
X30.34 Y69.855 Z-1.935 I0 J0.775
X29.812 Y68.512 Z-2 I0 J-0.775
X30.868 Y69.648 I0.528 J0.568 F30
X29.812 Y68.512 I-0.528 J-0.568
X30.868 Y69.648 Z-2.085 I0.528 J0.568 F10
X29.812 Y68.512 Z-2.17 I-0.528 J-0.568
X30.868 Y69.648 Z-2.255 I0.528 J0.568
X29.812 Y68.512 Z-2.34 I-0.528 J-0.568
X30.868 Y69.648 Z-2.425 I0.528 J0.568
X29.812 Y68.512 Z-2.51 I-0.528 J-0.568
X30.868 Y69.648 Z-2.595 I0.528 J0.568
X29.812 Y68.512 Z-2.68 I-0.528 J-0.568
X30.868 Y69.648 Z-2.765 I0.528 J0.568
X29.812 Y68.512 Z-2.85 I-0.528 J-0.568
X31.027 Y68.722 Z-2.9 I0.528 J0.568
X29.653 Y69.438 I-0.687 J0.358 F30
X31.027 Y68.722 I0.687 J-0.358
G1 X31.044 Y68.768 Z-2.887
X31.05 Y68.818 Z-2.873
X31.046 Y68.854 Z-2.837
X31.035 Y68.889 Z-2.8
X31.023 Y68.913 Z-2.7
G0 Z15
M9
G28 G91 Z0
G90
G28 G91 X0 Y0
G90
M5
M30
