(1001)
(NoFaltaNingunHollo)
(T2  D=2 CR=0 - ZMIN=-2.9 - flat end mill)
G90 G94
G17
G21
G28 G91 Z0
G90

(FaltaUnHollo)
T2 M6
S5000 M3
G54
M8
G0 X109.068 Y37.027
Z15
Z5
G1 Z2.7 F1000
X109.058 Y37.051 Z2.602 F333.3
X109.027 Y37.114 Z2.529
X108.978 Y37.197 Z2.5
G3 X107.397 Y36.143 Z2.396 I-0.79 J-0.527
X108.978 Y37.197 Z2.292 I0.79 J0.527
X107.397 Y36.143 Z2.187 I-0.79 J-0.527
X108.978 Y37.197 Z2.083 I0.79 J0.527
X107.397 Y36.143 Z1.979 I-0.79 J-0.527
X108.978 Y37.197 Z1.875 I0.79 J0.527
X107.397 Y36.143 Z1.77 I-0.79 J-0.527
X108.978 Y37.197 Z1.666 I0.79 J0.527
X107.397 Y36.143 Z1.562 I-0.79 J-0.527
X108.978 Y37.197 Z1.458 I0.79 J0.527
X107.397 Y36.143 Z1.354 I-0.79 J-0.527
X108.978 Y37.197 Z1.249 I0.79 J0.527
X107.397 Y36.143 Z1.145 I-0.79 J-0.527
X108.978 Y37.197 Z1.041 I0.79 J0.527
X107.397 Y36.143 Z0.937 I-0.79 J-0.527
X108.978 Y37.197 Z0.832 I0.79 J0.527
X107.397 Y36.143 Z0.728 I-0.79 J-0.527
X108.978 Y37.197 Z0.624 I0.79 J0.527
X107.397 Y36.143 Z0.52 I-0.79 J-0.527
X108.978 Y37.197 Z0.416 I0.79 J0.527
X107.397 Y36.143 Z0.311 I-0.79 J-0.527
X108.978 Y37.197 Z0.207 I0.79 J0.527
X107.397 Y36.143 Z0.103 I-0.79 J-0.527
X108.978 Y37.197 Z-0.001 I0.79 J0.527
X107.397 Y36.143 Z-0.106 I-0.79 J-0.527
X108.978 Y37.197 Z-0.21 I0.79 J0.527
X107.397 Y36.143 Z-0.314 I-0.79 J-0.527
X108.978 Y37.197 Z-0.418 I0.79 J0.527
X107.397 Y36.143 Z-0.522 I-0.79 J-0.527
X108.978 Y37.197 Z-0.627 I0.79 J0.527
X107.397 Y36.143 Z-0.731 I-0.79 J-0.527
X108.978 Y37.197 Z-0.835 I0.79 J0.527
X107.397 Y36.143 Z-0.939 I-0.79 J-0.527
X108.978 Y37.197 Z-1.044 I0.79 J0.527
X107.397 Y36.143 Z-1.148 I-0.79 J-0.527
X108.978 Y37.197 Z-1.252 I0.79 J0.527
X107.397 Y36.143 Z-1.356 I-0.79 J-0.527
X108.978 Y37.197 Z-1.46 I0.79 J0.527
X107.397 Y36.143 Z-1.565 I-0.79 J-0.527
X108.978 Y37.197 Z-1.669 I0.79 J0.527
X107.397 Y36.143 Z-1.773 I-0.79 J-0.527
X108.978 Y37.197 Z-1.877 I0.79 J0.527
X107.397 Y36.143 Z-1.982 I-0.79 J-0.527
X108.978 Y37.197 Z-2.086 I0.79 J0.527
X107.397 Y36.143 Z-2.19 I-0.79 J-0.527
X108.978 Y37.197 Z-2.294 I0.79 J0.527
X107.397 Y36.143 Z-2.398 I-0.79 J-0.527
X108.978 Y37.197 Z-2.503 I0.79 J0.527
X107.397 Y36.143 Z-2.607 I-0.79 J-0.527
X108.978 Y37.197 Z-2.711 I0.79 J0.527
X107.397 Y36.143 Z-2.815 I-0.79 J-0.527
X109.137 Y36.67 Z-2.9 I0.79 J0.527
X108.778 Y36.67 I-0.18 J0
X109.178 Y36.67 I0.2 J0 F1000
X106.878 Y36.67 I-1.15 J0
X109.178 Y36.67 I1.15 J0
G1 X109.172 Y36.719 Z-2.887
X109.154 Y36.766 Z-2.873
X109.133 Y36.796 Z-2.837
X109.108 Y36.822 Z-2.8
X109.086 Y36.838 Z-2.7
G0 Z5
X109.068 Y48.434
G1 Z2.7 F1000
X109.058 Y48.458 Z2.602 F333.3
X109.027 Y48.521 Z2.529
X108.978 Y48.604 Z2.5
G3 X107.397 Y47.55 Z2.396 I-0.79 J-0.527
X108.978 Y48.604 Z2.292 I0.79 J0.527
X107.397 Y47.55 Z2.187 I-0.79 J-0.527
X108.978 Y48.604 Z2.083 I0.79 J0.527
X107.397 Y47.55 Z1.979 I-0.79 J-0.527
X108.978 Y48.604 Z1.875 I0.79 J0.527
X107.397 Y47.55 Z1.77 I-0.79 J-0.527
X108.978 Y48.604 Z1.666 I0.79 J0.527
X107.397 Y47.55 Z1.562 I-0.79 J-0.527
X108.978 Y48.604 Z1.458 I0.79 J0.527
X107.397 Y47.55 Z1.354 I-0.79 J-0.527
X108.978 Y48.604 Z1.249 I0.79 J0.527
X107.397 Y47.55 Z1.145 I-0.79 J-0.527
X108.978 Y48.604 Z1.041 I0.79 J0.527
X107.397 Y47.55 Z0.937 I-0.79 J-0.527
X108.978 Y48.604 Z0.832 I0.79 J0.527
X107.397 Y47.55 Z0.728 I-0.79 J-0.527
X108.978 Y48.604 Z0.624 I0.79 J0.527
X107.397 Y47.55 Z0.52 I-0.79 J-0.527
X108.978 Y48.604 Z0.416 I0.79 J0.527
X107.397 Y47.55 Z0.311 I-0.79 J-0.527
X108.978 Y48.604 Z0.207 I0.79 J0.527
X107.397 Y47.55 Z0.103 I-0.79 J-0.527
X108.978 Y48.604 Z-0.001 I0.79 J0.527
X107.397 Y47.55 Z-0.106 I-0.79 J-0.527
X108.978 Y48.604 Z-0.21 I0.79 J0.527
X107.397 Y47.55 Z-0.314 I-0.79 J-0.527
X108.978 Y48.604 Z-0.418 I0.79 J0.527
X107.397 Y47.55 Z-0.522 I-0.79 J-0.527
X108.978 Y48.604 Z-0.627 I0.79 J0.527
X107.397 Y47.55 Z-0.731 I-0.79 J-0.527
X108.978 Y48.604 Z-0.835 I0.79 J0.527
X107.397 Y47.55 Z-0.939 I-0.79 J-0.527
X108.978 Y48.604 Z-1.044 I0.79 J0.527
X107.397 Y47.55 Z-1.148 I-0.79 J-0.527
X108.978 Y48.604 Z-1.252 I0.79 J0.527
X107.397 Y47.55 Z-1.356 I-0.79 J-0.527
X108.978 Y48.604 Z-1.46 I0.79 J0.527
X107.397 Y47.55 Z-1.565 I-0.79 J-0.527
X108.978 Y48.604 Z-1.669 I0.79 J0.527
X107.397 Y47.55 Z-1.773 I-0.79 J-0.527
X108.978 Y48.604 Z-1.877 I0.79 J0.527
X107.397 Y47.55 Z-1.982 I-0.79 J-0.527
X108.978 Y48.604 Z-2.086 I0.79 J0.527
X107.397 Y47.55 Z-2.19 I-0.79 J-0.527
X108.978 Y48.604 Z-2.294 I0.79 J0.527
X107.397 Y47.55 Z-2.398 I-0.79 J-0.527
X108.978 Y48.604 Z-2.503 I0.79 J0.527
X107.397 Y47.55 Z-2.607 I-0.79 J-0.527
X108.978 Y48.604 Z-2.711 I0.79 J0.527
X107.397 Y47.55 Z-2.815 I-0.79 J-0.527
X109.137 Y48.077 Z-2.9 I0.79 J0.527
X108.778 Y48.077 I-0.18 J0
X109.178 Y48.077 I0.2 J0 F1000
X106.878 Y48.077 I-1.15 J0
X109.178 Y48.077 I1.15 J0
G1 X109.172 Y48.126 Z-2.887
X109.154 Y48.173 Z-2.873
X109.133 Y48.203 Z-2.837
X109.108 Y48.229 Z-2.8
X109.086 Y48.245 Z-2.7
G0 Z5
X99.423 Y63.087
G1 Z2.7 F1000
X99.413 Y63.111 Z2.602 F333.3
X99.383 Y63.174 Z2.529
X99.333 Y63.257 Z2.5
G3 X97.753 Y62.203 Z2.396 I-0.79 J-0.527
X99.333 Y63.257 Z2.292 I0.79 J0.527
X97.753 Y62.203 Z2.187 I-0.79 J-0.527
X99.333 Y63.257 Z2.083 I0.79 J0.527
X97.753 Y62.203 Z1.979 I-0.79 J-0.527
X99.333 Y63.257 Z1.875 I0.79 J0.527
X97.753 Y62.203 Z1.77 I-0.79 J-0.527
X99.333 Y63.257 Z1.666 I0.79 J0.527
X97.753 Y62.203 Z1.562 I-0.79 J-0.527
X99.333 Y63.257 Z1.458 I0.79 J0.527
X97.753 Y62.203 Z1.354 I-0.79 J-0.527
X99.333 Y63.257 Z1.249 I0.79 J0.527
X97.753 Y62.203 Z1.145 I-0.79 J-0.527
X99.333 Y63.257 Z1.041 I0.79 J0.527
X97.753 Y62.203 Z0.937 I-0.79 J-0.527
X99.333 Y63.257 Z0.832 I0.79 J0.527
X97.753 Y62.203 Z0.728 I-0.79 J-0.527
X99.333 Y63.257 Z0.624 I0.79 J0.527
X97.753 Y62.203 Z0.52 I-0.79 J-0.527
X99.333 Y63.257 Z0.416 I0.79 J0.527
X97.753 Y62.203 Z0.311 I-0.79 J-0.527
X99.333 Y63.257 Z0.207 I0.79 J0.527
X97.753 Y62.203 Z0.103 I-0.79 J-0.527
X99.333 Y63.257 Z-0.001 I0.79 J0.527
X97.753 Y62.203 Z-0.106 I-0.79 J-0.527
X99.333 Y63.257 Z-0.21 I0.79 J0.527
X97.753 Y62.203 Z-0.314 I-0.79 J-0.527
X99.333 Y63.257 Z-0.418 I0.79 J0.527
X97.753 Y62.203 Z-0.522 I-0.79 J-0.527
X99.333 Y63.257 Z-0.627 I0.79 J0.527
X97.753 Y62.203 Z-0.731 I-0.79 J-0.527
X99.333 Y63.257 Z-0.835 I0.79 J0.527
X97.753 Y62.203 Z-0.939 I-0.79 J-0.527
X99.333 Y63.257 Z-1.044 I0.79 J0.527
X97.753 Y62.203 Z-1.148 I-0.79 J-0.527
X99.333 Y63.257 Z-1.252 I0.79 J0.527
X97.753 Y62.203 Z-1.356 I-0.79 J-0.527
X99.333 Y63.257 Z-1.46 I0.79 J0.527
X97.753 Y62.203 Z-1.565 I-0.79 J-0.527
X99.333 Y63.257 Z-1.669 I0.79 J0.527
X97.753 Y62.203 Z-1.773 I-0.79 J-0.527
X99.333 Y63.257 Z-1.877 I0.79 J0.527
X97.753 Y62.203 Z-1.982 I-0.79 J-0.527
X99.333 Y63.257 Z-2.086 I0.79 J0.527
X97.753 Y62.203 Z-2.19 I-0.79 J-0.527
X99.333 Y63.257 Z-2.294 I0.79 J0.527
X97.753 Y62.203 Z-2.398 I-0.79 J-0.527
X99.333 Y63.257 Z-2.503 I0.79 J0.527
X97.753 Y62.203 Z-2.607 I-0.79 J-0.527
X99.333 Y63.257 Z-2.711 I0.79 J0.527
X97.753 Y62.203 Z-2.815 I-0.79 J-0.527
X99.493 Y62.73 Z-2.9 I0.79 J0.527
X98.916 Y63.307 I-0.577 J0 F1000
G1 X78.096
G3 X78.096 Y62.153 I0 J-0.577
G1 X98.916
G3 X99.493 Y62.73 I0 J0.577
G2 X99.901 Y63.501 I0.932 J0
G3 X99.87 Y64.373 I-0.29 J0.426
X98.916 Y64.63 I-0.954 J-1.643
G1 X78.096
G3 X78.096 Y60.83 I0 J-1.9
G1 X98.916
G3 X99.87 Y64.373 I0 J1.9
G1 X99.825 Y64.392 Z-2.887
X99.775 Y64.4 Z-2.873
X99.739 Y64.397 Z-2.837
X99.703 Y64.388 Z-2.8
X99.679 Y64.378 Z-2.7
G0 Z5
X126.861 Y50.431
G1 Z2.7 F1000
X126.871 Y50.407 Z2.602 F333.3
X126.901 Y50.344 Z2.529
X126.951 Y50.261 Z2.5
G3 X128.531 Y51.315 Z2.396 I0.79 J0.527
X126.951 Y50.261 Z2.292 I-0.79 J-0.527
X128.531 Y51.315 Z2.187 I0.79 J0.527
X126.951 Y50.261 Z2.083 I-0.79 J-0.527
X128.531 Y51.315 Z1.979 I0.79 J0.527
X126.951 Y50.261 Z1.875 I-0.79 J-0.527
X128.531 Y51.315 Z1.77 I0.79 J0.527
X126.951 Y50.261 Z1.666 I-0.79 J-0.527
X128.531 Y51.315 Z1.562 I0.79 J0.527
X126.951 Y50.261 Z1.458 I-0.79 J-0.527
X128.531 Y51.315 Z1.354 I0.79 J0.527
X126.951 Y50.261 Z1.249 I-0.79 J-0.527
X128.531 Y51.315 Z1.145 I0.79 J0.527
X126.951 Y50.261 Z1.041 I-0.79 J-0.527
X128.531 Y51.315 Z0.937 I0.79 J0.527
X126.951 Y50.261 Z0.832 I-0.79 J-0.527
X128.531 Y51.315 Z0.728 I0.79 J0.527
X126.951 Y50.261 Z0.624 I-0.79 J-0.527
X128.531 Y51.315 Z0.52 I0.79 J0.527
X126.951 Y50.261 Z0.416 I-0.79 J-0.527
X128.531 Y51.315 Z0.311 I0.79 J0.527
X126.951 Y50.261 Z0.207 I-0.79 J-0.527
X128.531 Y51.315 Z0.103 I0.79 J0.527
X126.951 Y50.261 Z-0.001 I-0.79 J-0.527
X128.531 Y51.315 Z-0.106 I0.79 J0.527
X126.951 Y50.261 Z-0.21 I-0.79 J-0.527
X128.531 Y51.315 Z-0.314 I0.79 J0.527
X126.951 Y50.261 Z-0.418 I-0.79 J-0.527
X128.531 Y51.315 Z-0.522 I0.79 J0.527
X126.951 Y50.261 Z-0.627 I-0.79 J-0.527
X128.531 Y51.315 Z-0.731 I0.79 J0.527
X126.951 Y50.261 Z-0.835 I-0.79 J-0.527
X128.531 Y51.315 Z-0.939 I0.79 J0.527
X126.951 Y50.261 Z-1.044 I-0.79 J-0.527
X128.531 Y51.315 Z-1.148 I0.79 J0.527
X126.951 Y50.261 Z-1.252 I-0.79 J-0.527
X128.531 Y51.315 Z-1.356 I0.79 J0.527
X126.951 Y50.261 Z-1.46 I-0.79 J-0.527
X128.531 Y51.315 Z-1.565 I0.79 J0.527
X126.951 Y50.261 Z-1.669 I-0.79 J-0.527
X128.531 Y51.315 Z-1.773 I0.79 J0.527
X126.951 Y50.261 Z-1.877 I-0.79 J-0.527
X128.531 Y51.315 Z-1.982 I0.79 J0.527
X126.951 Y50.261 Z-2.086 I-0.79 J-0.527
X128.531 Y51.315 Z-2.19 I0.79 J0.527
X126.951 Y50.261 Z-2.294 I-0.79 J-0.527
X128.531 Y51.315 Z-2.398 I0.79 J0.527
X126.951 Y50.261 Z-2.503 I-0.79 J-0.527
X128.531 Y51.315 Z-2.607 I0.79 J0.527
X126.951 Y50.261 Z-2.711 I-0.79 J-0.527
X128.531 Y51.315 Z-2.815 I0.79 J0.527
X126.791 Y50.788 Z-2.9 I-0.79 J-0.527
G1 Y29.968 F1000
G3 X127.945 Y29.968 I0.577 J0
G1 Y50.788
G3 X126.791 Y50.788 I-0.577 J0
G2 X126.13 Y49.796 I-1.075 J0
G3 X125.468 Y48.804 I0.413 J-0.992
G1 Y29.968
G3 X129.268 Y29.968 I1.9 J0
G1 Y50.788
G3 X125.468 Y50.788 I-1.9 J0
G1 Y48.804
X125.474 Y48.754 Z-2.887
X125.492 Y48.708 Z-2.873
X125.513 Y48.677 Z-2.837
X125.538 Y48.651 Z-2.8
X125.56 Y48.635 Z-2.7
G0 Z5
X133.19 Y53.841
G1 Z2.7 F1000
X133.214 Y53.851 Z2.602 F333.3
X133.277 Y53.881 Z2.529
X133.36 Y53.931 Z2.5
G3 X132.306 Y55.511 Z2.396 I-0.527 J0.79
X133.36 Y53.931 Z2.292 I0.527 J-0.79
X132.306 Y55.511 Z2.187 I-0.527 J0.79
X133.36 Y53.931 Z2.083 I0.527 J-0.79
X132.306 Y55.511 Z1.979 I-0.527 J0.79
X133.36 Y53.931 Z1.875 I0.527 J-0.79
X132.306 Y55.511 Z1.77 I-0.527 J0.79
X133.36 Y53.931 Z1.666 I0.527 J-0.79
X132.306 Y55.511 Z1.562 I-0.527 J0.79
X133.36 Y53.931 Z1.458 I0.527 J-0.79
X132.306 Y55.511 Z1.354 I-0.527 J0.79
X133.36 Y53.931 Z1.249 I0.527 J-0.79
X132.306 Y55.511 Z1.145 I-0.527 J0.79
X133.36 Y53.931 Z1.041 I0.527 J-0.79
X132.306 Y55.511 Z0.937 I-0.527 J0.79
X133.36 Y53.931 Z0.832 I0.527 J-0.79
X132.306 Y55.511 Z0.728 I-0.527 J0.79
X133.36 Y53.931 Z0.624 I0.527 J-0.79
X132.306 Y55.511 Z0.52 I-0.527 J0.79
X133.36 Y53.931 Z0.416 I0.527 J-0.79
X132.306 Y55.511 Z0.311 I-0.527 J0.79
X133.36 Y53.931 Z0.207 I0.527 J-0.79
X132.306 Y55.511 Z0.103 I-0.527 J0.79
X133.36 Y53.931 Z-0.001 I0.527 J-0.79
X132.306 Y55.511 Z-0.106 I-0.527 J0.79
X133.36 Y53.931 Z-0.21 I0.527 J-0.79
X132.306 Y55.511 Z-0.314 I-0.527 J0.79
X133.36 Y53.931 Z-0.418 I0.527 J-0.79
X132.306 Y55.511 Z-0.522 I-0.527 J0.79
X133.36 Y53.931 Z-0.627 I0.527 J-0.79
X132.306 Y55.511 Z-0.731 I-0.527 J0.79
X133.36 Y53.931 Z-0.835 I0.527 J-0.79
X132.306 Y55.511 Z-0.939 I-0.527 J0.79
X133.36 Y53.931 Z-1.044 I0.527 J-0.79
X132.306 Y55.511 Z-1.148 I-0.527 J0.79
X133.36 Y53.931 Z-1.252 I0.527 J-0.79
X132.306 Y55.511 Z-1.356 I-0.527 J0.79
X133.36 Y53.931 Z-1.46 I0.527 J-0.79
X132.306 Y55.511 Z-1.565 I-0.527 J0.79
X133.36 Y53.931 Z-1.669 I0.527 J-0.79
X132.306 Y55.511 Z-1.773 I-0.527 J0.79
X133.36 Y53.931 Z-1.877 I0.527 J-0.79
X132.306 Y55.511 Z-1.982 I-0.527 J0.79
X133.36 Y53.931 Z-2.086 I0.527 J-0.79
X132.306 Y55.511 Z-2.19 I-0.527 J0.79
X133.36 Y53.931 Z-2.294 I0.527 J-0.79
X132.306 Y55.511 Z-2.398 I-0.527 J0.79
X133.36 Y53.931 Z-2.503 I0.527 J-0.79
X132.306 Y55.511 Z-2.607 I-0.527 J0.79
X133.36 Y53.931 Z-2.711 I0.527 J-0.79
X132.306 Y55.511 Z-2.815 I-0.527 J0.79
X132.833 Y53.771 Z-2.9 I0.527 J-0.79
G1 X140.953 F1000
G3 X140.953 Y54.925 I0 J0.577
G1 X132.833
G3 X132.833 Y53.771 I0 J-0.577
G2 X133.825 Y53.11 I0 J-1.075
G3 X134.818 Y52.448 I0.992 J0.413
G1 X140.953
G3 X140.953 Y56.248 I0 J1.9
G1 X132.833
G3 X132.833 Y52.448 I0 J-1.9
G1 X134.818
X134.867 Y52.454 Z-2.887
X134.913 Y52.472 Z-2.873
X134.944 Y52.493 Z-2.837
X134.97 Y52.518 Z-2.8
X134.986 Y52.54 Z-2.7
G0 Z5
X132.508 Y62.785
G1 Z2.7 F1000
X132.498 Y62.809 Z2.602 F333.3
X132.467 Y62.872 Z2.529
X132.418 Y62.955 Z2.5
G3 X130.837 Y61.901 Z2.396 I-0.79 J-0.527
X132.418 Y62.955 Z2.292 I0.79 J0.527
X130.837 Y61.901 Z2.187 I-0.79 J-0.527
X132.418 Y62.955 Z2.083 I0.79 J0.527
X130.837 Y61.901 Z1.979 I-0.79 J-0.527
X132.418 Y62.955 Z1.875 I0.79 J0.527
X130.837 Y61.901 Z1.77 I-0.79 J-0.527
X132.418 Y62.955 Z1.666 I0.79 J0.527
X130.837 Y61.901 Z1.562 I-0.79 J-0.527
X132.418 Y62.955 Z1.458 I0.79 J0.527
X130.837 Y61.901 Z1.354 I-0.79 J-0.527
X132.418 Y62.955 Z1.249 I0.79 J0.527
X130.837 Y61.901 Z1.145 I-0.79 J-0.527
X132.418 Y62.955 Z1.041 I0.79 J0.527
X130.837 Y61.901 Z0.937 I-0.79 J-0.527
X132.418 Y62.955 Z0.832 I0.79 J0.527
X130.837 Y61.901 Z0.728 I-0.79 J-0.527
X132.418 Y62.955 Z0.624 I0.79 J0.527
X130.837 Y61.901 Z0.52 I-0.79 J-0.527
X132.418 Y62.955 Z0.416 I0.79 J0.527
X130.837 Y61.901 Z0.311 I-0.79 J-0.527
X132.418 Y62.955 Z0.207 I0.79 J0.527
X130.837 Y61.901 Z0.103 I-0.79 J-0.527
X132.418 Y62.955 Z-0.001 I0.79 J0.527
X130.837 Y61.901 Z-0.106 I-0.79 J-0.527
X132.418 Y62.955 Z-0.21 I0.79 J0.527
X130.837 Y61.901 Z-0.314 I-0.79 J-0.527
X132.418 Y62.955 Z-0.418 I0.79 J0.527
X130.837 Y61.901 Z-0.522 I-0.79 J-0.527
X132.418 Y62.955 Z-0.627 I0.79 J0.527
X130.837 Y61.901 Z-0.731 I-0.79 J-0.527
X132.418 Y62.955 Z-0.835 I0.79 J0.527
X130.837 Y61.901 Z-0.939 I-0.79 J-0.527
X132.418 Y62.955 Z-1.044 I0.79 J0.527
X130.837 Y61.901 Z-1.148 I-0.79 J-0.527
X132.418 Y62.955 Z-1.252 I0.79 J0.527
X130.837 Y61.901 Z-1.356 I-0.79 J-0.527
X132.418 Y62.955 Z-1.46 I0.79 J0.527
X130.837 Y61.901 Z-1.565 I-0.79 J-0.527
X132.418 Y62.955 Z-1.669 I0.79 J0.527
X130.837 Y61.901 Z-1.773 I-0.79 J-0.527
X132.418 Y62.955 Z-1.877 I0.79 J0.527
X130.837 Y61.901 Z-1.982 I-0.79 J-0.527
X132.418 Y62.955 Z-2.086 I0.79 J0.527
X130.837 Y61.901 Z-2.19 I-0.79 J-0.527
X132.418 Y62.955 Z-2.294 I0.79 J0.527
X130.837 Y61.901 Z-2.398 I-0.79 J-0.527
X132.418 Y62.955 Z-2.503 I0.79 J0.527
X130.837 Y61.901 Z-2.607 I-0.79 J-0.527
X132.418 Y62.955 Z-2.711 I0.79 J0.527
X130.837 Y61.901 Z-2.815 I-0.79 J-0.527
X132.577 Y62.428 Z-2.9 I0.79 J0.527
X132.218 Y62.428 I-0.18 J0
X132.618 Y62.428 I0.2 J0 F1000
X130.318 Y62.428 I-1.15 J0
X132.618 Y62.428 I1.15 J0
G1 X132.612 Y62.477 Z-2.887
X132.594 Y62.524 Z-2.873
X132.573 Y62.554 Z-2.837
X132.548 Y62.58 Z-2.8
X132.526 Y62.596 Z-2.7
G0 Z5
X145.208 Y62.785
G1 Z2.7 F1000
X145.198 Y62.809 Z2.602 F333.3
X145.167 Y62.872 Z2.529
X145.118 Y62.955 Z2.5
G3 X143.537 Y61.901 Z2.396 I-0.79 J-0.527
X145.118 Y62.955 Z2.292 I0.79 J0.527
X143.537 Y61.901 Z2.187 I-0.79 J-0.527
X145.118 Y62.955 Z2.083 I0.79 J0.527
X143.537 Y61.901 Z1.979 I-0.79 J-0.527
X145.118 Y62.955 Z1.875 I0.79 J0.527
X143.537 Y61.901 Z1.77 I-0.79 J-0.527
X145.118 Y62.955 Z1.666 I0.79 J0.527
X143.537 Y61.901 Z1.562 I-0.79 J-0.527
X145.118 Y62.955 Z1.458 I0.79 J0.527
X143.537 Y61.901 Z1.354 I-0.79 J-0.527
X145.118 Y62.955 Z1.249 I0.79 J0.527
X143.537 Y61.901 Z1.145 I-0.79 J-0.527
X145.118 Y62.955 Z1.041 I0.79 J0.527
X143.537 Y61.901 Z0.937 I-0.79 J-0.527
X145.118 Y62.955 Z0.832 I0.79 J0.527
X143.537 Y61.901 Z0.728 I-0.79 J-0.527
X145.118 Y62.955 Z0.624 I0.79 J0.527
X143.537 Y61.901 Z0.52 I-0.79 J-0.527
X145.118 Y62.955 Z0.416 I0.79 J0.527
X143.537 Y61.901 Z0.311 I-0.79 J-0.527
X145.118 Y62.955 Z0.207 I0.79 J0.527
X143.537 Y61.901 Z0.103 I-0.79 J-0.527
X145.118 Y62.955 Z-0.001 I0.79 J0.527
X143.537 Y61.901 Z-0.106 I-0.79 J-0.527
X145.118 Y62.955 Z-0.21 I0.79 J0.527
X143.537 Y61.901 Z-0.314 I-0.79 J-0.527
X145.118 Y62.955 Z-0.418 I0.79 J0.527
X143.537 Y61.901 Z-0.522 I-0.79 J-0.527
X145.118 Y62.955 Z-0.627 I0.79 J0.527
X143.537 Y61.901 Z-0.731 I-0.79 J-0.527
X145.118 Y62.955 Z-0.835 I0.79 J0.527
X143.537 Y61.901 Z-0.939 I-0.79 J-0.527
X145.118 Y62.955 Z-1.044 I0.79 J0.527
X143.537 Y61.901 Z-1.148 I-0.79 J-0.527
X145.118 Y62.955 Z-1.252 I0.79 J0.527
X143.537 Y61.901 Z-1.356 I-0.79 J-0.527
X145.118 Y62.955 Z-1.46 I0.79 J0.527
X143.537 Y61.901 Z-1.565 I-0.79 J-0.527
X145.118 Y62.955 Z-1.669 I0.79 J0.527
X143.537 Y61.901 Z-1.773 I-0.79 J-0.527
X145.118 Y62.955 Z-1.877 I0.79 J0.527
X143.537 Y61.901 Z-1.982 I-0.79 J-0.527
X145.118 Y62.955 Z-2.086 I0.79 J0.527
X143.537 Y61.901 Z-2.19 I-0.79 J-0.527
X145.118 Y62.955 Z-2.294 I0.79 J0.527
X143.537 Y61.901 Z-2.398 I-0.79 J-0.527
X145.118 Y62.955 Z-2.503 I0.79 J0.527
X143.537 Y61.901 Z-2.607 I-0.79 J-0.527
X145.118 Y62.955 Z-2.711 I0.79 J0.527
X143.537 Y61.901 Z-2.815 I-0.79 J-0.527
X145.277 Y62.428 Z-2.9 I0.79 J0.527
X144.918 Y62.428 I-0.18 J0
X145.318 Y62.428 I0.2 J0 F1000
X143.018 Y62.428 I-1.15 J0
X145.318 Y62.428 I1.15 J0
G1 X145.312 Y62.477 Z-2.887
X145.294 Y62.524 Z-2.873
X145.273 Y62.554 Z-2.837
X145.248 Y62.58 Z-2.8
X145.226 Y62.596 Z-2.7
G0 Z5
X156.098 Y65.142
G1 Z2.7 F1000
X156.074 Y65.132 Z2.602 F333.3
X156.011 Y65.102 Z2.529
X155.928 Y65.052 Z2.5
G3 X156.982 Y63.472 Z2.396 I0.527 J-0.79
X155.928 Y65.052 Z2.292 I-0.527 J0.79
X156.982 Y63.472 Z2.187 I0.527 J-0.79
X155.928 Y65.052 Z2.083 I-0.527 J0.79
X156.982 Y63.472 Z1.979 I0.527 J-0.79
X155.928 Y65.052 Z1.875 I-0.527 J0.79
X156.982 Y63.472 Z1.77 I0.527 J-0.79
X155.928 Y65.052 Z1.666 I-0.527 J0.79
X156.982 Y63.472 Z1.562 I0.527 J-0.79
X155.928 Y65.052 Z1.458 I-0.527 J0.79
X156.982 Y63.472 Z1.354 I0.527 J-0.79
X155.928 Y65.052 Z1.249 I-0.527 J0.79
X156.982 Y63.472 Z1.145 I0.527 J-0.79
X155.928 Y65.052 Z1.041 I-0.527 J0.79
X156.982 Y63.472 Z0.937 I0.527 J-0.79
X155.928 Y65.052 Z0.832 I-0.527 J0.79
X156.982 Y63.472 Z0.728 I0.527 J-0.79
X155.928 Y65.052 Z0.624 I-0.527 J0.79
X156.982 Y63.472 Z0.52 I0.527 J-0.79
X155.928 Y65.052 Z0.416 I-0.527 J0.79
X156.982 Y63.472 Z0.311 I0.527 J-0.79
X155.928 Y65.052 Z0.207 I-0.527 J0.79
X156.982 Y63.472 Z0.103 I0.527 J-0.79
X155.928 Y65.052 Z-0.001 I-0.527 J0.79
X156.982 Y63.472 Z-0.106 I0.527 J-0.79
X155.928 Y65.052 Z-0.21 I-0.527 J0.79
X156.982 Y63.472 Z-0.314 I0.527 J-0.79
X155.928 Y65.052 Z-0.418 I-0.527 J0.79
X156.982 Y63.472 Z-0.522 I0.527 J-0.79
X155.928 Y65.052 Z-0.627 I-0.527 J0.79
X156.982 Y63.472 Z-0.731 I0.527 J-0.79
X155.928 Y65.052 Z-0.835 I-0.527 J0.79
X156.982 Y63.472 Z-0.939 I0.527 J-0.79
X155.928 Y65.052 Z-1.044 I-0.527 J0.79
X156.982 Y63.472 Z-1.148 I0.527 J-0.79
X155.928 Y65.052 Z-1.252 I-0.527 J0.79
X156.982 Y63.472 Z-1.356 I0.527 J-0.79
X155.928 Y65.052 Z-1.46 I-0.527 J0.79
X156.982 Y63.472 Z-1.565 I0.527 J-0.79
X155.928 Y65.052 Z-1.669 I-0.527 J0.79
X156.982 Y63.472 Z-1.773 I0.527 J-0.79
X155.928 Y65.052 Z-1.877 I-0.527 J0.79
X156.982 Y63.472 Z-1.982 I0.527 J-0.79
X155.928 Y65.052 Z-2.086 I-0.527 J0.79
X156.982 Y63.472 Z-2.19 I0.527 J-0.79
X155.928 Y65.052 Z-2.294 I-0.527 J0.79
X156.982 Y63.472 Z-2.398 I0.527 J-0.79
X155.928 Y65.052 Z-2.503 I-0.527 J0.79
X156.982 Y63.472 Z-2.607 I0.527 J-0.79
X155.928 Y65.052 Z-2.711 I-0.527 J0.79
X156.982 Y63.472 Z-2.815 I0.527 J-0.79
X156.455 Y65.212 Z-2.9 I-0.527 J0.79
X156.455 Y64.058 I0 J-0.577 F1000
G1 X164.575
G3 X164.575 Y65.212 I0 J0.577
G1 X156.455
G2 X155.684 Y65.62 I0 J0.932
G3 X154.812 Y65.589 I-0.426 J-0.29
X156.455 Y62.735 I1.643 J-0.954
G1 X164.575
G3 X164.575 Y66.535 I0 J1.9
G1 X156.455
G3 X154.812 Y65.589 I0 J-1.9
G1 X154.793 Y65.544 Z-2.887
X154.785 Y65.494 Z-2.873
X154.788 Y65.458 Z-2.837
X154.797 Y65.422 Z-2.8
X154.807 Y65.398 Z-2.7
G0 Z5
X177.102 Y69.248
G1 Z2.5 F1000
Z-2.7 F333.3
X177.08 Y69.232 Z-2.8
X177.055 Y69.206 Z-2.837
X177.034 Y69.176 Z-2.873
X177.016 Y69.129 Z-2.887
X177.01 Y69.08 Z-2.9
G3 X178.31 Y69.08 I0.65 J0 F1000
X177.01 Y69.08 I-0.65 J0
G1 X177.016 Y69.031 Z-2.887
X177.034 Y68.984 Z-2.873
X177.055 Y68.954 Z-2.837
X177.08 Y68.928 Z-2.8
X177.102 Y68.912 Z-2.7
G0 Z5
X173.425 Y50.943
G1 Z2.7 F1000
X173.435 Y50.919 Z2.602 F333.3
X173.465 Y50.856 Z2.529
X173.515 Y50.773 Z2.5
G3 X175.095 Y51.827 Z2.396 I0.79 J0.527
X173.515 Y50.773 Z2.292 I-0.79 J-0.527
X175.095 Y51.827 Z2.187 I0.79 J0.527
X173.515 Y50.773 Z2.083 I-0.79 J-0.527
X175.095 Y51.827 Z1.979 I0.79 J0.527
X173.515 Y50.773 Z1.875 I-0.79 J-0.527
X175.095 Y51.827 Z1.77 I0.79 J0.527
X173.515 Y50.773 Z1.666 I-0.79 J-0.527
X175.095 Y51.827 Z1.562 I0.79 J0.527
X173.515 Y50.773 Z1.458 I-0.79 J-0.527
X175.095 Y51.827 Z1.354 I0.79 J0.527
X173.515 Y50.773 Z1.249 I-0.79 J-0.527
X175.095 Y51.827 Z1.145 I0.79 J0.527
X173.515 Y50.773 Z1.041 I-0.79 J-0.527
X175.095 Y51.827 Z0.937 I0.79 J0.527
X173.515 Y50.773 Z0.832 I-0.79 J-0.527
X175.095 Y51.827 Z0.728 I0.79 J0.527
X173.515 Y50.773 Z0.624 I-0.79 J-0.527
X175.095 Y51.827 Z0.52 I0.79 J0.527
X173.515 Y50.773 Z0.416 I-0.79 J-0.527
X175.095 Y51.827 Z0.311 I0.79 J0.527
X173.515 Y50.773 Z0.207 I-0.79 J-0.527
X175.095 Y51.827 Z0.103 I0.79 J0.527
X173.515 Y50.773 Z-0.001 I-0.79 J-0.527
X175.095 Y51.827 Z-0.106 I0.79 J0.527
X173.515 Y50.773 Z-0.21 I-0.79 J-0.527
X175.095 Y51.827 Z-0.314 I0.79 J0.527
X173.515 Y50.773 Z-0.418 I-0.79 J-0.527
X175.095 Y51.827 Z-0.522 I0.79 J0.527
X173.515 Y50.773 Z-0.627 I-0.79 J-0.527
X175.095 Y51.827 Z-0.731 I0.79 J0.527
X173.515 Y50.773 Z-0.835 I-0.79 J-0.527
X175.095 Y51.827 Z-0.939 I0.79 J0.527
X173.515 Y50.773 Z-1.044 I-0.79 J-0.527
X175.095 Y51.827 Z-1.148 I0.79 J0.527
X173.515 Y50.773 Z-1.252 I-0.79 J-0.527
X175.095 Y51.827 Z-1.356 I0.79 J0.527
X173.515 Y50.773 Z-1.46 I-0.79 J-0.527
X175.095 Y51.827 Z-1.565 I0.79 J0.527
X173.515 Y50.773 Z-1.669 I-0.79 J-0.527
X175.095 Y51.827 Z-1.773 I0.79 J0.527
X173.515 Y50.773 Z-1.877 I-0.79 J-0.527
X175.095 Y51.827 Z-1.982 I0.79 J0.527
X173.515 Y50.773 Z-2.086 I-0.79 J-0.527
X175.095 Y51.827 Z-2.19 I0.79 J0.527
X173.515 Y50.773 Z-2.294 I-0.79 J-0.527
X175.095 Y51.827 Z-2.398 I0.79 J0.527
X173.515 Y50.773 Z-2.503 I-0.79 J-0.527
X175.095 Y51.827 Z-2.607 I0.79 J0.527
X173.515 Y50.773 Z-2.711 I-0.79 J-0.527
X175.095 Y51.827 Z-2.815 I0.79 J0.527
X173.355 Y51.3 Z-2.9 I-0.79 J-0.527
G1 X173.362 Y51.275 F1000
X173.38 Y51.257
X173.405 Y51.25
X173.43 Y51.257
X173.448 Y51.275
X173.455 Y51.3
G3 X171.455 Y51.3 I-1 J0
X175.355 Y51.3 I1.95 J0
X169.555 Y51.3 I-2.9 J0
X175.355 Y51.3 I2.9 J0
G1 X175.349 Y51.349 Z-2.887
X175.331 Y51.396 Z-2.873
X175.31 Y51.426 Z-2.837
X175.285 Y51.452 Z-2.8
X175.263 Y51.468 Z-2.7
G0 Z5
X173.425 Y28.093
G1 Z2.7 F1000
X173.435 Y28.069 Z2.602 F333.3
X173.465 Y28.006 Z2.529
X173.515 Y27.923 Z2.5
G3 X175.095 Y28.977 Z2.396 I0.79 J0.527
X173.515 Y27.923 Z2.292 I-0.79 J-0.527
X175.095 Y28.977 Z2.187 I0.79 J0.527
X173.515 Y27.923 Z2.083 I-0.79 J-0.527
X175.095 Y28.977 Z1.979 I0.79 J0.527
X173.515 Y27.923 Z1.875 I-0.79 J-0.527
X175.095 Y28.977 Z1.77 I0.79 J0.527
X173.515 Y27.923 Z1.666 I-0.79 J-0.527
X175.095 Y28.977 Z1.562 I0.79 J0.527
X173.515 Y27.923 Z1.458 I-0.79 J-0.527
X175.095 Y28.977 Z1.354 I0.79 J0.527
X173.515 Y27.923 Z1.249 I-0.79 J-0.527
X175.095 Y28.977 Z1.145 I0.79 J0.527
X173.515 Y27.923 Z1.041 I-0.79 J-0.527
X175.095 Y28.977 Z0.937 I0.79 J0.527
X173.515 Y27.923 Z0.832 I-0.79 J-0.527
X175.095 Y28.977 Z0.728 I0.79 J0.527
X173.515 Y27.923 Z0.624 I-0.79 J-0.527
X175.095 Y28.977 Z0.52 I0.79 J0.527
X173.515 Y27.923 Z0.416 I-0.79 J-0.527
X175.095 Y28.977 Z0.311 I0.79 J0.527
X173.515 Y27.923 Z0.207 I-0.79 J-0.527
X175.095 Y28.977 Z0.103 I0.79 J0.527
X173.515 Y27.923 Z-0.001 I-0.79 J-0.527
X175.095 Y28.977 Z-0.106 I0.79 J0.527
X173.515 Y27.923 Z-0.21 I-0.79 J-0.527
X175.095 Y28.977 Z-0.314 I0.79 J0.527
X173.515 Y27.923 Z-0.418 I-0.79 J-0.527
X175.095 Y28.977 Z-0.522 I0.79 J0.527
X173.515 Y27.923 Z-0.627 I-0.79 J-0.527
X175.095 Y28.977 Z-0.731 I0.79 J0.527
X173.515 Y27.923 Z-0.835 I-0.79 J-0.527
X175.095 Y28.977 Z-0.939 I0.79 J0.527
X173.515 Y27.923 Z-1.044 I-0.79 J-0.527
X175.095 Y28.977 Z-1.148 I0.79 J0.527
X173.515 Y27.923 Z-1.252 I-0.79 J-0.527
X175.095 Y28.977 Z-1.356 I0.79 J0.527
X173.515 Y27.923 Z-1.46 I-0.79 J-0.527
X175.095 Y28.977 Z-1.565 I0.79 J0.527
X173.515 Y27.923 Z-1.669 I-0.79 J-0.527
X175.095 Y28.977 Z-1.773 I0.79 J0.527
X173.515 Y27.923 Z-1.877 I-0.79 J-0.527
X175.095 Y28.977 Z-1.982 I0.79 J0.527
X173.515 Y27.923 Z-2.086 I-0.79 J-0.527
X175.095 Y28.977 Z-2.19 I0.79 J0.527
X173.515 Y27.923 Z-2.294 I-0.79 J-0.527
X175.095 Y28.977 Z-2.398 I0.79 J0.527
X173.515 Y27.923 Z-2.503 I-0.79 J-0.527
X175.095 Y28.977 Z-2.607 I0.79 J0.527
X173.515 Y27.923 Z-2.711 I-0.79 J-0.527
X175.095 Y28.977 Z-2.815 I0.79 J0.527
X173.355 Y28.45 Z-2.9 I-0.79 J-0.527
G1 X173.362 Y28.425 F1000
X173.38 Y28.407
X173.405 Y28.4
X173.43 Y28.407
X173.448 Y28.425
X173.455 Y28.45
G3 X171.455 Y28.45 I-1 J0
X175.355 Y28.45 I1.95 J0
X169.555 Y28.45 I-2.9 J0
X175.355 Y28.45 I2.9 J0
G1 X175.349 Y28.499 Z-2.887
X175.331 Y28.546 Z-2.873
X175.31 Y28.576 Z-2.837
X175.285 Y28.602 Z-2.8
X175.263 Y28.618 Z-2.7
G0 Z5
X177.102 Y14.638
G1 Z2.5 F1000
Z-2.7 F333.3
X177.08 Y14.622 Z-2.8
X177.055 Y14.596 Z-2.837
X177.034 Y14.566 Z-2.873
X177.016 Y14.519 Z-2.887
X177.01 Y14.47 Z-2.9
G3 X178.31 Y14.47 I0.65 J0 F1000
X177.01 Y14.47 I-0.65 J0
G1 X177.016 Y14.421 Z-2.887
X177.034 Y14.374 Z-2.873
X177.055 Y14.344 Z-2.837
X177.08 Y14.318 Z-2.8
X177.102 Y14.302 Z-2.7
G0 Z5
X145.263 Y22.345
G1 Z2.7 F1000
X145.253 Y22.369 Z2.602 F333.3
X145.222 Y22.432 Z2.529
X145.173 Y22.515 Z2.5
G3 X143.592 Y21.461 Z2.396 I-0.79 J-0.527
X145.173 Y22.515 Z2.292 I0.79 J0.527
X143.592 Y21.461 Z2.187 I-0.79 J-0.527
X145.173 Y22.515 Z2.083 I0.79 J0.527
X143.592 Y21.461 Z1.979 I-0.79 J-0.527
X145.173 Y22.515 Z1.875 I0.79 J0.527
X143.592 Y21.461 Z1.77 I-0.79 J-0.527
X145.173 Y22.515 Z1.666 I0.79 J0.527
X143.592 Y21.461 Z1.562 I-0.79 J-0.527
X145.173 Y22.515 Z1.458 I0.79 J0.527
X143.592 Y21.461 Z1.354 I-0.79 J-0.527
X145.173 Y22.515 Z1.249 I0.79 J0.527
X143.592 Y21.461 Z1.145 I-0.79 J-0.527
X145.173 Y22.515 Z1.041 I0.79 J0.527
X143.592 Y21.461 Z0.937 I-0.79 J-0.527
X145.173 Y22.515 Z0.832 I0.79 J0.527
X143.592 Y21.461 Z0.728 I-0.79 J-0.527
X145.173 Y22.515 Z0.624 I0.79 J0.527
X143.592 Y21.461 Z0.52 I-0.79 J-0.527
X145.173 Y22.515 Z0.416 I0.79 J0.527
X143.592 Y21.461 Z0.311 I-0.79 J-0.527
X145.173 Y22.515 Z0.207 I0.79 J0.527
X143.592 Y21.461 Z0.103 I-0.79 J-0.527
X145.173 Y22.515 Z-0.001 I0.79 J0.527
X143.592 Y21.461 Z-0.106 I-0.79 J-0.527
X145.173 Y22.515 Z-0.21 I0.79 J0.527
X143.592 Y21.461 Z-0.314 I-0.79 J-0.527
X145.173 Y22.515 Z-0.418 I0.79 J0.527
X143.592 Y21.461 Z-0.522 I-0.79 J-0.527
X145.173 Y22.515 Z-0.627 I0.79 J0.527
X143.592 Y21.461 Z-0.731 I-0.79 J-0.527
X145.173 Y22.515 Z-0.835 I0.79 J0.527
X143.592 Y21.461 Z-0.939 I-0.79 J-0.527
X145.173 Y22.515 Z-1.044 I0.79 J0.527
X143.592 Y21.461 Z-1.148 I-0.79 J-0.527
X145.173 Y22.515 Z-1.252 I0.79 J0.527
X143.592 Y21.461 Z-1.356 I-0.79 J-0.527
X145.173 Y22.515 Z-1.46 I0.79 J0.527
X143.592 Y21.461 Z-1.565 I-0.79 J-0.527
X145.173 Y22.515 Z-1.669 I0.79 J0.527
X143.592 Y21.461 Z-1.773 I-0.79 J-0.527
X145.173 Y22.515 Z-1.877 I0.79 J0.527
X143.592 Y21.461 Z-1.982 I-0.79 J-0.527
X145.173 Y22.515 Z-2.086 I0.79 J0.527
X143.592 Y21.461 Z-2.19 I-0.79 J-0.527
X145.173 Y22.515 Z-2.294 I0.79 J0.527
X143.592 Y21.461 Z-2.398 I-0.79 J-0.527
X145.173 Y22.515 Z-2.503 I0.79 J0.527
X143.592 Y21.461 Z-2.607 I-0.79 J-0.527
X145.173 Y22.515 Z-2.711 I0.79 J0.527
X143.592 Y21.461 Z-2.815 I-0.79 J-0.527
X145.332 Y21.988 Z-2.9 I0.79 J0.527
X144.973 Y21.988 I-0.18 J0
X145.373 Y21.988 I0.2 J0 F1000
X143.073 Y21.988 I-1.15 J0
X145.373 Y21.988 I1.15 J0
G1 X145.367 Y22.037 Z-2.887
X145.349 Y22.084 Z-2.873
X145.328 Y22.114 Z-2.837
X145.303 Y22.14 Z-2.8
X145.281 Y22.156 Z-2.7
G0 Z5
X132.563 Y22.345
G1 Z2.7 F1000
X132.553 Y22.369 Z2.602 F333.3
X132.522 Y22.432 Z2.529
X132.473 Y22.515 Z2.5
G3 X130.892 Y21.461 Z2.396 I-0.79 J-0.527
X132.473 Y22.515 Z2.292 I0.79 J0.527
X130.892 Y21.461 Z2.187 I-0.79 J-0.527
X132.473 Y22.515 Z2.083 I0.79 J0.527
X130.892 Y21.461 Z1.979 I-0.79 J-0.527
X132.473 Y22.515 Z1.875 I0.79 J0.527
X130.892 Y21.461 Z1.77 I-0.79 J-0.527
X132.473 Y22.515 Z1.666 I0.79 J0.527
X130.892 Y21.461 Z1.562 I-0.79 J-0.527
X132.473 Y22.515 Z1.458 I0.79 J0.527
X130.892 Y21.461 Z1.354 I-0.79 J-0.527
X132.473 Y22.515 Z1.249 I0.79 J0.527
X130.892 Y21.461 Z1.145 I-0.79 J-0.527
X132.473 Y22.515 Z1.041 I0.79 J0.527
X130.892 Y21.461 Z0.937 I-0.79 J-0.527
X132.473 Y22.515 Z0.832 I0.79 J0.527
X130.892 Y21.461 Z0.728 I-0.79 J-0.527
X132.473 Y22.515 Z0.624 I0.79 J0.527
X130.892 Y21.461 Z0.52 I-0.79 J-0.527
X132.473 Y22.515 Z0.416 I0.79 J0.527
X130.892 Y21.461 Z0.311 I-0.79 J-0.527
X132.473 Y22.515 Z0.207 I0.79 J0.527
X130.892 Y21.461 Z0.103 I-0.79 J-0.527
X132.473 Y22.515 Z-0.001 I0.79 J0.527
X130.892 Y21.461 Z-0.106 I-0.79 J-0.527
X132.473 Y22.515 Z-0.21 I0.79 J0.527
X130.892 Y21.461 Z-0.314 I-0.79 J-0.527
X132.473 Y22.515 Z-0.418 I0.79 J0.527
X130.892 Y21.461 Z-0.522 I-0.79 J-0.527
X132.473 Y22.515 Z-0.627 I0.79 J0.527
X130.892 Y21.461 Z-0.731 I-0.79 J-0.527
X132.473 Y22.515 Z-0.835 I0.79 J0.527
X130.892 Y21.461 Z-0.939 I-0.79 J-0.527
X132.473 Y22.515 Z-1.044 I0.79 J0.527
X130.892 Y21.461 Z-1.148 I-0.79 J-0.527
X132.473 Y22.515 Z-1.252 I0.79 J0.527
X130.892 Y21.461 Z-1.356 I-0.79 J-0.527
X132.473 Y22.515 Z-1.46 I0.79 J0.527
X130.892 Y21.461 Z-1.565 I-0.79 J-0.527
X132.473 Y22.515 Z-1.669 I0.79 J0.527
X130.892 Y21.461 Z-1.773 I-0.79 J-0.527
X132.473 Y22.515 Z-1.877 I0.79 J0.527
X130.892 Y21.461 Z-1.982 I-0.79 J-0.527
X132.473 Y22.515 Z-2.086 I0.79 J0.527
X130.892 Y21.461 Z-2.19 I-0.79 J-0.527
X132.473 Y22.515 Z-2.294 I0.79 J0.527
X130.892 Y21.461 Z-2.398 I-0.79 J-0.527
X132.473 Y22.515 Z-2.503 I0.79 J0.527
X130.892 Y21.461 Z-2.607 I-0.79 J-0.527
X132.473 Y22.515 Z-2.711 I0.79 J0.527
X130.892 Y21.461 Z-2.815 I-0.79 J-0.527
X132.632 Y21.988 Z-2.9 I0.79 J0.527
X132.273 Y21.988 I-0.18 J0
X132.673 Y21.988 I0.2 J0 F1000
X130.373 Y21.988 I-1.15 J0
X132.673 Y21.988 I1.15 J0
G1 X132.667 Y22.037 Z-2.887
X132.649 Y22.084 Z-2.873
X132.628 Y22.114 Z-2.837
X132.603 Y22.14 Z-2.8
X132.581 Y22.156 Z-2.7
G0 Z5
X98.559 Y22.597
G1 Z2.7 F1000
X98.535 Y22.587 Z2.602 F333.3
X98.472 Y22.557 Z2.529
X98.389 Y22.507 Z2.5
G3 X99.443 Y20.927 Z2.396 I0.527 J-0.79
X98.389 Y22.507 Z2.292 I-0.527 J0.79
X99.443 Y20.927 Z2.187 I0.527 J-0.79
X98.389 Y22.507 Z2.083 I-0.527 J0.79
X99.443 Y20.927 Z1.979 I0.527 J-0.79
X98.389 Y22.507 Z1.875 I-0.527 J0.79
X99.443 Y20.927 Z1.77 I0.527 J-0.79
X98.389 Y22.507 Z1.666 I-0.527 J0.79
X99.443 Y20.927 Z1.562 I0.527 J-0.79
X98.389 Y22.507 Z1.458 I-0.527 J0.79
X99.443 Y20.927 Z1.354 I0.527 J-0.79
X98.389 Y22.507 Z1.249 I-0.527 J0.79
X99.443 Y20.927 Z1.145 I0.527 J-0.79
X98.389 Y22.507 Z1.041 I-0.527 J0.79
X99.443 Y20.927 Z0.937 I0.527 J-0.79
X98.389 Y22.507 Z0.832 I-0.527 J0.79
X99.443 Y20.927 Z0.728 I0.527 J-0.79
X98.389 Y22.507 Z0.624 I-0.527 J0.79
X99.443 Y20.927 Z0.52 I0.527 J-0.79
X98.389 Y22.507 Z0.416 I-0.527 J0.79
X99.443 Y20.927 Z0.311 I0.527 J-0.79
X98.389 Y22.507 Z0.207 I-0.527 J0.79
X99.443 Y20.927 Z0.103 I0.527 J-0.79
X98.389 Y22.507 Z-0.001 I-0.527 J0.79
X99.443 Y20.927 Z-0.106 I0.527 J-0.79
X98.389 Y22.507 Z-0.21 I-0.527 J0.79
X99.443 Y20.927 Z-0.314 I0.527 J-0.79
X98.389 Y22.507 Z-0.418 I-0.527 J0.79
X99.443 Y20.927 Z-0.522 I0.527 J-0.79
X98.389 Y22.507 Z-0.627 I-0.527 J0.79
X99.443 Y20.927 Z-0.731 I0.527 J-0.79
X98.389 Y22.507 Z-0.835 I-0.527 J0.79
X99.443 Y20.927 Z-0.939 I0.527 J-0.79
X98.389 Y22.507 Z-1.044 I-0.527 J0.79
X99.443 Y20.927 Z-1.148 I0.527 J-0.79
X98.389 Y22.507 Z-1.252 I-0.527 J0.79
X99.443 Y20.927 Z-1.356 I0.527 J-0.79
X98.389 Y22.507 Z-1.46 I-0.527 J0.79
X99.443 Y20.927 Z-1.565 I0.527 J-0.79
X98.389 Y22.507 Z-1.669 I-0.527 J0.79
X99.443 Y20.927 Z-1.773 I0.527 J-0.79
X98.389 Y22.507 Z-1.877 I-0.527 J0.79
X99.443 Y20.927 Z-1.982 I0.527 J-0.79
X98.389 Y22.507 Z-2.086 I-0.527 J0.79
X99.443 Y20.927 Z-2.19 I0.527 J-0.79
X98.389 Y22.507 Z-2.294 I-0.527 J0.79
X99.443 Y20.927 Z-2.398 I0.527 J-0.79
X98.389 Y22.507 Z-2.503 I-0.527 J0.79
X99.443 Y20.927 Z-2.607 I0.527 J-0.79
X98.389 Y22.507 Z-2.711 I-0.527 J0.79
X99.443 Y20.927 Z-2.815 I0.527 J-0.79
X98.916 Y22.667 Z-2.9 I-0.527 J0.79
G1 X80.636 F1000
G3 X80.636 Y21.513 I0 J-0.577
G1 X98.916
G3 X98.916 Y22.667 I0 J0.577
G2 X97.924 Y23.329 I0 J1.075
G3 X96.932 Y23.99 I-0.992 J-0.413
G1 X80.636
G3 X80.636 Y20.19 I0 J-1.9
G1 X98.916
G3 X98.916 Y23.99 I0 J1.9
G1 X96.932
X96.882 Y23.984 Z-2.887
X96.836 Y23.966 Z-2.873
X96.805 Y23.945 Z-2.837
X96.779 Y23.92 Z-2.8
X96.763 Y23.898 Z-2.7
G0 Z5
X68.079 Y22.597
G1 Z2.7 F1000
X68.055 Y22.587 Z2.602 F333.3
X67.992 Y22.557 Z2.529
X67.909 Y22.507 Z2.5
G3 X68.963 Y20.927 Z2.396 I0.527 J-0.79
X67.909 Y22.507 Z2.292 I-0.527 J0.79
X68.963 Y20.927 Z2.187 I0.527 J-0.79
X67.909 Y22.507 Z2.083 I-0.527 J0.79
X68.963 Y20.927 Z1.979 I0.527 J-0.79
X67.909 Y22.507 Z1.875 I-0.527 J0.79
X68.963 Y20.927 Z1.77 I0.527 J-0.79
X67.909 Y22.507 Z1.666 I-0.527 J0.79
X68.963 Y20.927 Z1.562 I0.527 J-0.79
X67.909 Y22.507 Z1.458 I-0.527 J0.79
X68.963 Y20.927 Z1.354 I0.527 J-0.79
X67.909 Y22.507 Z1.249 I-0.527 J0.79
X68.963 Y20.927 Z1.145 I0.527 J-0.79
X67.909 Y22.507 Z1.041 I-0.527 J0.79
X68.963 Y20.927 Z0.937 I0.527 J-0.79
X67.909 Y22.507 Z0.832 I-0.527 J0.79
X68.963 Y20.927 Z0.728 I0.527 J-0.79
X67.909 Y22.507 Z0.624 I-0.527 J0.79
X68.963 Y20.927 Z0.52 I0.527 J-0.79
X67.909 Y22.507 Z0.416 I-0.527 J0.79
X68.963 Y20.927 Z0.311 I0.527 J-0.79
X67.909 Y22.507 Z0.207 I-0.527 J0.79
X68.963 Y20.927 Z0.103 I0.527 J-0.79
X67.909 Y22.507 Z-0.001 I-0.527 J0.79
X68.963 Y20.927 Z-0.106 I0.527 J-0.79
X67.909 Y22.507 Z-0.21 I-0.527 J0.79
X68.963 Y20.927 Z-0.314 I0.527 J-0.79
X67.909 Y22.507 Z-0.418 I-0.527 J0.79
X68.963 Y20.927 Z-0.522 I0.527 J-0.79
X67.909 Y22.507 Z-0.627 I-0.527 J0.79
X68.963 Y20.927 Z-0.731 I0.527 J-0.79
X67.909 Y22.507 Z-0.835 I-0.527 J0.79
X68.963 Y20.927 Z-0.939 I0.527 J-0.79
X67.909 Y22.507 Z-1.044 I-0.527 J0.79
X68.963 Y20.927 Z-1.148 I0.527 J-0.79
X67.909 Y22.507 Z-1.252 I-0.527 J0.79
X68.963 Y20.927 Z-1.356 I0.527 J-0.79
X67.909 Y22.507 Z-1.46 I-0.527 J0.79
X68.963 Y20.927 Z-1.565 I0.527 J-0.79
X67.909 Y22.507 Z-1.669 I-0.527 J0.79
X68.963 Y20.927 Z-1.773 I0.527 J-0.79
X67.909 Y22.507 Z-1.877 I-0.527 J0.79
X68.963 Y20.927 Z-1.982 I0.527 J-0.79
X67.909 Y22.507 Z-2.086 I-0.527 J0.79
X68.963 Y20.927 Z-2.19 I0.527 J-0.79
X67.909 Y22.507 Z-2.294 I-0.527 J0.79
X68.963 Y20.927 Z-2.398 I0.527 J-0.79
X67.909 Y22.507 Z-2.503 I-0.527 J0.79
X68.963 Y20.927 Z-2.607 I0.527 J-0.79
X67.909 Y22.507 Z-2.711 I-0.527 J0.79
X68.963 Y20.927 Z-2.815 I0.527 J-0.79
X68.436 Y22.667 Z-2.9 I-0.527 J0.79
G1 X50.156 F1000
G3 X50.156 Y21.513 I0 J-0.577
G1 X68.436
G3 X68.436 Y22.667 I0 J0.577
G2 X67.444 Y23.329 I0 J1.075
G3 X66.451 Y23.99 I-0.992 J-0.413
G1 X50.156
G3 X50.156 Y20.19 I0 J-1.9
G1 X68.436
G3 X68.436 Y23.99 I0 J1.9
G1 X66.451
X66.402 Y23.984 Z-2.887
X66.356 Y23.966 Z-2.873
X66.325 Y23.945 Z-2.837
X66.299 Y23.92 Z-2.8
X66.283 Y23.898 Z-2.7
G0 Z5
X41.794 Y25.137
G1 Z2.7 F1000
X41.77 Y25.127 Z2.602 F333.3
X41.707 Y25.097 Z2.529
X41.624 Y25.047 Z2.5
G3 X42.678 Y23.467 Z2.396 I0.527 J-0.79
X41.624 Y25.047 Z2.292 I-0.527 J0.79
X42.678 Y23.467 Z2.187 I0.527 J-0.79
X41.624 Y25.047 Z2.083 I-0.527 J0.79
X42.678 Y23.467 Z1.979 I0.527 J-0.79
X41.624 Y25.047 Z1.875 I-0.527 J0.79
X42.678 Y23.467 Z1.77 I0.527 J-0.79
X41.624 Y25.047 Z1.666 I-0.527 J0.79
X42.678 Y23.467 Z1.562 I0.527 J-0.79
X41.624 Y25.047 Z1.458 I-0.527 J0.79
X42.678 Y23.467 Z1.354 I0.527 J-0.79
X41.624 Y25.047 Z1.249 I-0.527 J0.79
X42.678 Y23.467 Z1.145 I0.527 J-0.79
X41.624 Y25.047 Z1.041 I-0.527 J0.79
X42.678 Y23.467 Z0.937 I0.527 J-0.79
X41.624 Y25.047 Z0.832 I-0.527 J0.79
X42.678 Y23.467 Z0.728 I0.527 J-0.79
X41.624 Y25.047 Z0.624 I-0.527 J0.79
X42.678 Y23.467 Z0.52 I0.527 J-0.79
X41.624 Y25.047 Z0.416 I-0.527 J0.79
X42.678 Y23.467 Z0.311 I0.527 J-0.79
X41.624 Y25.047 Z0.207 I-0.527 J0.79
X42.678 Y23.467 Z0.103 I0.527 J-0.79
X41.624 Y25.047 Z-0.001 I-0.527 J0.79
X42.678 Y23.467 Z-0.106 I0.527 J-0.79
X41.624 Y25.047 Z-0.21 I-0.527 J0.79
X42.678 Y23.467 Z-0.314 I0.527 J-0.79
X41.624 Y25.047 Z-0.418 I-0.527 J0.79
X42.678 Y23.467 Z-0.522 I0.527 J-0.79
X41.624 Y25.047 Z-0.627 I-0.527 J0.79
X42.678 Y23.467 Z-0.731 I0.527 J-0.79
X41.624 Y25.047 Z-0.835 I-0.527 J0.79
X42.678 Y23.467 Z-0.939 I0.527 J-0.79
X41.624 Y25.047 Z-1.044 I-0.527 J0.79
X42.678 Y23.467 Z-1.148 I0.527 J-0.79
X41.624 Y25.047 Z-1.252 I-0.527 J0.79
X42.678 Y23.467 Z-1.356 I0.527 J-0.79
X41.624 Y25.047 Z-1.46 I-0.527 J0.79
X42.678 Y23.467 Z-1.565 I0.527 J-0.79
X41.624 Y25.047 Z-1.669 I-0.527 J0.79
X42.678 Y23.467 Z-1.773 I0.527 J-0.79
X41.624 Y25.047 Z-1.877 I-0.527 J0.79
X42.678 Y23.467 Z-1.982 I0.527 J-0.79
X41.624 Y25.047 Z-2.086 I-0.527 J0.79
X42.678 Y23.467 Z-2.19 I0.527 J-0.79
X41.624 Y25.047 Z-2.294 I-0.527 J0.79
X42.678 Y23.467 Z-2.398 I0.527 J-0.79
X41.624 Y25.047 Z-2.503 I-0.527 J0.79
X42.678 Y23.467 Z-2.607 I0.527 J-0.79
X41.624 Y25.047 Z-2.711 I-0.527 J0.79
X42.678 Y23.467 Z-2.815 I0.527 J-0.79
X42.151 Y25.207 Z-2.9 I-0.527 J0.79
X41.574 Y24.63 I0 J-0.577 F1000
G1 Y19.55
G3 X42.728 Y19.55 I0.577 J0
G1 Y24.63
G3 X42.151 Y25.207 I-0.577 J0
G2 X41.38 Y25.615 I0 J0.932
G3 X40.508 Y25.584 I-0.426 J-0.29
X40.251 Y24.63 I1.643 J-0.954
G1 Y19.55
G3 X44.051 Y19.55 I1.9 J0
G1 Y24.63
G3 X40.508 Y25.584 I-1.9 J0
G1 X40.489 Y25.539 Z-2.887
X40.481 Y25.489 Z-2.873
X40.484 Y25.453 Z-2.837
X40.493 Y25.417 Z-2.8
X40.503 Y25.393 Z-2.7
G0 Z5
X30.508 Y15.028
G1 Z2.5 F1000
Z-2.7 F333.3
X30.492 Y15.05 Z-2.8
X30.466 Y15.075 Z-2.837
X30.436 Y15.096 Z-2.873
X30.389 Y15.114 Z-2.887
X30.34 Y15.12 Z-2.9
G3 X30.34 Y13.82 I0 J-0.65 F1000
X30.34 Y15.12 I0 J0.65
G1 X30.291 Y15.114 Z-2.887
X30.244 Y15.096 Z-2.873
X30.214 Y15.075 Z-2.837
X30.188 Y15.05 Z-2.8
X30.172 Y15.028 Z-2.7
G0 Z5
X38.723 Y40.783
G1 Z2.7 F1000
X38.733 Y40.759 Z2.602 F333.3
X38.763 Y40.696 Z2.529
X38.813 Y40.613 Z2.5
G3 X40.393 Y41.667 Z2.396 I0.79 J0.527
X38.813 Y40.613 Z2.292 I-0.79 J-0.527
X40.393 Y41.667 Z2.187 I0.79 J0.527
X38.813 Y40.613 Z2.083 I-0.79 J-0.527
X40.393 Y41.667 Z1.979 I0.79 J0.527
X38.813 Y40.613 Z1.875 I-0.79 J-0.527
X40.393 Y41.667 Z1.77 I0.79 J0.527
X38.813 Y40.613 Z1.666 I-0.79 J-0.527
X40.393 Y41.667 Z1.562 I0.79 J0.527
X38.813 Y40.613 Z1.458 I-0.79 J-0.527
X40.393 Y41.667 Z1.354 I0.79 J0.527
X38.813 Y40.613 Z1.249 I-0.79 J-0.527
X40.393 Y41.667 Z1.145 I0.79 J0.527
X38.813 Y40.613 Z1.041 I-0.79 J-0.527
X40.393 Y41.667 Z0.937 I0.79 J0.527
X38.813 Y40.613 Z0.832 I-0.79 J-0.527
X40.393 Y41.667 Z0.728 I0.79 J0.527
X38.813 Y40.613 Z0.624 I-0.79 J-0.527
X40.393 Y41.667 Z0.52 I0.79 J0.527
X38.813 Y40.613 Z0.416 I-0.79 J-0.527
X40.393 Y41.667 Z0.311 I0.79 J0.527
X38.813 Y40.613 Z0.207 I-0.79 J-0.527
X40.393 Y41.667 Z0.103 I0.79 J0.527
X38.813 Y40.613 Z-0.001 I-0.79 J-0.527
X40.393 Y41.667 Z-0.106 I0.79 J0.527
X38.813 Y40.613 Z-0.21 I-0.79 J-0.527
X40.393 Y41.667 Z-0.314 I0.79 J0.527
X38.813 Y40.613 Z-0.418 I-0.79 J-0.527
X40.393 Y41.667 Z-0.522 I0.79 J0.527
X38.813 Y40.613 Z-0.627 I-0.79 J-0.527
X40.393 Y41.667 Z-0.731 I0.79 J0.527
X38.813 Y40.613 Z-0.835 I-0.79 J-0.527
X40.393 Y41.667 Z-0.939 I0.79 J0.527
X38.813 Y40.613 Z-1.044 I-0.79 J-0.527
X40.393 Y41.667 Z-1.148 I0.79 J0.527
X38.813 Y40.613 Z-1.252 I-0.79 J-0.527
X40.393 Y41.667 Z-1.356 I0.79 J0.527
X38.813 Y40.613 Z-1.46 I-0.79 J-0.527
X40.393 Y41.667 Z-1.565 I0.79 J0.527
X38.813 Y40.613 Z-1.669 I-0.79 J-0.527
X40.393 Y41.667 Z-1.773 I0.79 J0.527
X38.813 Y40.613 Z-1.877 I-0.79 J-0.527
X40.393 Y41.667 Z-1.982 I0.79 J0.527
X38.813 Y40.613 Z-2.086 I-0.79 J-0.527
X40.393 Y41.667 Z-2.19 I0.79 J0.527
X38.813 Y40.613 Z-2.294 I-0.79 J-0.527
X40.393 Y41.667 Z-2.398 I0.79 J0.527
X38.813 Y40.613 Z-2.503 I-0.79 J-0.527
X40.393 Y41.667 Z-2.607 I0.79 J0.527
X38.813 Y40.613 Z-2.711 I-0.79 J-0.527
X40.393 Y41.667 Z-2.815 I0.79 J0.527
X38.653 Y41.14 Z-2.9 I-0.79 J-0.527
G1 Y36.06 F1000
G3 X39.807 Y36.06 I0.577 J0
G1 Y41.14
G3 X38.653 Y41.14 I-0.577 J0
G2 X37.992 Y40.148 I-1.075 J0
G3 X37.33 Y39.155 I0.413 J-0.992
G1 Y36.06
G3 X41.13 Y36.06 I1.9 J0
G1 Y41.14
G3 X37.33 Y41.14 I-1.9 J0
G1 Y39.155
X37.336 Y39.106 Z-2.887
X37.354 Y39.06 Z-2.873
X37.375 Y39.029 Z-2.837
X37.4 Y39.003 Z-2.8
X37.422 Y38.987 Z-2.7
G0 Z5
X30.032 Y69.248
G1 Z2.5 F1000
Z-2.7 F333.3
X30.01 Y69.232 Z-2.8
X29.985 Y69.206 Z-2.837
X29.964 Y69.176 Z-2.873
X29.946 Y69.129 Z-2.887
X29.94 Y69.08 Z-2.9
G3 X30.74 Y69.08 I0.4 J0 F1000
X29.94 Y69.08 I-0.4 J0
G1 X29.946 Y69.031 Z-2.887
X29.964 Y68.984 Z-2.873
X29.985 Y68.954 Z-2.837
X30.01 Y68.928 Z-2.8
X30.032 Y68.912 Z-2.7
G0 Z5
X68.079 Y63.237
G1 Z2.7 F1000
X68.055 Y63.227 Z2.602 F333.3
X67.992 Y63.197 Z2.529
X67.909 Y63.147 Z2.5
G3 X68.963 Y61.567 Z2.396 I0.527 J-0.79
X67.909 Y63.147 Z2.292 I-0.527 J0.79
X68.963 Y61.567 Z2.187 I0.527 J-0.79
X67.909 Y63.147 Z2.083 I-0.527 J0.79
X68.963 Y61.567 Z1.979 I0.527 J-0.79
X67.909 Y63.147 Z1.875 I-0.527 J0.79
X68.963 Y61.567 Z1.77 I0.527 J-0.79
X67.909 Y63.147 Z1.666 I-0.527 J0.79
X68.963 Y61.567 Z1.562 I0.527 J-0.79
X67.909 Y63.147 Z1.458 I-0.527 J0.79
X68.963 Y61.567 Z1.354 I0.527 J-0.79
X67.909 Y63.147 Z1.249 I-0.527 J0.79
X68.963 Y61.567 Z1.145 I0.527 J-0.79
X67.909 Y63.147 Z1.041 I-0.527 J0.79
X68.963 Y61.567 Z0.937 I0.527 J-0.79
X67.909 Y63.147 Z0.832 I-0.527 J0.79
X68.963 Y61.567 Z0.728 I0.527 J-0.79
X67.909 Y63.147 Z0.624 I-0.527 J0.79
X68.963 Y61.567 Z0.52 I0.527 J-0.79
X67.909 Y63.147 Z0.416 I-0.527 J0.79
X68.963 Y61.567 Z0.311 I0.527 J-0.79
X67.909 Y63.147 Z0.207 I-0.527 J0.79
X68.963 Y61.567 Z0.103 I0.527 J-0.79
X67.909 Y63.147 Z-0.001 I-0.527 J0.79
X68.963 Y61.567 Z-0.106 I0.527 J-0.79
X67.909 Y63.147 Z-0.21 I-0.527 J0.79
X68.963 Y61.567 Z-0.314 I0.527 J-0.79
X67.909 Y63.147 Z-0.418 I-0.527 J0.79
X68.963 Y61.567 Z-0.522 I0.527 J-0.79
X67.909 Y63.147 Z-0.627 I-0.527 J0.79
X68.963 Y61.567 Z-0.731 I0.527 J-0.79
X67.909 Y63.147 Z-0.835 I-0.527 J0.79
X68.963 Y61.567 Z-0.939 I0.527 J-0.79
X67.909 Y63.147 Z-1.044 I-0.527 J0.79
X68.963 Y61.567 Z-1.148 I0.527 J-0.79
X67.909 Y63.147 Z-1.252 I-0.527 J0.79
X68.963 Y61.567 Z-1.356 I0.527 J-0.79
X67.909 Y63.147 Z-1.46 I-0.527 J0.79
X68.963 Y61.567 Z-1.565 I0.527 J-0.79
X67.909 Y63.147 Z-1.669 I-0.527 J0.79
X68.963 Y61.567 Z-1.773 I0.527 J-0.79
X67.909 Y63.147 Z-1.877 I-0.527 J0.79
X68.963 Y61.567 Z-1.982 I0.527 J-0.79
X67.909 Y63.147 Z-2.086 I-0.527 J0.79
X68.963 Y61.567 Z-2.19 I0.527 J-0.79
X67.909 Y63.147 Z-2.294 I-0.527 J0.79
X68.963 Y61.567 Z-2.398 I0.527 J-0.79
X67.909 Y63.147 Z-2.503 I-0.527 J0.79
X68.963 Y61.567 Z-2.607 I0.527 J-0.79
X67.909 Y63.147 Z-2.711 I-0.527 J0.79
X68.963 Y61.567 Z-2.815 I0.527 J-0.79
X68.436 Y63.307 Z-2.9 I-0.527 J0.79
G1 X50.156 F1000
G3 X50.156 Y62.153 I0 J-0.577
G1 X68.436
G3 X68.436 Y63.307 I0 J0.577
G2 X67.444 Y63.968 I0 J1.075
G3 X66.451 Y64.63 I-0.992 J-0.413
G1 X50.156
G3 X50.156 Y60.83 I0 J-1.9
G1 X68.436
G3 X68.436 Y64.63 I0 J1.9
G1 X66.451
X66.402 Y64.624 Z-2.887
X66.356 Y64.606 Z-2.873
X66.325 Y64.585 Z-2.837
X66.299 Y64.56 Z-2.8
X66.283 Y64.538 Z-2.7
G0 Z15
M9
G28 G91 Z0
G90
G28 G91 X0 Y0
G90
M5
M30
