(1001)
(NoFaltaNingunHollo)
(T2  D=2 CR=0 - ZMIN=-2.9 - flat end mill)
G90 G94
G17
G21
G28 G91 Z0
G90

(FaltaUnHollo)
T2 M6
S5000 M3
G54
M8
G0 X107.368 Y37.436
Z15
Z3
G1 Z1.2 F1000
X107.347 Y37.423 Z1.102 F333.3
X107.29 Y37.382 Z1.029
X107.216 Y37.318 Z1
G3 X108.465 Y36.022 Z0.901 I0.624 J-0.648
X107.216 Y37.318 Z0.803 I-0.624 J0.648
X108.465 Y36.022 Z0.704 I0.624 J-0.648
X107.216 Y37.318 Z0.605 I-0.624 J0.648
X108.465 Y36.022 Z0.506 I0.624 J-0.648
X107.216 Y37.318 Z0.408 I-0.624 J0.648
X108.465 Y36.022 Z0.309 I0.624 J-0.648
X107.216 Y37.318 Z0.21 I-0.624 J0.648
X108.465 Y36.022 Z0.111 I0.624 J-0.648
X107.216 Y37.318 Z0.013 I-0.624 J0.648
X108.465 Y36.022 Z-0.086 I0.624 J-0.648
X107.216 Y37.318 Z-0.185 I-0.624 J0.648
X108.465 Y36.022 Z-0.284 I0.624 J-0.648
X107.216 Y37.318 Z-0.382 I-0.624 J0.648
X108.465 Y36.022 Z-0.481 I0.624 J-0.648
X107.216 Y37.318 Z-0.58 I-0.624 J0.648
X108.465 Y36.022 Z-0.679 I0.624 J-0.648
X107.216 Y37.318 Z-0.777 I-0.624 J0.648
X108.465 Y36.022 Z-0.876 I0.624 J-0.648
X107.216 Y37.318 Z-0.975 I-0.624 J0.648
X106.94 Y36.67 Z-1 I0.624 J-0.648
X108.178 Y36.67 I0.619 J0
X107.878 Y36.67 I-0.15 J0 F1000
X109.178 Y36.67 I0.65 J0
X106.878 Y36.67 I-1.15 J0
X109.178 Y36.67 I1.15 J0
G1 X109.172 Y36.719 Z-0.987
X109.154 Y36.766 Z-0.973
X109.133 Y36.796 Z-0.937
X109.108 Y36.822 Z-0.9
X109.086 Y36.838 Z-0.8
G0 Z5
X107.368 Y37.436
Z3
G1 Z0.2 F1000
X107.347 Y37.423 Z0.102 F333.3
X107.29 Y37.382 Z0.029
X107.216 Y37.318 Z0
G3 X108.465 Y36.022 Z-0.099 I0.624 J-0.648
X107.216 Y37.318 Z-0.197 I-0.624 J0.648
X108.465 Y36.022 Z-0.296 I0.624 J-0.648
X107.216 Y37.318 Z-0.395 I-0.624 J0.648
X108.465 Y36.022 Z-0.494 I0.624 J-0.648
X107.216 Y37.318 Z-0.592 I-0.624 J0.648
X108.465 Y36.022 Z-0.691 I0.624 J-0.648
X107.216 Y37.318 Z-0.79 I-0.624 J0.648
X108.465 Y36.022 Z-0.889 I0.624 J-0.648
X107.216 Y37.318 Z-0.987 I-0.624 J0.648
X108.465 Y36.022 Z-1.086 I0.624 J-0.648
X107.216 Y37.318 Z-1.185 I-0.624 J0.648
X108.465 Y36.022 Z-1.284 I0.624 J-0.648
X107.216 Y37.318 Z-1.382 I-0.624 J0.648
X108.465 Y36.022 Z-1.481 I0.624 J-0.648
X107.216 Y37.318 Z-1.58 I-0.624 J0.648
X108.465 Y36.022 Z-1.679 I0.624 J-0.648
X107.216 Y37.318 Z-1.777 I-0.624 J0.648
X108.465 Y36.022 Z-1.876 I0.624 J-0.648
X107.216 Y37.318 Z-1.975 I-0.624 J0.648
X106.94 Y36.67 Z-2 I0.624 J-0.648
X108.178 Y36.67 I0.619 J0
X107.878 Y36.67 I-0.15 J0 F1000
X109.178 Y36.67 I0.65 J0
X106.878 Y36.67 I-1.15 J0
X109.178 Y36.67 I1.15 J0
G1 X109.172 Y36.719 Z-1.987
X109.154 Y36.766 Z-1.973
X109.133 Y36.796 Z-1.937
X109.108 Y36.822 Z-1.9
X109.086 Y36.838 Z-1.8
G0 Z5
X108.343 Y35.923
Z3
G1 Z-0.8 F1000
X108.353 Y35.93 Z-0.868 F333.3
X108.381 Y35.95 Z-0.928
X108.432 Y35.991 Z-0.98
X108.49 Y36.047 Z-1
G3 X107.191 Y37.293 Z-1.099 I-0.65 J0.623
X108.49 Y36.047 Z-1.197 I0.65 J-0.623
X107.191 Y37.293 Z-1.296 I-0.65 J0.623
X108.49 Y36.047 Z-1.395 I0.65 J-0.623
X107.191 Y37.293 Z-1.494 I-0.65 J0.623
X108.49 Y36.047 Z-1.592 I0.65 J-0.623
X107.191 Y37.293 Z-1.691 I-0.65 J0.623
X108.49 Y36.047 Z-1.79 I0.65 J-0.623
X107.191 Y37.293 Z-1.889 I-0.65 J0.623
X108.49 Y36.047 Z-1.987 I0.65 J-0.623
X107.191 Y37.293 Z-2.086 I-0.65 J0.623
X108.49 Y36.047 Z-2.185 I0.65 J-0.623
X107.191 Y37.293 Z-2.284 I-0.65 J0.623
X108.49 Y36.047 Z-2.382 I0.65 J-0.623
X107.191 Y37.293 Z-2.481 I-0.65 J0.623
X108.49 Y36.047 Z-2.58 I0.65 J-0.623
X107.191 Y37.293 Z-2.679 I-0.65 J0.623
X108.49 Y36.047 Z-2.777 I0.65 J-0.623
X107.191 Y37.293 Z-2.876 I-0.65 J0.623
X106.94 Y36.67 Z-2.9 I0.65 J-0.623
X108.178 Y36.67 I0.619 J0
X107.878 Y36.67 I-0.15 J0 F1000
X109.178 Y36.67 I0.65 J0
X106.878 Y36.67 I-1.15 J0
X109.178 Y36.67 I1.15 J0
G1 X109.172 Y36.719 Z-2.887
X109.154 Y36.766 Z-2.873
X109.133 Y36.796 Z-2.837
X109.108 Y36.822 Z-2.8
X109.086 Y36.838 Z-2.7
G0 Z5
X107.368 Y48.843
Z3
G1 Z1.2 F1000
X107.347 Y48.83 Z1.102 F333.3
X107.29 Y48.789 Z1.029
X107.216 Y48.725 Z1
G3 X108.465 Y47.429 Z0.901 I0.624 J-0.648
X107.216 Y48.725 Z0.803 I-0.624 J0.648
X108.465 Y47.429 Z0.704 I0.624 J-0.648
X107.216 Y48.725 Z0.605 I-0.624 J0.648
X108.465 Y47.429 Z0.506 I0.624 J-0.648
X107.216 Y48.725 Z0.408 I-0.624 J0.648
X108.465 Y47.429 Z0.309 I0.624 J-0.648
X107.216 Y48.725 Z0.21 I-0.624 J0.648
X108.465 Y47.429 Z0.111 I0.624 J-0.648
X107.216 Y48.725 Z0.013 I-0.624 J0.648
X108.465 Y47.429 Z-0.086 I0.624 J-0.648
X107.216 Y48.725 Z-0.185 I-0.624 J0.648
X108.465 Y47.429 Z-0.284 I0.624 J-0.648
X107.216 Y48.725 Z-0.382 I-0.624 J0.648
X108.465 Y47.429 Z-0.481 I0.624 J-0.648
X107.216 Y48.725 Z-0.58 I-0.624 J0.648
X108.465 Y47.429 Z-0.679 I0.624 J-0.648
X107.216 Y48.725 Z-0.777 I-0.624 J0.648
X108.465 Y47.429 Z-0.876 I0.624 J-0.648
X107.216 Y48.725 Z-0.975 I-0.624 J0.648
X106.94 Y48.077 Z-1 I0.624 J-0.648
X108.178 Y48.077 I0.619 J0
X107.878 Y48.077 I-0.15 J0 F1000
X109.178 Y48.077 I0.65 J0
X106.878 Y48.077 I-1.15 J0
X109.178 Y48.077 I1.15 J0
G1 X109.172 Y48.126 Z-0.987
X109.154 Y48.173 Z-0.973
X109.133 Y48.203 Z-0.937
X109.108 Y48.229 Z-0.9
X109.086 Y48.245 Z-0.8
G0 Z5
X107.368 Y48.843
Z3
G1 Z0.2 F1000
X107.347 Y48.83 Z0.102 F333.3
X107.29 Y48.789 Z0.029
X107.216 Y48.725 Z0
G3 X108.465 Y47.429 Z-0.099 I0.624 J-0.648
X107.216 Y48.725 Z-0.197 I-0.624 J0.648
X108.465 Y47.429 Z-0.296 I0.624 J-0.648
X107.216 Y48.725 Z-0.395 I-0.624 J0.648
X108.465 Y47.429 Z-0.494 I0.624 J-0.648
X107.216 Y48.725 Z-0.592 I-0.624 J0.648
X108.465 Y47.429 Z-0.691 I0.624 J-0.648
X107.216 Y48.725 Z-0.79 I-0.624 J0.648
X108.465 Y47.429 Z-0.889 I0.624 J-0.648
X107.216 Y48.725 Z-0.987 I-0.624 J0.648
X108.465 Y47.429 Z-1.086 I0.624 J-0.648
X107.216 Y48.725 Z-1.185 I-0.624 J0.648
X108.465 Y47.429 Z-1.284 I0.624 J-0.648
X107.216 Y48.725 Z-1.382 I-0.624 J0.648
X108.465 Y47.429 Z-1.481 I0.624 J-0.648
X107.216 Y48.725 Z-1.58 I-0.624 J0.648
X108.465 Y47.429 Z-1.679 I0.624 J-0.648
X107.216 Y48.725 Z-1.777 I-0.624 J0.648
X108.465 Y47.429 Z-1.876 I0.624 J-0.648
X107.216 Y48.725 Z-1.975 I-0.624 J0.648
X106.94 Y48.077 Z-2 I0.624 J-0.648
X108.178 Y48.077 I0.619 J0
X107.878 Y48.077 I-0.15 J0 F1000
X109.178 Y48.077 I0.65 J0
X106.878 Y48.077 I-1.15 J0
X109.178 Y48.077 I1.15 J0
G1 X109.172 Y48.126 Z-1.987
X109.154 Y48.173 Z-1.973
X109.133 Y48.203 Z-1.937
X109.108 Y48.229 Z-1.9
X109.086 Y48.245 Z-1.8
G0 Z5
X108.343 Y47.33
Z3
G1 Z-0.8 F1000
X108.353 Y47.337 Z-0.868 F333.3
X108.381 Y47.357 Z-0.928
X108.432 Y47.398 Z-0.98
X108.49 Y47.454 Z-1
G3 X107.191 Y48.7 Z-1.099 I-0.65 J0.623
X108.49 Y47.454 Z-1.197 I0.65 J-0.623
X107.191 Y48.7 Z-1.296 I-0.65 J0.623
X108.49 Y47.454 Z-1.395 I0.65 J-0.623
X107.191 Y48.7 Z-1.494 I-0.65 J0.623
X108.49 Y47.454 Z-1.592 I0.65 J-0.623
X107.191 Y48.7 Z-1.691 I-0.65 J0.623
X108.49 Y47.454 Z-1.79 I0.65 J-0.623
X107.191 Y48.7 Z-1.889 I-0.65 J0.623
X108.49 Y47.454 Z-1.987 I0.65 J-0.623
X107.191 Y48.7 Z-2.086 I-0.65 J0.623
X108.49 Y47.454 Z-2.185 I0.65 J-0.623
X107.191 Y48.7 Z-2.284 I-0.65 J0.623
X108.49 Y47.454 Z-2.382 I0.65 J-0.623
X107.191 Y48.7 Z-2.481 I-0.65 J0.623
X108.49 Y47.454 Z-2.58 I0.65 J-0.623
X107.191 Y48.7 Z-2.679 I-0.65 J0.623
X108.49 Y47.454 Z-2.777 I0.65 J-0.623
X107.191 Y48.7 Z-2.876 I-0.65 J0.623
X106.94 Y48.077 Z-2.9 I0.65 J-0.623
X108.178 Y48.077 I0.619 J0
X107.878 Y48.077 I-0.15 J0 F1000
X109.178 Y48.077 I0.65 J0
X106.878 Y48.077 I-1.15 J0
X109.178 Y48.077 I1.15 J0
G1 X109.172 Y48.126 Z-2.887
X109.154 Y48.173 Z-2.873
X109.133 Y48.203 Z-2.837
X109.108 Y48.229 Z-2.8
X109.086 Y48.245 Z-2.7
G0 Z5
X98.15 Y62.878
Z3
G1 Z1.2 F1000
X98.163 Y62.856 Z1.102 F333.3
X98.204 Y62.799 Z1.029
X98.268 Y62.726 Z1
G3 X99.564 Y63.974 Z0.901 I0.648 J0.624
X98.268 Y62.726 Z0.803 I-0.648 J-0.624
X99.564 Y63.974 Z0.704 I0.648 J0.624
X98.268 Y62.726 Z0.605 I-0.648 J-0.624
X99.564 Y63.974 Z0.506 I0.648 J0.624
X98.268 Y62.726 Z0.408 I-0.648 J-0.624
X99.564 Y63.974 Z0.309 I0.648 J0.624
X98.268 Y62.726 Z0.21 I-0.648 J-0.624
X99.564 Y63.974 Z0.111 I0.648 J0.624
X98.268 Y62.726 Z0.013 I-0.648 J-0.624
X99.564 Y63.974 Z-0.086 I0.648 J0.624
X98.268 Y62.726 Z-0.185 I-0.648 J-0.624
X99.564 Y63.974 Z-0.284 I0.648 J0.624
X98.268 Y62.726 Z-0.382 I-0.648 J-0.624
X99.564 Y63.974 Z-0.481 I0.648 J0.624
X98.268 Y62.726 Z-0.58 I-0.648 J-0.624
X99.564 Y63.974 Z-0.679 I0.648 J0.624
X98.268 Y62.726 Z-0.777 I-0.648 J-0.624
X99.564 Y63.974 Z-0.876 I0.648 J0.624
X98.268 Y62.726 Z-0.975 I-0.648 J-0.624
X98.916 Y62.45 Z-1 I0.648 J0.624
X98.916 Y63.01 I0 J0.28 F1000
G1 X78.096
G3 X78.096 Y62.45 I0 J-0.28
G1 X98.916
G2 X99.305 Y62.245 I0 J-0.471
G3 X99.744 Y62.264 I0.214 J0.146
X98.916 Y63.68 I-0.828 J0.466
G1 X78.096
G3 X78.096 Y61.78 I0 J-0.95
G1 X98.916
G3 X99.744 Y62.264 I0 J0.95
G2 X100.34 Y62.623 I0.616 J-0.347
G3 X100.763 Y63.176 I-0.012 J0.448
X98.916 Y64.63 I-1.847 J-0.446
G1 X78.096
G3 X78.096 Y60.83 I0 J-1.9
G1 X98.916
G3 X100.763 Y63.176 I0 J1.9
G1 X100.745 Y63.223 Z-0.987
X100.717 Y63.264 Z-0.973
X100.69 Y63.288 Z-0.937
X100.659 Y63.308 Z-0.9
X100.634 Y63.318 Z-0.8
G0 Z5
X99.682 Y62.582
Z3
G1 Z0.2 F1000
X99.669 Y62.604 Z0.102 F333.3
X99.628 Y62.661 Z0.029
X99.564 Y62.734 Z0
G3 X98.268 Y61.486 Z-0.099 I-0.648 J-0.624
X99.564 Y62.734 Z-0.197 I0.648 J0.624
X98.268 Y61.486 Z-0.296 I-0.648 J-0.624
X99.564 Y62.734 Z-0.395 I0.648 J0.624
X98.268 Y61.486 Z-0.494 I-0.648 J-0.624
X99.564 Y62.734 Z-0.592 I0.648 J0.624
X98.268 Y61.486 Z-0.691 I-0.648 J-0.624
X99.564 Y62.734 Z-0.79 I0.648 J0.624
X98.268 Y61.486 Z-0.889 I-0.648 J-0.624
X99.564 Y62.734 Z-0.987 I0.648 J0.624
X98.268 Y61.486 Z-1.086 I-0.648 J-0.624
X99.564 Y62.734 Z-1.185 I0.648 J0.624
X98.268 Y61.486 Z-1.284 I-0.648 J-0.624
X99.564 Y62.734 Z-1.382 I0.648 J0.624
X98.268 Y61.486 Z-1.481 I-0.648 J-0.624
X99.564 Y62.734 Z-1.58 I0.648 J0.624
X98.268 Y61.486 Z-1.679 I-0.648 J-0.624
X99.564 Y62.734 Z-1.777 I0.648 J0.624
X98.268 Y61.486 Z-1.876 I-0.648 J-0.624
X99.564 Y62.734 Z-1.975 I0.648 J0.624
X98.916 Y63.01 Z-2 I-0.648 J-0.624
G1 X78.096 F1000
G3 X78.096 Y62.45 I0 J-0.28
G1 X98.916
G3 X98.916 Y63.01 I0 J0.28
G2 X98.413 Y63.345 I0 J0.544
G3 X97.911 Y63.68 I-0.502 J-0.209
G1 X78.096
G3 X78.096 Y61.78 I0 J-0.95
G1 X98.916
G3 X98.916 Y63.68 I0 J0.95
G1 X97.911
G2 X97.199 Y64.155 I0 J0.772
G3 X96.486 Y64.63 I-0.713 J-0.297
G1 X78.096
G3 X78.096 Y60.83 I0 J-1.9
G1 X98.916
G3 X98.916 Y64.63 I0 J1.9
G1 X96.486
X96.437 Y64.624 Z-1.987
X96.39 Y64.606 Z-1.973
X96.36 Y64.585 Z-1.937
X96.334 Y64.56 Z-1.9
X96.318 Y64.538 Z-1.8
G0 Z5
X98.169 Y61.608
Z3
G1 Z-0.8 F1000
X98.176 Y61.598 Z-0.868 F333.3
X98.196 Y61.57 Z-0.928
X98.237 Y61.519 Z-0.98
X98.293 Y61.46 Z-1
G3 X99.539 Y62.76 Z-1.099 I0.623 J0.65
X98.293 Y61.46 Z-1.197 I-0.623 J-0.65
X99.539 Y62.76 Z-1.296 I0.623 J0.65
X98.293 Y61.46 Z-1.395 I-0.623 J-0.65
X99.539 Y62.76 Z-1.494 I0.623 J0.65
X98.293 Y61.46 Z-1.592 I-0.623 J-0.65
X99.539 Y62.76 Z-1.691 I0.623 J0.65
X98.293 Y61.46 Z-1.79 I-0.623 J-0.65
X99.539 Y62.76 Z-1.889 I0.623 J0.65
X98.293 Y61.46 Z-1.987 I-0.623 J-0.65
X99.539 Y62.76 Z-2.086 I0.623 J0.65
X98.293 Y61.46 Z-2.185 I-0.623 J-0.65
X99.539 Y62.76 Z-2.284 I0.623 J0.65
X98.293 Y61.46 Z-2.382 I-0.623 J-0.65
X99.539 Y62.76 Z-2.481 I0.623 J0.65
X98.293 Y61.46 Z-2.58 I-0.623 J-0.65
X99.539 Y62.76 Z-2.679 I0.623 J0.65
X98.293 Y61.46 Z-2.777 I-0.623 J-0.65
X99.539 Y62.76 Z-2.876 I0.623 J0.65
X98.916 Y63.01 Z-2.9 I-0.623 J-0.65
G1 X78.096 F1000
G3 X78.096 Y62.45 I0 J-0.28
G1 X98.916
G3 X98.916 Y63.01 I0 J0.28
G2 X98.413 Y63.345 I0 J0.544
G3 X97.911 Y63.68 I-0.502 J-0.209
G1 X78.096
G3 X78.096 Y61.78 I0 J-0.95
G1 X98.916
G3 X98.916 Y63.68 I0 J0.95
G1 X97.911
G2 X97.199 Y64.155 I0 J0.772
G3 X96.486 Y64.63 I-0.713 J-0.297
G1 X78.096
G3 X78.096 Y60.83 I0 J-1.9
G1 X98.916
G3 X98.916 Y64.63 I0 J1.9
G1 X96.486
X96.437 Y64.624 Z-2.887
X96.39 Y64.606 Z-2.873
X96.36 Y64.585 Z-2.837
X96.334 Y64.56 Z-2.8
X96.318 Y64.538 Z-2.7
G0 Z5
X69.202 Y62.582
Z3
G1 Z1.2 F1000
X69.189 Y62.604 Z1.102 F333.3
X69.148 Y62.661 Z1.029
X69.084 Y62.734 Z1
G3 X67.788 Y61.486 Z0.901 I-0.648 J-0.624
X69.084 Y62.734 Z0.803 I0.648 J0.624
X67.788 Y61.486 Z0.704 I-0.648 J-0.624
X69.084 Y62.734 Z0.605 I0.648 J0.624
X67.788 Y61.486 Z0.506 I-0.648 J-0.624
X69.084 Y62.734 Z0.408 I0.648 J0.624
X67.788 Y61.486 Z0.309 I-0.648 J-0.624
X69.084 Y62.734 Z0.21 I0.648 J0.624
X67.788 Y61.486 Z0.111 I-0.648 J-0.624
X69.084 Y62.734 Z0.013 I0.648 J0.624
X67.788 Y61.486 Z-0.086 I-0.648 J-0.624
X69.084 Y62.734 Z-0.185 I0.648 J0.624
X67.788 Y61.486 Z-0.284 I-0.648 J-0.624
X69.084 Y62.734 Z-0.382 I0.648 J0.624
X67.788 Y61.486 Z-0.481 I-0.648 J-0.624
X69.084 Y62.734 Z-0.58 I0.648 J0.624
X67.788 Y61.486 Z-0.679 I-0.648 J-0.624
X69.084 Y62.734 Z-0.777 I0.648 J0.624
X67.788 Y61.486 Z-0.876 I-0.648 J-0.624
X69.084 Y62.734 Z-0.975 I0.648 J0.624
X68.436 Y63.01 Z-1 I-0.648 J-0.624
G1 X50.156 F1000
G3 X50.156 Y62.45 I0 J-0.28
G1 X68.436
G3 X68.436 Y63.01 I0 J0.28
G2 X67.934 Y63.345 I0 J0.544
G3 X67.431 Y63.68 I-0.503 J-0.209
G1 X50.156
G3 X50.156 Y61.78 I0 J-0.95
G1 X68.436
G3 X68.436 Y63.68 I0 J0.95
G1 X67.431
G2 X66.718 Y64.155 I0 J0.772
G3 X66.006 Y64.63 I-0.713 J-0.297
G1 X50.156
G3 X50.156 Y60.83 I0 J-1.9
G1 X68.436
G3 X68.436 Y64.63 I0 J1.9
G1 X66.006
X65.957 Y64.624 Z-0.987
X65.91 Y64.606 Z-0.973
X65.88 Y64.585 Z-0.937
X65.854 Y64.56 Z-0.9
X65.838 Y64.538 Z-0.8
G0 Z5
X69.202 Y62.582
Z3
G1 Z0.2 F1000
X69.189 Y62.604 Z0.102 F333.3
X69.148 Y62.661 Z0.029
X69.084 Y62.734 Z0
G3 X67.788 Y61.486 Z-0.099 I-0.648 J-0.624
X69.084 Y62.734 Z-0.197 I0.648 J0.624
X67.788 Y61.486 Z-0.296 I-0.648 J-0.624
X69.084 Y62.734 Z-0.395 I0.648 J0.624
X67.788 Y61.486 Z-0.494 I-0.648 J-0.624
X69.084 Y62.734 Z-0.592 I0.648 J0.624
X67.788 Y61.486 Z-0.691 I-0.648 J-0.624
X69.084 Y62.734 Z-0.79 I0.648 J0.624
X67.788 Y61.486 Z-0.889 I-0.648 J-0.624
X69.084 Y62.734 Z-0.987 I0.648 J0.624
X67.788 Y61.486 Z-1.086 I-0.648 J-0.624
X69.084 Y62.734 Z-1.185 I0.648 J0.624
X67.788 Y61.486 Z-1.284 I-0.648 J-0.624
X69.084 Y62.734 Z-1.382 I0.648 J0.624
X67.788 Y61.486 Z-1.481 I-0.648 J-0.624
X69.084 Y62.734 Z-1.58 I0.648 J0.624
X67.788 Y61.486 Z-1.679 I-0.648 J-0.624
X69.084 Y62.734 Z-1.777 I0.648 J0.624
X67.788 Y61.486 Z-1.876 I-0.648 J-0.624
X69.084 Y62.734 Z-1.975 I0.648 J0.624
X68.436 Y63.01 Z-2 I-0.648 J-0.624
G1 X50.156 F1000
G3 X50.156 Y62.45 I0 J-0.28
G1 X68.436
G3 X68.436 Y63.01 I0 J0.28
G2 X67.934 Y63.345 I0 J0.544
G3 X67.431 Y63.68 I-0.503 J-0.209
G1 X50.156
G3 X50.156 Y61.78 I0 J-0.95
G1 X68.436
G3 X68.436 Y63.68 I0 J0.95
G1 X67.431
G2 X66.718 Y64.155 I0 J0.772
G3 X66.006 Y64.63 I-0.713 J-0.297
G1 X50.156
G3 X50.156 Y60.83 I0 J-1.9
G1 X68.436
G3 X68.436 Y64.63 I0 J1.9
G1 X66.006
X65.957 Y64.624 Z-1.987
X65.91 Y64.606 Z-1.973
X65.88 Y64.585 Z-1.937
X65.854 Y64.56 Z-1.9
X65.838 Y64.538 Z-1.8
G0 Z5
X67.689 Y61.608
Z3
G1 Z-0.8 F1000
X67.696 Y61.598 Z-0.868 F333.3
X67.716 Y61.57 Z-0.928
X67.757 Y61.519 Z-0.98
X67.813 Y61.46 Z-1
G3 X69.059 Y62.76 Z-1.099 I0.623 J0.65
X67.813 Y61.46 Z-1.197 I-0.623 J-0.65
X69.059 Y62.76 Z-1.296 I0.623 J0.65
X67.813 Y61.46 Z-1.395 I-0.623 J-0.65
X69.059 Y62.76 Z-1.494 I0.623 J0.65
X67.813 Y61.46 Z-1.592 I-0.623 J-0.65
X69.059 Y62.76 Z-1.691 I0.623 J0.65
X67.813 Y61.46 Z-1.79 I-0.623 J-0.65
X69.059 Y62.76 Z-1.889 I0.623 J0.65
X67.813 Y61.46 Z-1.987 I-0.623 J-0.65
X69.059 Y62.76 Z-2.086 I0.623 J0.65
X67.813 Y61.46 Z-2.185 I-0.623 J-0.65
X69.059 Y62.76 Z-2.284 I0.623 J0.65
X67.813 Y61.46 Z-2.382 I-0.623 J-0.65
X69.059 Y62.76 Z-2.481 I0.623 J0.65
X67.813 Y61.46 Z-2.58 I-0.623 J-0.65
X69.059 Y62.76 Z-2.679 I0.623 J0.65
X67.813 Y61.46 Z-2.777 I-0.623 J-0.65
X69.059 Y62.76 Z-2.876 I0.623 J0.65
X68.436 Y63.01 Z-2.9 I-0.623 J-0.65
G1 X50.156 F1000
G3 X50.156 Y62.45 I0 J-0.28
G1 X68.436
G3 X68.436 Y63.01 I0 J0.28
G2 X67.934 Y63.345 I0 J0.544
G3 X67.431 Y63.68 I-0.503 J-0.209
G1 X50.156
G3 X50.156 Y61.78 I0 J-0.95
G1 X68.436
G3 X68.436 Y63.68 I0 J0.95
G1 X67.431
G2 X66.718 Y64.155 I0 J0.772
G3 X66.006 Y64.63 I-0.713 J-0.297
G1 X50.156
G3 X50.156 Y60.83 I0 J-1.9
G1 X68.436
G3 X68.436 Y64.63 I0 J1.9
G1 X66.006
X65.957 Y64.624 Z-2.887
X65.91 Y64.606 Z-2.873
X65.88 Y64.585 Z-2.837
X65.854 Y64.56 Z-2.8
X65.838 Y64.538 Z-2.7
G0 Z5
X39.378 Y41.906
Z3
G1 Z1.2 F1000
X39.356 Y41.893 Z1.102 F333.3
X39.299 Y41.852 Z1.029
X39.226 Y41.788 Z1
G3 X40.474 Y40.492 Z0.901 I0.624 J-0.648
X39.226 Y41.788 Z0.803 I-0.624 J0.648
X40.474 Y40.492 Z0.704 I0.624 J-0.648
X39.226 Y41.788 Z0.605 I-0.624 J0.648
X40.474 Y40.492 Z0.506 I0.624 J-0.648
X39.226 Y41.788 Z0.408 I-0.624 J0.648
X40.474 Y40.492 Z0.309 I0.624 J-0.648
X39.226 Y41.788 Z0.21 I-0.624 J0.648
X40.474 Y40.492 Z0.111 I0.624 J-0.648
X39.226 Y41.788 Z0.013 I-0.624 J0.648
X40.474 Y40.492 Z-0.086 I0.624 J-0.648
X39.226 Y41.788 Z-0.185 I-0.624 J0.648
X40.474 Y40.492 Z-0.284 I0.624 J-0.648
X39.226 Y41.788 Z-0.382 I-0.624 J0.648
X40.474 Y40.492 Z-0.481 I0.624 J-0.648
X39.226 Y41.788 Z-0.58 I-0.624 J0.648
X40.474 Y40.492 Z-0.679 I0.624 J-0.648
X39.226 Y41.788 Z-0.777 I-0.624 J0.648
X40.474 Y40.492 Z-0.876 I0.624 J-0.648
X39.226 Y41.788 Z-0.975 I-0.624 J0.648
X38.95 Y41.14 Z-1 I0.624 J-0.648
G1 Y36.06 F1000
G3 X39.51 Y36.06 I0.28 J0
G1 Y41.14
G3 X38.95 Y41.14 I-0.28 J0
G2 X38.615 Y40.638 I-0.544 J0
G3 X38.28 Y40.135 I0.209 J-0.503
G1 Y36.06
G3 X40.18 Y36.06 I0.95 J0
G1 Y41.14
G3 X38.28 Y41.14 I-0.95 J0
G1 Y40.135
G2 X37.805 Y39.423 I-0.772 J0
G3 X37.33 Y38.71 I0.297 J-0.713
G1 Y36.06
G3 X41.13 Y36.06 I1.9 J0
G1 Y41.14
G3 X37.33 Y41.14 I-1.9 J0
G1 Y38.71
X37.336 Y38.661 Z-0.987
X37.354 Y38.614 Z-0.973
X37.375 Y38.584 Z-0.937
X37.4 Y38.558 Z-0.9
X37.422 Y38.542 Z-0.8
G0 Z5
X39.082 Y35.294
Z3
G1 Z0.2 F1000
X39.104 Y35.307 Z0.102 F333.3
X39.161 Y35.348 Z0.029
X39.234 Y35.412 Z0
G3 X37.986 Y36.708 Z-0.099 I-0.624 J0.648
X39.234 Y35.412 Z-0.197 I0.624 J-0.648
X37.986 Y36.708 Z-0.296 I-0.624 J0.648
X39.234 Y35.412 Z-0.395 I0.624 J-0.648
X37.986 Y36.708 Z-0.494 I-0.624 J0.648
X39.234 Y35.412 Z-0.592 I0.624 J-0.648
X37.986 Y36.708 Z-0.691 I-0.624 J0.648
X39.234 Y35.412 Z-0.79 I0.624 J-0.648
X37.986 Y36.708 Z-0.889 I-0.624 J0.648
X39.234 Y35.412 Z-0.987 I0.624 J-0.648
X37.986 Y36.708 Z-1.086 I-0.624 J0.648
X39.234 Y35.412 Z-1.185 I0.624 J-0.648
X37.986 Y36.708 Z-1.284 I-0.624 J0.648
X39.234 Y35.412 Z-1.382 I0.624 J-0.648
X37.986 Y36.708 Z-1.481 I-0.624 J0.648
X39.234 Y35.412 Z-1.58 I0.624 J-0.648
X37.986 Y36.708 Z-1.679 I-0.624 J0.648
X39.234 Y35.412 Z-1.777 I0.624 J-0.648
X37.986 Y36.708 Z-1.876 I-0.624 J0.648
X39.234 Y35.412 Z-1.975 I0.624 J-0.648
X39.51 Y36.06 Z-2 I-0.624 J0.648
G1 Y41.14 F1000
G3 X38.95 Y41.14 I-0.28 J0
G1 Y36.06
G3 X39.51 Y36.06 I0.28 J0
G2 X39.845 Y36.563 I0.544 J0
G3 X40.18 Y37.065 I-0.209 J0.502
G1 Y41.14
G3 X38.28 Y41.14 I-0.95 J0
G1 Y36.06
G3 X40.18 Y36.06 I0.95 J0
G1 Y37.065
G2 X40.655 Y37.778 I0.772 J0
G3 X41.13 Y38.49 I-0.297 J0.713
G1 Y41.14
G3 X37.33 Y41.14 I-1.9 J0
G1 Y36.06
G3 X41.13 Y36.06 I1.9 J0
G1 Y38.49
X41.124 Y38.539 Z-1.987
X41.106 Y38.586 Z-1.973
X41.085 Y38.616 Z-1.937
X41.06 Y38.642 Z-1.9
X41.038 Y38.658 Z-1.8
G0 Z5
X40.352 Y40.393
Z3
G1 Z-0.8 F1000
X40.362 Y40.4 Z-0.868 F333.3
X40.39 Y40.42 Z-0.928
X40.441 Y40.461 Z-0.98
X40.5 Y40.517 Z-1
G3 X39.2 Y41.763 Z-1.099 I-0.65 J0.623
X40.5 Y40.517 Z-1.197 I0.65 J-0.623
X39.2 Y41.763 Z-1.296 I-0.65 J0.623
X40.5 Y40.517 Z-1.395 I0.65 J-0.623
X39.2 Y41.763 Z-1.494 I-0.65 J0.623
X40.5 Y40.517 Z-1.592 I0.65 J-0.623
X39.2 Y41.763 Z-1.691 I-0.65 J0.623
X40.5 Y40.517 Z-1.79 I0.65 J-0.623
X39.2 Y41.763 Z-1.889 I-0.65 J0.623
X40.5 Y40.517 Z-1.987 I0.65 J-0.623
X39.2 Y41.763 Z-2.086 I-0.65 J0.623
X40.5 Y40.517 Z-2.185 I0.65 J-0.623
X39.2 Y41.763 Z-2.284 I-0.65 J0.623
X40.5 Y40.517 Z-2.382 I0.65 J-0.623
X39.2 Y41.763 Z-2.481 I-0.65 J0.623
X40.5 Y40.517 Z-2.58 I0.65 J-0.623
X39.2 Y41.763 Z-2.679 I-0.65 J0.623
X40.5 Y40.517 Z-2.777 I0.65 J-0.623
X39.2 Y41.763 Z-2.876 I-0.65 J0.623
X38.95 Y41.14 Z-2.9 I0.65 J-0.623
G1 Y36.06 F1000
G3 X39.51 Y36.06 I0.28 J0
G1 Y41.14
G3 X38.95 Y41.14 I-0.28 J0
G2 X38.615 Y40.638 I-0.544 J0
G3 X38.28 Y40.135 I0.209 J-0.503
G1 Y36.06
G3 X40.18 Y36.06 I0.95 J0
G1 Y41.14
G3 X38.28 Y41.14 I-0.95 J0
G1 Y40.135
G2 X37.805 Y39.423 I-0.772 J0
G3 X37.33 Y38.71 I0.297 J-0.713
G1 Y36.06
G3 X41.13 Y36.06 I1.9 J0
G1 Y41.14
G3 X37.33 Y41.14 I-1.9 J0
G1 Y38.71
X37.336 Y38.661 Z-2.887
X37.354 Y38.614 Z-2.873
X37.375 Y38.584 Z-2.837
X37.4 Y38.558 Z-2.8
X37.422 Y38.542 Z-2.7
G0 Z5
X42.917 Y24.482
Z3
G1 Z1.2 F1000
X42.904 Y24.504 Z1.102 F333.3
X42.863 Y24.561 Z1.029
X42.799 Y24.634 Z1
G3 X41.503 Y23.386 Z0.901 I-0.648 J-0.624
X42.799 Y24.634 Z0.803 I0.648 J0.624
X41.503 Y23.386 Z0.704 I-0.648 J-0.624
X42.799 Y24.634 Z0.605 I0.648 J0.624
X41.503 Y23.386 Z0.506 I-0.648 J-0.624
X42.799 Y24.634 Z0.408 I0.648 J0.624
X41.503 Y23.386 Z0.309 I-0.648 J-0.624
X42.799 Y24.634 Z0.21 I0.648 J0.624
X41.503 Y23.386 Z0.111 I-0.648 J-0.624
X42.799 Y24.634 Z0.013 I0.648 J0.624
X41.503 Y23.386 Z-0.086 I-0.648 J-0.624
X42.799 Y24.634 Z-0.185 I0.648 J0.624
X41.503 Y23.386 Z-0.284 I-0.648 J-0.624
X42.799 Y24.634 Z-0.382 I0.648 J0.624
X41.503 Y23.386 Z-0.481 I-0.648 J-0.624
X42.799 Y24.634 Z-0.58 I0.648 J0.624
X41.503 Y23.386 Z-0.679 I-0.648 J-0.624
X42.799 Y24.634 Z-0.777 I0.648 J0.624
X41.503 Y23.386 Z-0.876 I-0.648 J-0.624
X42.799 Y24.634 Z-0.975 I0.648 J0.624
X42.151 Y24.91 Z-1 I-0.648 J-0.624
X41.871 Y24.63 I0 J-0.28 F1000
G1 Y19.55
G3 X42.431 Y19.55 I0.28 J0
G1 Y24.63
G3 X42.151 Y24.91 I-0.28 J0
G2 X41.762 Y25.115 I0 J0.471
G3 X41.323 Y25.096 I-0.214 J-0.146
X41.201 Y24.63 I0.828 J-0.466
G1 Y19.55
G3 X43.101 Y19.55 I0.95 J0
G1 Y24.63
G3 X41.323 Y25.096 I-0.95 J0
G2 X40.728 Y24.707 I-0.673 J0.379
G3 X40.251 Y24.18 I0.053 J-0.527
G1 Y19.55
G3 X44.051 Y19.55 I1.9 J0
G1 Y24.63
G3 X40.251 Y24.63 I-1.9 J0
G1 Y24.18
X40.257 Y24.13 Z-0.987
X40.275 Y24.084 Z-0.973
X40.296 Y24.053 Z-0.937
X40.321 Y24.027 Z-0.9
X40.343 Y24.011 Z-0.8
G0 Z5
X42.003 Y23.864
Z3
G1 Z0.2 F1000
X42.025 Y23.877 Z0.102 F333.3
X42.082 Y23.918 Z0.029
X42.155 Y23.982 Z0
G3 X40.907 Y25.278 Z-0.099 I-0.624 J0.648
X42.155 Y23.982 Z-0.197 I0.624 J-0.648
X40.907 Y25.278 Z-0.296 I-0.624 J0.648
X42.155 Y23.982 Z-0.395 I0.624 J-0.648
X40.907 Y25.278 Z-0.494 I-0.624 J0.648
X42.155 Y23.982 Z-0.592 I0.624 J-0.648
X40.907 Y25.278 Z-0.691 I-0.624 J0.648
X42.155 Y23.982 Z-0.79 I0.624 J-0.648
X40.907 Y25.278 Z-0.889 I-0.624 J0.648
X42.155 Y23.982 Z-0.987 I0.624 J-0.648
X40.907 Y25.278 Z-1.086 I-0.624 J0.648
X42.155 Y23.982 Z-1.185 I0.624 J-0.648
X40.907 Y25.278 Z-1.284 I-0.624 J0.648
X42.155 Y23.982 Z-1.382 I0.624 J-0.648
X40.907 Y25.278 Z-1.481 I-0.624 J0.648
X42.155 Y23.982 Z-1.58 I0.624 J-0.648
X40.907 Y25.278 Z-1.679 I-0.624 J0.648
X42.155 Y23.982 Z-1.777 I0.624 J-0.648
X40.907 Y25.278 Z-1.876 I-0.624 J0.648
X42.155 Y23.982 Z-1.975 I0.624 J-0.648
X42.431 Y24.63 Z-2 I-0.624 J0.648
X41.871 Y24.63 I-0.28 J0 F1000
G1 Y19.55
G3 X42.431 Y19.55 I0.28 J0
G1 Y24.63
G2 X42.636 Y25.019 I0.471 J0
G3 X42.617 Y25.458 I-0.146 J0.214
X41.201 Y24.63 I-0.466 J-0.828
G1 Y19.55
G3 X43.101 Y19.55 I0.95 J0
G1 Y24.63
G3 X42.617 Y25.458 I-0.95 J0
G2 X42.258 Y26.054 I0.347 J0.616
G3 X41.705 Y26.477 I-0.448 J-0.012
X40.251 Y24.63 I0.446 J-1.847
G1 Y19.55
G3 X44.051 Y19.55 I1.9 J0
G1 Y24.63
G3 X41.705 Y26.477 I-1.9 J0
G1 X41.658 Y26.459 Z-1.987
X41.617 Y26.431 Z-1.973
X41.593 Y26.404 Z-1.937
X41.573 Y26.373 Z-1.9
X41.563 Y26.348 Z-1.8
G0 Z5
X41.404 Y23.508
Z3
G1 Z-0.8 F1000
X41.411 Y23.498 Z-0.868 F333.3
X41.431 Y23.47 Z-0.928
X41.472 Y23.419 Z-0.98
X41.528 Y23.36 Z-1
G3 X42.774 Y24.66 Z-1.099 I0.623 J0.65
X41.528 Y23.36 Z-1.197 I-0.623 J-0.65
X42.774 Y24.66 Z-1.296 I0.623 J0.65
X41.528 Y23.36 Z-1.395 I-0.623 J-0.65
X42.774 Y24.66 Z-1.494 I0.623 J0.65
X41.528 Y23.36 Z-1.592 I-0.623 J-0.65
X42.774 Y24.66 Z-1.691 I0.623 J0.65
X41.528 Y23.36 Z-1.79 I-0.623 J-0.65
X42.774 Y24.66 Z-1.889 I0.623 J0.65
X41.528 Y23.36 Z-1.987 I-0.623 J-0.65
X42.774 Y24.66 Z-2.086 I0.623 J0.65
X41.528 Y23.36 Z-2.185 I-0.623 J-0.65
X42.774 Y24.66 Z-2.284 I0.623 J0.65
X41.528 Y23.36 Z-2.382 I-0.623 J-0.65
X42.774 Y24.66 Z-2.481 I0.623 J0.65
X41.528 Y23.36 Z-2.58 I-0.623 J-0.65
X42.774 Y24.66 Z-2.679 I0.623 J0.65
X41.528 Y23.36 Z-2.777 I-0.623 J-0.65
X42.774 Y24.66 Z-2.876 I0.623 J0.65
X42.151 Y24.91 Z-2.9 I-0.623 J-0.65
X41.871 Y24.63 I0 J-0.28 F1000
G1 Y19.55
G3 X42.431 Y19.55 I0.28 J0
G1 Y24.63
G3 X42.151 Y24.91 I-0.28 J0
G2 X41.762 Y25.115 I0 J0.471
G3 X41.323 Y25.096 I-0.214 J-0.146
X41.201 Y24.63 I0.828 J-0.466
G1 Y19.55
G3 X43.101 Y19.55 I0.95 J0
G1 Y24.63
G3 X41.323 Y25.096 I-0.95 J0
G2 X40.728 Y24.707 I-0.673 J0.379
G3 X40.251 Y24.18 I0.053 J-0.527
G1 Y19.55
G3 X44.051 Y19.55 I1.9 J0
G1 Y24.63
G3 X40.251 Y24.63 I-1.9 J0
G1 Y24.18
X40.257 Y24.13 Z-2.887
X40.275 Y24.084 Z-2.873
X40.296 Y24.053 Z-2.837
X40.321 Y24.027 Z-2.8
X40.343 Y24.011 Z-2.7
G0 Z5
X30.508 Y15.028
Z3
G1 Z2 F1000
Z-0.8 F333.3
X30.492 Y15.05 Z-0.9
X30.466 Y15.075 Z-0.937
X30.436 Y15.096 Z-0.973
X30.389 Y15.114 Z-0.987
X30.34 Y15.12 Z-1
G3 X30.34 Y13.82 I0 J-0.65 F1000
X30.34 Y15.12 I0 J0.65
X30.34 Y13.82 Z-1.071 I0 J-0.65 F333.3
X30.34 Y15.12 Z-1.143 I0 J0.65
X30.34 Y13.82 Z-1.214 I0 J-0.65
X30.34 Y15.12 Z-1.285 I0 J0.65
X30.34 Y13.82 Z-1.357 I0 J-0.65
X30.34 Y15.12 Z-1.428 I0 J0.65
X30.34 Y13.82 Z-1.499 I0 J-0.65
X30.34 Y15.12 Z-1.57 I0 J0.65
X30.34 Y13.82 Z-1.642 I0 J-0.65
X30.34 Y15.12 Z-1.713 I0 J0.65
X30.34 Y13.82 Z-1.784 I0 J-0.65
X30.34 Y15.12 Z-1.856 I0 J0.65
X30.34 Y13.82 Z-1.927 I0 J-0.65
X30.99 Y14.494 Z-1.964 I0 J0.65
X30.292 Y15.118 Z-2 I-0.65 J-0.024
X30.388 Y13.822 I0.048 J-0.648 F1000
X30.292 Y15.118 I-0.048 J0.648
X30.388 Y13.822 Z-2.071 I0.048 J-0.648 F333.3
X30.292 Y15.118 Z-2.143 I-0.048 J0.648
X30.388 Y13.822 Z-2.214 I0.048 J-0.648
X30.292 Y15.118 Z-2.285 I-0.048 J0.648
X30.388 Y13.822 Z-2.357 I0.048 J-0.648
X30.292 Y15.118 Z-2.428 I-0.048 J0.648
X30.388 Y13.822 Z-2.499 I0.048 J-0.648
X30.292 Y15.118 Z-2.57 I-0.048 J0.648
X30.388 Y13.822 Z-2.642 I0.048 J-0.648
X30.292 Y15.118 Z-2.713 I-0.048 J0.648
X30.388 Y13.822 Z-2.784 I0.048 J-0.648
X30.292 Y15.118 Z-2.856 I-0.048 J0.648
X29.756 Y14.185 Z-2.9 I0.048 J-0.648
X30.924 Y14.755 I0.584 J0.285 F1000
X29.756 Y14.185 I-0.584 J-0.285
G1 X29.783 Y14.143 Z-2.887
X29.82 Y14.11 Z-2.873
X29.851 Y14.091 Z-2.837
X29.886 Y14.079 Z-2.8
X29.912 Y14.074 Z-2.7
G0 Z5
X69.202 Y21.942
Z3
G1 Z1.2 F1000
X69.189 Y21.964 Z1.102 F333.3
X69.148 Y22.021 Z1.029
X69.084 Y22.094 Z1
G3 X67.788 Y20.846 Z0.901 I-0.648 J-0.624
X69.084 Y22.094 Z0.803 I0.648 J0.624
X67.788 Y20.846 Z0.704 I-0.648 J-0.624
X69.084 Y22.094 Z0.605 I0.648 J0.624
X67.788 Y20.846 Z0.506 I-0.648 J-0.624
X69.084 Y22.094 Z0.408 I0.648 J0.624
X67.788 Y20.846 Z0.309 I-0.648 J-0.624
X69.084 Y22.094 Z0.21 I0.648 J0.624
X67.788 Y20.846 Z0.111 I-0.648 J-0.624
X69.084 Y22.094 Z0.013 I0.648 J0.624
X67.788 Y20.846 Z-0.086 I-0.648 J-0.624
X69.084 Y22.094 Z-0.185 I0.648 J0.624
X67.788 Y20.846 Z-0.284 I-0.648 J-0.624
X69.084 Y22.094 Z-0.382 I0.648 J0.624
X67.788 Y20.846 Z-0.481 I-0.648 J-0.624
X69.084 Y22.094 Z-0.58 I0.648 J0.624
X67.788 Y20.846 Z-0.679 I-0.648 J-0.624
X69.084 Y22.094 Z-0.777 I0.648 J0.624
X67.788 Y20.846 Z-0.876 I-0.648 J-0.624
X69.084 Y22.094 Z-0.975 I0.648 J0.624
X68.436 Y22.37 Z-1 I-0.648 J-0.624
G1 X50.156 F1000
G3 X50.156 Y21.81 I0 J-0.28
G1 X68.436
G3 X68.436 Y22.37 I0 J0.28
G2 X67.934 Y22.705 I0 J0.544
G3 X67.431 Y23.04 I-0.503 J-0.209
G1 X50.156
G3 X50.156 Y21.14 I0 J-0.95
G1 X68.436
G3 X68.436 Y23.04 I0 J0.95
G1 X67.431
G2 X66.718 Y23.515 I0 J0.772
G3 X66.006 Y23.99 I-0.713 J-0.297
G1 X50.156
G3 X50.156 Y20.19 I0 J-1.9
G1 X68.436
G3 X68.436 Y23.99 I0 J1.9
G1 X66.006
X65.957 Y23.984 Z-0.987
X65.91 Y23.966 Z-0.973
X65.88 Y23.945 Z-0.937
X65.854 Y23.92 Z-0.9
X65.838 Y23.898 Z-0.8
G0 Z5
X69.202 Y21.942
Z3
G1 Z0.2 F1000
X69.189 Y21.964 Z0.102 F333.3
X69.148 Y22.021 Z0.029
X69.084 Y22.094 Z0
G3 X67.788 Y20.846 Z-0.099 I-0.648 J-0.624
X69.084 Y22.094 Z-0.197 I0.648 J0.624
X67.788 Y20.846 Z-0.296 I-0.648 J-0.624
X69.084 Y22.094 Z-0.395 I0.648 J0.624
X67.788 Y20.846 Z-0.494 I-0.648 J-0.624
X69.084 Y22.094 Z-0.592 I0.648 J0.624
X67.788 Y20.846 Z-0.691 I-0.648 J-0.624
X69.084 Y22.094 Z-0.79 I0.648 J0.624
X67.788 Y20.846 Z-0.889 I-0.648 J-0.624
X69.084 Y22.094 Z-0.987 I0.648 J0.624
X67.788 Y20.846 Z-1.086 I-0.648 J-0.624
X69.084 Y22.094 Z-1.185 I0.648 J0.624
X67.788 Y20.846 Z-1.284 I-0.648 J-0.624
X69.084 Y22.094 Z-1.382 I0.648 J0.624
X67.788 Y20.846 Z-1.481 I-0.648 J-0.624
X69.084 Y22.094 Z-1.58 I0.648 J0.624
X67.788 Y20.846 Z-1.679 I-0.648 J-0.624
X69.084 Y22.094 Z-1.777 I0.648 J0.624
X67.788 Y20.846 Z-1.876 I-0.648 J-0.624
X69.084 Y22.094 Z-1.975 I0.648 J0.624
X68.436 Y22.37 Z-2 I-0.648 J-0.624
G1 X50.156 F1000
G3 X50.156 Y21.81 I0 J-0.28
G1 X68.436
G3 X68.436 Y22.37 I0 J0.28
G2 X67.934 Y22.705 I0 J0.544
G3 X67.431 Y23.04 I-0.503 J-0.209
G1 X50.156
G3 X50.156 Y21.14 I0 J-0.95
G1 X68.436
G3 X68.436 Y23.04 I0 J0.95
G1 X67.431
G2 X66.718 Y23.515 I0 J0.772
G3 X66.006 Y23.99 I-0.713 J-0.297
G1 X50.156
G3 X50.156 Y20.19 I0 J-1.9
G1 X68.436
G3 X68.436 Y23.99 I0 J1.9
G1 X66.006
X65.957 Y23.984 Z-1.987
X65.91 Y23.966 Z-1.973
X65.88 Y23.945 Z-1.937
X65.854 Y23.92 Z-1.9
X65.838 Y23.898 Z-1.8
G0 Z5
X67.689 Y20.968
Z3
G1 Z-0.8 F1000
X67.696 Y20.958 Z-0.868 F333.3
X67.716 Y20.93 Z-0.928
X67.757 Y20.879 Z-0.98
X67.813 Y20.82 Z-1
G3 X69.059 Y22.12 Z-1.099 I0.623 J0.65
X67.813 Y20.82 Z-1.197 I-0.623 J-0.65
X69.059 Y22.12 Z-1.296 I0.623 J0.65
X67.813 Y20.82 Z-1.395 I-0.623 J-0.65
X69.059 Y22.12 Z-1.494 I0.623 J0.65
X67.813 Y20.82 Z-1.592 I-0.623 J-0.65
X69.059 Y22.12 Z-1.691 I0.623 J0.65
X67.813 Y20.82 Z-1.79 I-0.623 J-0.65
X69.059 Y22.12 Z-1.889 I0.623 J0.65
X67.813 Y20.82 Z-1.987 I-0.623 J-0.65
X69.059 Y22.12 Z-2.086 I0.623 J0.65
X67.813 Y20.82 Z-2.185 I-0.623 J-0.65
X69.059 Y22.12 Z-2.284 I0.623 J0.65
X67.813 Y20.82 Z-2.382 I-0.623 J-0.65
X69.059 Y22.12 Z-2.481 I0.623 J0.65
X67.813 Y20.82 Z-2.58 I-0.623 J-0.65
X69.059 Y22.12 Z-2.679 I0.623 J0.65
X67.813 Y20.82 Z-2.777 I-0.623 J-0.65
X69.059 Y22.12 Z-2.876 I0.623 J0.65
X68.436 Y22.37 Z-2.9 I-0.623 J-0.65
G1 X50.156 F1000
G3 X50.156 Y21.81 I0 J-0.28
G1 X68.436
G3 X68.436 Y22.37 I0 J0.28
G2 X67.934 Y22.705 I0 J0.544
G3 X67.431 Y23.04 I-0.503 J-0.209
G1 X50.156
G3 X50.156 Y21.14 I0 J-0.95
G1 X68.436
G3 X68.436 Y23.04 I0 J0.95
G1 X67.431
G2 X66.718 Y23.515 I0 J0.772
G3 X66.006 Y23.99 I-0.713 J-0.297
G1 X50.156
G3 X50.156 Y20.19 I0 J-1.9
G1 X68.436
G3 X68.436 Y23.99 I0 J1.9
G1 X66.006
X65.957 Y23.984 Z-2.887
X65.91 Y23.966 Z-2.873
X65.88 Y23.945 Z-2.837
X65.854 Y23.92 Z-2.8
X65.838 Y23.898 Z-2.7
G0 Z5
X99.682 Y21.942
Z3
G1 Z1.2 F1000
X99.669 Y21.964 Z1.102 F333.3
X99.628 Y22.021 Z1.029
X99.564 Y22.094 Z1
G3 X98.268 Y20.846 Z0.901 I-0.648 J-0.624
X99.564 Y22.094 Z0.803 I0.648 J0.624
X98.268 Y20.846 Z0.704 I-0.648 J-0.624
X99.564 Y22.094 Z0.605 I0.648 J0.624
X98.268 Y20.846 Z0.506 I-0.648 J-0.624
X99.564 Y22.094 Z0.408 I0.648 J0.624
X98.268 Y20.846 Z0.309 I-0.648 J-0.624
X99.564 Y22.094 Z0.21 I0.648 J0.624
X98.268 Y20.846 Z0.111 I-0.648 J-0.624
X99.564 Y22.094 Z0.013 I0.648 J0.624
X98.268 Y20.846 Z-0.086 I-0.648 J-0.624
X99.564 Y22.094 Z-0.185 I0.648 J0.624
X98.268 Y20.846 Z-0.284 I-0.648 J-0.624
X99.564 Y22.094 Z-0.382 I0.648 J0.624
X98.268 Y20.846 Z-0.481 I-0.648 J-0.624
X99.564 Y22.094 Z-0.58 I0.648 J0.624
X98.268 Y20.846 Z-0.679 I-0.648 J-0.624
X99.564 Y22.094 Z-0.777 I0.648 J0.624
X98.268 Y20.846 Z-0.876 I-0.648 J-0.624
X99.564 Y22.094 Z-0.975 I0.648 J0.624
X98.916 Y22.37 Z-1 I-0.648 J-0.624
G1 X80.636 F1000
G3 X80.636 Y21.81 I0 J-0.28
G1 X98.916
G3 X98.916 Y22.37 I0 J0.28
G2 X98.413 Y22.705 I0 J0.544
G3 X97.911 Y23.04 I-0.502 J-0.209
G1 X80.636
G3 X80.636 Y21.14 I0 J-0.95
G1 X98.916
G3 X98.916 Y23.04 I0 J0.95
G1 X97.911
G2 X97.199 Y23.515 I0 J0.772
G3 X96.486 Y23.99 I-0.713 J-0.297
G1 X80.636
G3 X80.636 Y20.19 I0 J-1.9
G1 X98.916
G3 X98.916 Y23.99 I0 J1.9
G1 X96.486
X96.437 Y23.984 Z-0.987
X96.39 Y23.966 Z-0.973
X96.36 Y23.945 Z-0.937
X96.334 Y23.92 Z-0.9
X96.318 Y23.898 Z-0.8
G0 Z5
X99.682 Y21.942
Z3
G1 Z0.2 F1000
X99.669 Y21.964 Z0.102 F333.3
X99.628 Y22.021 Z0.029
X99.564 Y22.094 Z0
G3 X98.268 Y20.846 Z-0.099 I-0.648 J-0.624
X99.564 Y22.094 Z-0.197 I0.648 J0.624
X98.268 Y20.846 Z-0.296 I-0.648 J-0.624
X99.564 Y22.094 Z-0.395 I0.648 J0.624
X98.268 Y20.846 Z-0.494 I-0.648 J-0.624
X99.564 Y22.094 Z-0.592 I0.648 J0.624
X98.268 Y20.846 Z-0.691 I-0.648 J-0.624
X99.564 Y22.094 Z-0.79 I0.648 J0.624
X98.268 Y20.846 Z-0.889 I-0.648 J-0.624
X99.564 Y22.094 Z-0.987 I0.648 J0.624
X98.268 Y20.846 Z-1.086 I-0.648 J-0.624
X99.564 Y22.094 Z-1.185 I0.648 J0.624
X98.268 Y20.846 Z-1.284 I-0.648 J-0.624
X99.564 Y22.094 Z-1.382 I0.648 J0.624
X98.268 Y20.846 Z-1.481 I-0.648 J-0.624
X99.564 Y22.094 Z-1.58 I0.648 J0.624
X98.268 Y20.846 Z-1.679 I-0.648 J-0.624
X99.564 Y22.094 Z-1.777 I0.648 J0.624
X98.268 Y20.846 Z-1.876 I-0.648 J-0.624
X99.564 Y22.094 Z-1.975 I0.648 J0.624
X98.916 Y22.37 Z-2 I-0.648 J-0.624
G1 X80.636 F1000
G3 X80.636 Y21.81 I0 J-0.28
G1 X98.916
G3 X98.916 Y22.37 I0 J0.28
G2 X98.413 Y22.705 I0 J0.544
G3 X97.911 Y23.04 I-0.502 J-0.209
G1 X80.636
G3 X80.636 Y21.14 I0 J-0.95
G1 X98.916
G3 X98.916 Y23.04 I0 J0.95
G1 X97.911
G2 X97.199 Y23.515 I0 J0.772
G3 X96.486 Y23.99 I-0.713 J-0.297
G1 X80.636
G3 X80.636 Y20.19 I0 J-1.9
G1 X98.916
G3 X98.916 Y23.99 I0 J1.9
G1 X96.486
X96.437 Y23.984 Z-1.987
X96.39 Y23.966 Z-1.973
X96.36 Y23.945 Z-1.937
X96.334 Y23.92 Z-1.9
X96.318 Y23.898 Z-1.8
G0 Z5
X98.169 Y20.968
Z3
G1 Z-0.8 F1000
X98.176 Y20.958 Z-0.868 F333.3
X98.196 Y20.93 Z-0.928
X98.237 Y20.879 Z-0.98
X98.293 Y20.82 Z-1
G3 X99.539 Y22.12 Z-1.099 I0.623 J0.65
X98.293 Y20.82 Z-1.197 I-0.623 J-0.65
X99.539 Y22.12 Z-1.296 I0.623 J0.65
X98.293 Y20.82 Z-1.395 I-0.623 J-0.65
X99.539 Y22.12 Z-1.494 I0.623 J0.65
X98.293 Y20.82 Z-1.592 I-0.623 J-0.65
X99.539 Y22.12 Z-1.691 I0.623 J0.65
X98.293 Y20.82 Z-1.79 I-0.623 J-0.65
X99.539 Y22.12 Z-1.889 I0.623 J0.65
X98.293 Y20.82 Z-1.987 I-0.623 J-0.65
X99.539 Y22.12 Z-2.086 I0.623 J0.65
X98.293 Y20.82 Z-2.185 I-0.623 J-0.65
X99.539 Y22.12 Z-2.284 I0.623 J0.65
X98.293 Y20.82 Z-2.382 I-0.623 J-0.65
X99.539 Y22.12 Z-2.481 I0.623 J0.65
X98.293 Y20.82 Z-2.58 I-0.623 J-0.65
X99.539 Y22.12 Z-2.679 I0.623 J0.65
X98.293 Y20.82 Z-2.777 I-0.623 J-0.65
X99.539 Y22.12 Z-2.876 I0.623 J0.65
X98.916 Y22.37 Z-2.9 I-0.623 J-0.65
G1 X80.636 F1000
G3 X80.636 Y21.81 I0 J-0.28
G1 X98.916
G3 X98.916 Y22.37 I0 J0.28
G2 X98.413 Y22.705 I0 J0.544
G3 X97.911 Y23.04 I-0.502 J-0.209
G1 X80.636
G3 X80.636 Y21.14 I0 J-0.95
G1 X98.916
G3 X98.916 Y23.04 I0 J0.95
G1 X97.911
G2 X97.199 Y23.515 I0 J0.772
G3 X96.486 Y23.99 I-0.713 J-0.297
G1 X80.636
G3 X80.636 Y20.19 I0 J-1.9
G1 X98.916
G3 X98.916 Y23.99 I0 J1.9
G1 X96.486
X96.437 Y23.984 Z-2.887
X96.39 Y23.966 Z-2.873
X96.36 Y23.945 Z-2.837
X96.334 Y23.92 Z-2.8
X96.318 Y23.898 Z-2.7
G0 Z5
X130.863 Y22.754
Z3
G1 Z1.2 F1000
X130.842 Y22.741 Z1.102 F333.3
X130.785 Y22.7 Z1.029
X130.711 Y22.636 Z1
G3 X131.96 Y21.34 Z0.901 I0.624 J-0.648
X130.711 Y22.636 Z0.803 I-0.624 J0.648
X131.96 Y21.34 Z0.704 I0.624 J-0.648
X130.711 Y22.636 Z0.605 I-0.624 J0.648
X131.96 Y21.34 Z0.506 I0.624 J-0.648
X130.711 Y22.636 Z0.408 I-0.624 J0.648
X131.96 Y21.34 Z0.309 I0.624 J-0.648
X130.711 Y22.636 Z0.21 I-0.624 J0.648
X131.96 Y21.34 Z0.111 I0.624 J-0.648
X130.711 Y22.636 Z0.013 I-0.624 J0.648
X131.96 Y21.34 Z-0.086 I0.624 J-0.648
X130.711 Y22.636 Z-0.185 I-0.624 J0.648
X131.96 Y21.34 Z-0.284 I0.624 J-0.648
X130.711 Y22.636 Z-0.382 I-0.624 J0.648
X131.96 Y21.34 Z-0.481 I0.624 J-0.648
X130.711 Y22.636 Z-0.58 I-0.624 J0.648
X131.96 Y21.34 Z-0.679 I0.624 J-0.648
X130.711 Y22.636 Z-0.777 I-0.624 J0.648
X131.96 Y21.34 Z-0.876 I0.624 J-0.648
X130.711 Y22.636 Z-0.975 I-0.624 J0.648
X130.436 Y21.988 Z-1 I0.624 J-0.648
X131.673 Y21.988 I0.619 J0
X131.373 Y21.988 I-0.15 J0 F1000
X132.673 Y21.988 I0.65 J0
X130.373 Y21.988 I-1.15 J0
X132.673 Y21.988 I1.15 J0
G1 X132.667 Y22.037 Z-0.987
X132.649 Y22.084 Z-0.973
X132.628 Y22.114 Z-0.937
X132.603 Y22.14 Z-0.9
X132.581 Y22.156 Z-0.8
G0 Z5
X130.863 Y22.754
Z3
G1 Z0.2 F1000
X130.842 Y22.741 Z0.102 F333.3
X130.785 Y22.7 Z0.029
X130.711 Y22.636 Z0
G3 X131.96 Y21.34 Z-0.099 I0.624 J-0.648
X130.711 Y22.636 Z-0.197 I-0.624 J0.648
X131.96 Y21.34 Z-0.296 I0.624 J-0.648
X130.711 Y22.636 Z-0.395 I-0.624 J0.648
X131.96 Y21.34 Z-0.494 I0.624 J-0.648
X130.711 Y22.636 Z-0.592 I-0.624 J0.648
X131.96 Y21.34 Z-0.691 I0.624 J-0.648
X130.711 Y22.636 Z-0.79 I-0.624 J0.648
X131.96 Y21.34 Z-0.889 I0.624 J-0.648
X130.711 Y22.636 Z-0.987 I-0.624 J0.648
X131.96 Y21.34 Z-1.086 I0.624 J-0.648
X130.711 Y22.636 Z-1.185 I-0.624 J0.648
X131.96 Y21.34 Z-1.284 I0.624 J-0.648
X130.711 Y22.636 Z-1.382 I-0.624 J0.648
X131.96 Y21.34 Z-1.481 I0.624 J-0.648
X130.711 Y22.636 Z-1.58 I-0.624 J0.648
X131.96 Y21.34 Z-1.679 I0.624 J-0.648
X130.711 Y22.636 Z-1.777 I-0.624 J0.648
X131.96 Y21.34 Z-1.876 I0.624 J-0.648
X130.711 Y22.636 Z-1.975 I-0.624 J0.648
X130.436 Y21.988 Z-2 I0.624 J-0.648
X131.673 Y21.988 I0.619 J0
X131.373 Y21.988 I-0.15 J0 F1000
X132.673 Y21.988 I0.65 J0
X130.373 Y21.988 I-1.15 J0
X132.673 Y21.988 I1.15 J0
G1 X132.667 Y22.037 Z-1.987
X132.649 Y22.084 Z-1.973
X132.628 Y22.114 Z-1.937
X132.603 Y22.14 Z-1.9
X132.581 Y22.156 Z-1.8
G0 Z5
X131.838 Y21.241
Z3
G1 Z-0.8 F1000
X131.848 Y21.248 Z-0.868 F333.3
X131.876 Y21.268 Z-0.928
X131.927 Y21.309 Z-0.98
X131.985 Y21.365 Z-1
G3 X130.686 Y22.611 Z-1.099 I-0.65 J0.623
X131.985 Y21.365 Z-1.197 I0.65 J-0.623
X130.686 Y22.611 Z-1.296 I-0.65 J0.623
X131.985 Y21.365 Z-1.395 I0.65 J-0.623
X130.686 Y22.611 Z-1.494 I-0.65 J0.623
X131.985 Y21.365 Z-1.592 I0.65 J-0.623
X130.686 Y22.611 Z-1.691 I-0.65 J0.623
X131.985 Y21.365 Z-1.79 I0.65 J-0.623
X130.686 Y22.611 Z-1.889 I-0.65 J0.623
X131.985 Y21.365 Z-1.987 I0.65 J-0.623
X130.686 Y22.611 Z-2.086 I-0.65 J0.623
X131.985 Y21.365 Z-2.185 I0.65 J-0.623
X130.686 Y22.611 Z-2.284 I-0.65 J0.623
X131.985 Y21.365 Z-2.382 I0.65 J-0.623
X130.686 Y22.611 Z-2.481 I-0.65 J0.623
X131.985 Y21.365 Z-2.58 I0.65 J-0.623
X130.686 Y22.611 Z-2.679 I-0.65 J0.623
X131.985 Y21.365 Z-2.777 I0.65 J-0.623
X130.686 Y22.611 Z-2.876 I-0.65 J0.623
X130.436 Y21.988 Z-2.9 I0.65 J-0.623
X131.673 Y21.988 I0.619 J0
X131.373 Y21.988 I-0.15 J0 F1000
X132.673 Y21.988 I0.65 J0
X130.373 Y21.988 I-1.15 J0
X132.673 Y21.988 I1.15 J0
G1 X132.667 Y22.037 Z-2.887
X132.649 Y22.084 Z-2.873
X132.628 Y22.114 Z-2.837
X132.603 Y22.14 Z-2.8
X132.581 Y22.156 Z-2.7
G0 Z5
X143.563 Y22.754
Z3
G1 Z1.2 F1000
X143.542 Y22.741 Z1.102 F333.3
X143.485 Y22.7 Z1.029
X143.411 Y22.636 Z1
G3 X144.66 Y21.34 Z0.901 I0.624 J-0.648
X143.411 Y22.636 Z0.803 I-0.624 J0.648
X144.66 Y21.34 Z0.704 I0.624 J-0.648
X143.411 Y22.636 Z0.605 I-0.624 J0.648
X144.66 Y21.34 Z0.506 I0.624 J-0.648
X143.411 Y22.636 Z0.408 I-0.624 J0.648
X144.66 Y21.34 Z0.309 I0.624 J-0.648
X143.411 Y22.636 Z0.21 I-0.624 J0.648
X144.66 Y21.34 Z0.111 I0.624 J-0.648
X143.411 Y22.636 Z0.013 I-0.624 J0.648
X144.66 Y21.34 Z-0.086 I0.624 J-0.648
X143.411 Y22.636 Z-0.185 I-0.624 J0.648
X144.66 Y21.34 Z-0.284 I0.624 J-0.648
X143.411 Y22.636 Z-0.382 I-0.624 J0.648
X144.66 Y21.34 Z-0.481 I0.624 J-0.648
X143.411 Y22.636 Z-0.58 I-0.624 J0.648
X144.66 Y21.34 Z-0.679 I0.624 J-0.648
X143.411 Y22.636 Z-0.777 I-0.624 J0.648
X144.66 Y21.34 Z-0.876 I0.624 J-0.648
X143.411 Y22.636 Z-0.975 I-0.624 J0.648
X143.135 Y21.988 Z-1 I0.624 J-0.648
X144.373 Y21.988 I0.619 J0
X144.073 Y21.988 I-0.15 J0 F1000
X145.373 Y21.988 I0.65 J0
X143.073 Y21.988 I-1.15 J0
X145.373 Y21.988 I1.15 J0
G1 X145.367 Y22.037 Z-0.987
X145.349 Y22.084 Z-0.973
X145.328 Y22.114 Z-0.937
X145.303 Y22.14 Z-0.9
X145.281 Y22.156 Z-0.8
G0 Z5
X143.563 Y22.754
Z3
G1 Z0.2 F1000
X143.542 Y22.741 Z0.102 F333.3
X143.485 Y22.7 Z0.029
X143.411 Y22.636 Z0
G3 X144.66 Y21.34 Z-0.099 I0.624 J-0.648
X143.411 Y22.636 Z-0.197 I-0.624 J0.648
X144.66 Y21.34 Z-0.296 I0.624 J-0.648
X143.411 Y22.636 Z-0.395 I-0.624 J0.648
X144.66 Y21.34 Z-0.494 I0.624 J-0.648
X143.411 Y22.636 Z-0.592 I-0.624 J0.648
X144.66 Y21.34 Z-0.691 I0.624 J-0.648
X143.411 Y22.636 Z-0.79 I-0.624 J0.648
X144.66 Y21.34 Z-0.889 I0.624 J-0.648
X143.411 Y22.636 Z-0.987 I-0.624 J0.648
X144.66 Y21.34 Z-1.086 I0.624 J-0.648
X143.411 Y22.636 Z-1.185 I-0.624 J0.648
X144.66 Y21.34 Z-1.284 I0.624 J-0.648
X143.411 Y22.636 Z-1.382 I-0.624 J0.648
X144.66 Y21.34 Z-1.481 I0.624 J-0.648
X143.411 Y22.636 Z-1.58 I-0.624 J0.648
X144.66 Y21.34 Z-1.679 I0.624 J-0.648
X143.411 Y22.636 Z-1.777 I-0.624 J0.648
X144.66 Y21.34 Z-1.876 I0.624 J-0.648
X143.411 Y22.636 Z-1.975 I-0.624 J0.648
X143.135 Y21.988 Z-2 I0.624 J-0.648
X144.373 Y21.988 I0.619 J0
X144.073 Y21.988 I-0.15 J0 F1000
X145.373 Y21.988 I0.65 J0
X143.073 Y21.988 I-1.15 J0
X145.373 Y21.988 I1.15 J0
G1 X145.367 Y22.037 Z-1.987
X145.349 Y22.084 Z-1.973
X145.328 Y22.114 Z-1.937
X145.303 Y22.14 Z-1.9
X145.281 Y22.156 Z-1.8
G0 Z5
X144.538 Y21.241
Z3
G1 Z-0.8 F1000
X144.548 Y21.248 Z-0.868 F333.3
X144.576 Y21.268 Z-0.928
X144.627 Y21.309 Z-0.98
X144.685 Y21.365 Z-1
G3 X143.386 Y22.611 Z-1.099 I-0.65 J0.623
X144.685 Y21.365 Z-1.197 I0.65 J-0.623
X143.386 Y22.611 Z-1.296 I-0.65 J0.623
X144.685 Y21.365 Z-1.395 I0.65 J-0.623
X143.386 Y22.611 Z-1.494 I-0.65 J0.623
X144.685 Y21.365 Z-1.592 I0.65 J-0.623
X143.386 Y22.611 Z-1.691 I-0.65 J0.623
X144.685 Y21.365 Z-1.79 I0.65 J-0.623
X143.386 Y22.611 Z-1.889 I-0.65 J0.623
X144.685 Y21.365 Z-1.987 I0.65 J-0.623
X143.386 Y22.611 Z-2.086 I-0.65 J0.623
X144.685 Y21.365 Z-2.185 I0.65 J-0.623
X143.386 Y22.611 Z-2.284 I-0.65 J0.623
X144.685 Y21.365 Z-2.382 I0.65 J-0.623
X143.386 Y22.611 Z-2.481 I-0.65 J0.623
X144.685 Y21.365 Z-2.58 I0.65 J-0.623
X143.386 Y22.611 Z-2.679 I-0.65 J0.623
X144.685 Y21.365 Z-2.777 I0.65 J-0.623
X143.386 Y22.611 Z-2.876 I-0.65 J0.623
X143.135 Y21.988 Z-2.9 I0.65 J-0.623
X144.373 Y21.988 I0.619 J0
X144.073 Y21.988 I-0.15 J0 F1000
X145.373 Y21.988 I0.65 J0
X143.073 Y21.988 I-1.15 J0
X145.373 Y21.988 I1.15 J0
G1 X145.367 Y22.037 Z-2.887
X145.349 Y22.084 Z-2.873
X145.328 Y22.114 Z-2.837
X145.303 Y22.14 Z-2.8
X145.281 Y22.156 Z-2.7
G0 Z5
X172.983 Y29.216
Z3
G1 Z1.2 F1000
X172.961 Y29.203 Z1.102 F333.3
X172.904 Y29.162 Z1.029
X172.831 Y29.098 Z1
G3 X174.079 Y27.802 Z0.901 I0.624 J-0.648
X172.831 Y29.098 Z0.803 I-0.624 J0.648
X174.079 Y27.802 Z0.704 I0.624 J-0.648
X172.831 Y29.098 Z0.605 I-0.624 J0.648
X174.079 Y27.802 Z0.506 I0.624 J-0.648
X172.831 Y29.098 Z0.408 I-0.624 J0.648
X174.079 Y27.802 Z0.309 I0.624 J-0.648
X172.831 Y29.098 Z0.21 I-0.624 J0.648
X174.079 Y27.802 Z0.111 I0.624 J-0.648
X172.831 Y29.098 Z0.013 I-0.624 J0.648
X174.079 Y27.802 Z-0.086 I0.624 J-0.648
X172.831 Y29.098 Z-0.185 I-0.624 J0.648
X174.079 Y27.802 Z-0.284 I0.624 J-0.648
X172.831 Y29.098 Z-0.382 I-0.624 J0.648
X174.079 Y27.802 Z-0.481 I0.624 J-0.648
X172.831 Y29.098 Z-0.58 I-0.624 J0.648
X174.079 Y27.802 Z-0.679 I0.624 J-0.648
X172.831 Y29.098 Z-0.777 I-0.624 J0.648
X174.079 Y27.802 Z-0.876 I0.624 J-0.648
X172.831 Y29.098 Z-0.975 I-0.624 J0.648
X172.555 Y28.45 Z-1 I0.624 J-0.648
X173.355 Y28.45 I0.4 J0 F1000
X171.555 Y28.45 I-0.9 J0
X174.355 Y28.45 I1.4 J0
X170.555 Y28.45 I-1.9 J0
X175.355 Y28.45 I2.4 J0
X169.555 Y28.45 I-2.9 J0
X175.355 Y28.45 I2.9 J0
G1 X175.349 Y28.499 Z-0.987
X175.331 Y28.546 Z-0.973
X175.31 Y28.576 Z-0.937
X175.285 Y28.602 Z-0.9
X175.263 Y28.618 Z-0.8
G0 Z5
X172.983 Y29.216
Z3
G1 Z0.2 F1000
X172.961 Y29.203 Z0.102 F333.3
X172.904 Y29.162 Z0.029
X172.831 Y29.098 Z0
G3 X174.079 Y27.802 Z-0.099 I0.624 J-0.648
X172.831 Y29.098 Z-0.197 I-0.624 J0.648
X174.079 Y27.802 Z-0.296 I0.624 J-0.648
X172.831 Y29.098 Z-0.395 I-0.624 J0.648
X174.079 Y27.802 Z-0.494 I0.624 J-0.648
X172.831 Y29.098 Z-0.592 I-0.624 J0.648
X174.079 Y27.802 Z-0.691 I0.624 J-0.648
X172.831 Y29.098 Z-0.79 I-0.624 J0.648
X174.079 Y27.802 Z-0.889 I0.624 J-0.648
X172.831 Y29.098 Z-0.987 I-0.624 J0.648
X174.079 Y27.802 Z-1.086 I0.624 J-0.648
X172.831 Y29.098 Z-1.185 I-0.624 J0.648
X174.079 Y27.802 Z-1.284 I0.624 J-0.648
X172.831 Y29.098 Z-1.382 I-0.624 J0.648
X174.079 Y27.802 Z-1.481 I0.624 J-0.648
X172.831 Y29.098 Z-1.58 I-0.624 J0.648
X174.079 Y27.802 Z-1.679 I0.624 J-0.648
X172.831 Y29.098 Z-1.777 I-0.624 J0.648
X174.079 Y27.802 Z-1.876 I0.624 J-0.648
X172.831 Y29.098 Z-1.975 I-0.624 J0.648
X172.555 Y28.45 Z-2 I0.624 J-0.648
X173.355 Y28.45 I0.4 J0 F1000
X171.555 Y28.45 I-0.9 J0
X174.355 Y28.45 I1.4 J0
X170.555 Y28.45 I-1.9 J0
X175.355 Y28.45 I2.4 J0
X169.555 Y28.45 I-2.9 J0
X175.355 Y28.45 I2.9 J0
G1 X175.349 Y28.499 Z-1.987
X175.331 Y28.546 Z-1.973
X175.31 Y28.576 Z-1.937
X175.285 Y28.602 Z-1.9
X175.263 Y28.618 Z-1.8
G0 Z5
X173.957 Y27.703
Z3
G1 Z-0.8 F1000
X173.967 Y27.71 Z-0.868 F333.3
X173.995 Y27.73 Z-0.928
X174.046 Y27.771 Z-0.98
X174.105 Y27.827 Z-1
G3 X172.805 Y29.073 Z-1.099 I-0.65 J0.623
X174.105 Y27.827 Z-1.197 I0.65 J-0.623
X172.805 Y29.073 Z-1.296 I-0.65 J0.623
X174.105 Y27.827 Z-1.395 I0.65 J-0.623
X172.805 Y29.073 Z-1.494 I-0.65 J0.623
X174.105 Y27.827 Z-1.592 I0.65 J-0.623
X172.805 Y29.073 Z-1.691 I-0.65 J0.623
X174.105 Y27.827 Z-1.79 I0.65 J-0.623
X172.805 Y29.073 Z-1.889 I-0.65 J0.623
X174.105 Y27.827 Z-1.987 I0.65 J-0.623
X172.805 Y29.073 Z-2.086 I-0.65 J0.623
X174.105 Y27.827 Z-2.185 I0.65 J-0.623
X172.805 Y29.073 Z-2.284 I-0.65 J0.623
X174.105 Y27.827 Z-2.382 I0.65 J-0.623
X172.805 Y29.073 Z-2.481 I-0.65 J0.623
X174.105 Y27.827 Z-2.58 I0.65 J-0.623
X172.805 Y29.073 Z-2.679 I-0.65 J0.623
X174.105 Y27.827 Z-2.777 I0.65 J-0.623
X172.805 Y29.073 Z-2.876 I-0.65 J0.623
X172.555 Y28.45 Z-2.9 I0.65 J-0.623
X173.355 Y28.45 I0.4 J0 F1000
X171.555 Y28.45 I-0.9 J0
X174.355 Y28.45 I1.4 J0
X170.555 Y28.45 I-1.9 J0
X175.355 Y28.45 I2.4 J0
X169.555 Y28.45 I-2.9 J0
X175.355 Y28.45 I2.9 J0
G1 X175.349 Y28.499 Z-2.887
X175.331 Y28.546 Z-2.873
X175.31 Y28.576 Z-2.837
X175.285 Y28.602 Z-2.8
X175.263 Y28.618 Z-2.7
G0 Z5
X177.102 Y14.638
Z3
G1 Z2 F1000
Z-0.8 F333.3
X177.08 Y14.622 Z-0.9
X177.055 Y14.596 Z-0.937
X177.034 Y14.566 Z-0.973
X177.016 Y14.519 Z-0.987
X177.01 Y14.47 Z-1
G3 X178.31 Y14.47 I0.65 J0 F1000
X177.01 Y14.47 I-0.65 J0
X178.31 Y14.47 Z-1.071 I0.65 J0 F333.3
X177.01 Y14.47 Z-1.143 I-0.65 J0
X178.31 Y14.47 Z-1.214 I0.65 J0
X177.01 Y14.47 Z-1.285 I-0.65 J0
X178.31 Y14.47 Z-1.357 I0.65 J0
X177.01 Y14.47 Z-1.428 I-0.65 J0
X178.31 Y14.47 Z-1.499 I0.65 J0
X177.01 Y14.47 Z-1.57 I-0.65 J0
X178.31 Y14.47 Z-1.642 I0.65 J0
X177.01 Y14.47 Z-1.713 I-0.65 J0
X178.31 Y14.47 Z-1.784 I0.65 J0
X177.01 Y14.47 Z-1.856 I-0.65 J0
X178.31 Y14.47 Z-1.927 I0.65 J0
X177.636 Y15.12 Z-1.964 I-0.65 J0
X177.012 Y14.422 Z-2 I0.024 J-0.65
X178.308 Y14.518 I0.648 J0.048 F1000
X177.012 Y14.422 I-0.648 J-0.048
X178.308 Y14.518 Z-2.071 I0.648 J0.048 F333.3
X177.012 Y14.422 Z-2.143 I-0.648 J-0.048
X178.308 Y14.518 Z-2.214 I0.648 J0.048
X177.012 Y14.422 Z-2.285 I-0.648 J-0.048
X178.308 Y14.518 Z-2.357 I0.648 J0.048
X177.012 Y14.422 Z-2.428 I-0.648 J-0.048
X178.308 Y14.518 Z-2.499 I0.648 J0.048
X177.012 Y14.422 Z-2.57 I-0.648 J-0.048
X178.308 Y14.518 Z-2.642 I0.648 J0.048
X177.012 Y14.422 Z-2.713 I-0.648 J-0.048
X178.308 Y14.518 Z-2.784 I0.648 J0.048
X177.012 Y14.422 Z-2.856 I-0.648 J-0.048
X177.945 Y13.886 Z-2.9 I0.648 J0.048
X177.375 Y15.054 I-0.285 J0.584 F1000
X177.945 Y13.886 I0.285 J-0.584
G1 X177.987 Y13.913 Z-2.887
X178.02 Y13.95 Z-2.873
X178.039 Y13.981 Z-2.837
X178.051 Y14.016 Z-2.8
X178.056 Y14.042 Z-2.7
G0 Z5
X172.983 Y52.066
Z3
G1 Z1.2 F1000
X172.961 Y52.053 Z1.102 F333.3
X172.904 Y52.012 Z1.029
X172.831 Y51.948 Z1
G3 X174.079 Y50.652 Z0.901 I0.624 J-0.648
X172.831 Y51.948 Z0.803 I-0.624 J0.648
X174.079 Y50.652 Z0.704 I0.624 J-0.648
X172.831 Y51.948 Z0.605 I-0.624 J0.648
X174.079 Y50.652 Z0.506 I0.624 J-0.648
X172.831 Y51.948 Z0.408 I-0.624 J0.648
X174.079 Y50.652 Z0.309 I0.624 J-0.648
X172.831 Y51.948 Z0.21 I-0.624 J0.648
X174.079 Y50.652 Z0.111 I0.624 J-0.648
X172.831 Y51.948 Z0.013 I-0.624 J0.648
X174.079 Y50.652 Z-0.086 I0.624 J-0.648
X172.831 Y51.948 Z-0.185 I-0.624 J0.648
X174.079 Y50.652 Z-0.284 I0.624 J-0.648
X172.831 Y51.948 Z-0.382 I-0.624 J0.648
X174.079 Y50.652 Z-0.481 I0.624 J-0.648
X172.831 Y51.948 Z-0.58 I-0.624 J0.648
X174.079 Y50.652 Z-0.679 I0.624 J-0.648
X172.831 Y51.948 Z-0.777 I-0.624 J0.648
X174.079 Y50.652 Z-0.876 I0.624 J-0.648
X172.831 Y51.948 Z-0.975 I-0.624 J0.648
X172.555 Y51.3 Z-1 I0.624 J-0.648
X173.355 Y51.3 I0.4 J0 F1000
X171.555 Y51.3 I-0.9 J0
X174.355 Y51.3 I1.4 J0
X170.555 Y51.3 I-1.9 J0
X175.355 Y51.3 I2.4 J0
X169.555 Y51.3 I-2.9 J0
X175.355 Y51.3 I2.9 J0
G1 X175.349 Y51.349 Z-0.987
X175.331 Y51.396 Z-0.973
X175.31 Y51.426 Z-0.937
X175.285 Y51.452 Z-0.9
X175.263 Y51.468 Z-0.8
G0 Z5
X172.983 Y52.066
Z3
G1 Z0.2 F1000
X172.961 Y52.053 Z0.102 F333.3
X172.904 Y52.012 Z0.029
X172.831 Y51.948 Z0
G3 X174.079 Y50.652 Z-0.099 I0.624 J-0.648
X172.831 Y51.948 Z-0.197 I-0.624 J0.648
X174.079 Y50.652 Z-0.296 I0.624 J-0.648
X172.831 Y51.948 Z-0.395 I-0.624 J0.648
X174.079 Y50.652 Z-0.494 I0.624 J-0.648
X172.831 Y51.948 Z-0.592 I-0.624 J0.648
X174.079 Y50.652 Z-0.691 I0.624 J-0.648
X172.831 Y51.948 Z-0.79 I-0.624 J0.648
X174.079 Y50.652 Z-0.889 I0.624 J-0.648
X172.831 Y51.948 Z-0.987 I-0.624 J0.648
X174.079 Y50.652 Z-1.086 I0.624 J-0.648
X172.831 Y51.948 Z-1.185 I-0.624 J0.648
X174.079 Y50.652 Z-1.284 I0.624 J-0.648
X172.831 Y51.948 Z-1.382 I-0.624 J0.648
X174.079 Y50.652 Z-1.481 I0.624 J-0.648
X172.831 Y51.948 Z-1.58 I-0.624 J0.648
X174.079 Y50.652 Z-1.679 I0.624 J-0.648
X172.831 Y51.948 Z-1.777 I-0.624 J0.648
X174.079 Y50.652 Z-1.876 I0.624 J-0.648
X172.831 Y51.948 Z-1.975 I-0.624 J0.648
X172.555 Y51.3 Z-2 I0.624 J-0.648
X173.355 Y51.3 I0.4 J0 F1000
X171.555 Y51.3 I-0.9 J0
X174.355 Y51.3 I1.4 J0
X170.555 Y51.3 I-1.9 J0
X175.355 Y51.3 I2.4 J0
X169.555 Y51.3 I-2.9 J0
X175.355 Y51.3 I2.9 J0
G1 X175.349 Y51.349 Z-1.987
X175.331 Y51.396 Z-1.973
X175.31 Y51.426 Z-1.937
X175.285 Y51.452 Z-1.9
X175.263 Y51.468 Z-1.8
G0 Z5
X173.957 Y50.553
Z3
G1 Z-0.8 F1000
X173.967 Y50.56 Z-0.868 F333.3
X173.995 Y50.58 Z-0.928
X174.046 Y50.621 Z-0.98
X174.105 Y50.677 Z-1
G3 X172.805 Y51.923 Z-1.099 I-0.65 J0.623
X174.105 Y50.677 Z-1.197 I0.65 J-0.623
X172.805 Y51.923 Z-1.296 I-0.65 J0.623
X174.105 Y50.677 Z-1.395 I0.65 J-0.623
X172.805 Y51.923 Z-1.494 I-0.65 J0.623
X174.105 Y50.677 Z-1.592 I0.65 J-0.623
X172.805 Y51.923 Z-1.691 I-0.65 J0.623
X174.105 Y50.677 Z-1.79 I0.65 J-0.623
X172.805 Y51.923 Z-1.889 I-0.65 J0.623
X174.105 Y50.677 Z-1.987 I0.65 J-0.623
X172.805 Y51.923 Z-2.086 I-0.65 J0.623
X174.105 Y50.677 Z-2.185 I0.65 J-0.623
X172.805 Y51.923 Z-2.284 I-0.65 J0.623
X174.105 Y50.677 Z-2.382 I0.65 J-0.623
X172.805 Y51.923 Z-2.481 I-0.65 J0.623
X174.105 Y50.677 Z-2.58 I0.65 J-0.623
X172.805 Y51.923 Z-2.679 I-0.65 J0.623
X174.105 Y50.677 Z-2.777 I0.65 J-0.623
X172.805 Y51.923 Z-2.876 I-0.65 J0.623
X172.555 Y51.3 Z-2.9 I0.65 J-0.623
X173.355 Y51.3 I0.4 J0 F1000
X171.555 Y51.3 I-0.9 J0
X174.355 Y51.3 I1.4 J0
X170.555 Y51.3 I-1.9 J0
X175.355 Y51.3 I2.4 J0
X169.555 Y51.3 I-2.9 J0
X175.355 Y51.3 I2.9 J0
G1 X175.349 Y51.349 Z-2.887
X175.331 Y51.396 Z-2.873
X175.31 Y51.426 Z-2.837
X175.285 Y51.452 Z-2.8
X175.263 Y51.468 Z-2.7
G0 Z5
X177.102 Y69.248
Z3
G1 Z2 F1000
Z-0.8 F333.3
X177.08 Y69.232 Z-0.9
X177.055 Y69.206 Z-0.937
X177.034 Y69.176 Z-0.973
X177.016 Y69.129 Z-0.987
X177.01 Y69.08 Z-1
G3 X178.31 Y69.08 I0.65 J0 F1000
X177.01 Y69.08 I-0.65 J0
X178.31 Y69.08 Z-1.071 I0.65 J0 F333.3
X177.01 Y69.08 Z-1.143 I-0.65 J0
X178.31 Y69.08 Z-1.214 I0.65 J0
X177.01 Y69.08 Z-1.285 I-0.65 J0
X178.31 Y69.08 Z-1.357 I0.65 J0
X177.01 Y69.08 Z-1.428 I-0.65 J0
X178.31 Y69.08 Z-1.499 I0.65 J0
X177.01 Y69.08 Z-1.57 I-0.65 J0
X178.31 Y69.08 Z-1.642 I0.65 J0
X177.01 Y69.08 Z-1.713 I-0.65 J0
X178.31 Y69.08 Z-1.784 I0.65 J0
X177.01 Y69.08 Z-1.856 I-0.65 J0
X178.31 Y69.08 Z-1.927 I0.65 J0
X177.636 Y69.73 Z-1.964 I-0.65 J0
X177.012 Y69.032 Z-2 I0.024 J-0.65
X178.308 Y69.128 I0.648 J0.048 F1000
X177.012 Y69.032 I-0.648 J-0.048
X178.308 Y69.128 Z-2.071 I0.648 J0.048 F333.3
X177.012 Y69.032 Z-2.143 I-0.648 J-0.048
X178.308 Y69.128 Z-2.214 I0.648 J0.048
X177.012 Y69.032 Z-2.285 I-0.648 J-0.048
X178.308 Y69.128 Z-2.357 I0.648 J0.048
X177.012 Y69.032 Z-2.428 I-0.648 J-0.048
X178.308 Y69.128 Z-2.499 I0.648 J0.048
X177.012 Y69.032 Z-2.57 I-0.648 J-0.048
X178.308 Y69.128 Z-2.642 I0.648 J0.048
X177.012 Y69.032 Z-2.713 I-0.648 J-0.048
X178.308 Y69.128 Z-2.784 I0.648 J0.048
X177.012 Y69.032 Z-2.856 I-0.648 J-0.048
X177.945 Y68.496 Z-2.9 I0.648 J0.048
X177.375 Y69.664 I-0.285 J0.584 F1000
X177.945 Y68.496 I0.285 J-0.584
G1 X177.987 Y68.523 Z-2.887
X178.02 Y68.56 Z-2.873
X178.039 Y68.591 Z-2.837
X178.051 Y68.626 Z-2.8
X178.056 Y68.652 Z-2.7
G0 Z5
X157.221 Y64.487
Z3
G1 Z1.2 F1000
X157.208 Y64.509 Z1.102 F333.3
X157.167 Y64.566 Z1.029
X157.103 Y64.639 Z1
G3 X155.807 Y63.391 Z0.901 I-0.648 J-0.624
X157.103 Y64.639 Z0.803 I0.648 J0.624
X155.807 Y63.391 Z0.704 I-0.648 J-0.624
X157.103 Y64.639 Z0.605 I0.648 J0.624
X155.807 Y63.391 Z0.506 I-0.648 J-0.624
X157.103 Y64.639 Z0.408 I0.648 J0.624
X155.807 Y63.391 Z0.309 I-0.648 J-0.624
X157.103 Y64.639 Z0.21 I0.648 J0.624
X155.807 Y63.391 Z0.111 I-0.648 J-0.624
X157.103 Y64.639 Z0.013 I0.648 J0.624
X155.807 Y63.391 Z-0.086 I-0.648 J-0.624
X157.103 Y64.639 Z-0.185 I0.648 J0.624
X155.807 Y63.391 Z-0.284 I-0.648 J-0.624
X157.103 Y64.639 Z-0.382 I0.648 J0.624
X155.807 Y63.391 Z-0.481 I-0.648 J-0.624
X157.103 Y64.639 Z-0.58 I0.648 J0.624
X155.807 Y63.391 Z-0.679 I-0.648 J-0.624
X157.103 Y64.639 Z-0.777 I0.648 J0.624
X155.807 Y63.391 Z-0.876 I-0.648 J-0.624
X157.103 Y64.639 Z-0.975 I0.648 J0.624
X156.455 Y64.915 Z-1 I-0.648 J-0.624
X156.455 Y64.355 I0 J-0.28 F1000
G1 X164.575
G3 X164.575 Y64.915 I0 J0.28
G1 X156.455
G2 X156.066 Y65.12 I0 J0.471
G3 X155.627 Y65.101 I-0.214 J-0.146
X156.455 Y63.685 I0.828 J-0.466
G1 X164.575
G3 X164.575 Y65.585 I0 J0.95
G1 X156.455
G3 X155.627 Y65.101 I0 J-0.95
G2 X155.031 Y64.742 I-0.616 J0.347
G3 X154.608 Y64.189 I0.012 J-0.448
X156.455 Y62.735 I1.847 J0.446
G1 X164.575
G3 X164.575 Y66.535 I0 J1.9
G1 X156.455
G3 X154.608 Y64.189 I0 J-1.9
G1 X154.626 Y64.142 Z-0.987
X154.654 Y64.101 Z-0.973
X154.681 Y64.077 Z-0.937
X154.712 Y64.057 Z-0.9
X154.737 Y64.047 Z-0.8
G0 Z5
X157.221 Y64.487
Z3
G1 Z0.2 F1000
X157.208 Y64.509 Z0.102 F333.3
X157.167 Y64.566 Z0.029
X157.103 Y64.639 Z0
G3 X155.807 Y63.391 Z-0.099 I-0.648 J-0.624
X157.103 Y64.639 Z-0.197 I0.648 J0.624
X155.807 Y63.391 Z-0.296 I-0.648 J-0.624
X157.103 Y64.639 Z-0.395 I0.648 J0.624
X155.807 Y63.391 Z-0.494 I-0.648 J-0.624
X157.103 Y64.639 Z-0.592 I0.648 J0.624
X155.807 Y63.391 Z-0.691 I-0.648 J-0.624
X157.103 Y64.639 Z-0.79 I0.648 J0.624
X155.807 Y63.391 Z-0.889 I-0.648 J-0.624
X157.103 Y64.639 Z-0.987 I0.648 J0.624
X155.807 Y63.391 Z-1.086 I-0.648 J-0.624
X157.103 Y64.639 Z-1.185 I0.648 J0.624
X155.807 Y63.391 Z-1.284 I-0.648 J-0.624
X157.103 Y64.639 Z-1.382 I0.648 J0.624
X155.807 Y63.391 Z-1.481 I-0.648 J-0.624
X157.103 Y64.639 Z-1.58 I0.648 J0.624
X155.807 Y63.391 Z-1.679 I-0.648 J-0.624
X157.103 Y64.639 Z-1.777 I0.648 J0.624
X155.807 Y63.391 Z-1.876 I-0.648 J-0.624
X157.103 Y64.639 Z-1.975 I0.648 J0.624
X156.455 Y64.915 Z-2 I-0.648 J-0.624
X156.455 Y64.355 I0 J-0.28 F1000
G1 X164.575
G3 X164.575 Y64.915 I0 J0.28
G1 X156.455
G2 X156.066 Y65.12 I0 J0.471
G3 X155.627 Y65.101 I-0.214 J-0.146
X156.455 Y63.685 I0.828 J-0.466
G1 X164.575
G3 X164.575 Y65.585 I0 J0.95
G1 X156.455
G3 X155.627 Y65.101 I0 J-0.95
G2 X155.031 Y64.742 I-0.616 J0.347
G3 X154.608 Y64.189 I0.012 J-0.448
X156.455 Y62.735 I1.847 J0.446
G1 X164.575
G3 X164.575 Y66.535 I0 J1.9
G1 X156.455
G3 X154.608 Y64.189 I0 J-1.9
G1 X154.626 Y64.142 Z-1.987
X154.654 Y64.101 Z-1.973
X154.681 Y64.077 Z-1.937
X154.712 Y64.057 Z-1.9
X154.737 Y64.047 Z-1.8
G0 Z5
X155.708 Y63.513
Z3
G1 Z-0.8 F1000
X155.715 Y63.503 Z-0.868 F333.3
X155.735 Y63.475 Z-0.928
X155.776 Y63.424 Z-0.98
X155.832 Y63.365 Z-1
G3 X157.078 Y64.665 Z-1.099 I0.623 J0.65
X155.832 Y63.365 Z-1.197 I-0.623 J-0.65
X157.078 Y64.665 Z-1.296 I0.623 J0.65
X155.832 Y63.365 Z-1.395 I-0.623 J-0.65
X157.078 Y64.665 Z-1.494 I0.623 J0.65
X155.832 Y63.365 Z-1.592 I-0.623 J-0.65
X157.078 Y64.665 Z-1.691 I0.623 J0.65
X155.832 Y63.365 Z-1.79 I-0.623 J-0.65
X157.078 Y64.665 Z-1.889 I0.623 J0.65
X155.832 Y63.365 Z-1.987 I-0.623 J-0.65
X157.078 Y64.665 Z-2.086 I0.623 J0.65
X155.832 Y63.365 Z-2.185 I-0.623 J-0.65
X157.078 Y64.665 Z-2.284 I0.623 J0.65
X155.832 Y63.365 Z-2.382 I-0.623 J-0.65
X157.078 Y64.665 Z-2.481 I0.623 J0.65
X155.832 Y63.365 Z-2.58 I-0.623 J-0.65
X157.078 Y64.665 Z-2.679 I0.623 J0.65
X155.832 Y63.365 Z-2.777 I-0.623 J-0.65
X157.078 Y64.665 Z-2.876 I0.623 J0.65
X156.455 Y64.915 Z-2.9 I-0.623 J-0.65
X156.455 Y64.355 I0 J-0.28 F1000
G1 X164.575
G3 X164.575 Y64.915 I0 J0.28
G1 X156.455
G2 X156.066 Y65.12 I0 J0.471
G3 X155.627 Y65.101 I-0.214 J-0.146
X156.455 Y63.685 I0.828 J-0.466
G1 X164.575
G3 X164.575 Y65.585 I0 J0.95
G1 X156.455
G3 X155.627 Y65.101 I0 J-0.95
G2 X155.031 Y64.742 I-0.616 J0.347
G3 X154.608 Y64.189 I0.012 J-0.448
X156.455 Y62.735 I1.847 J0.446
G1 X164.575
G3 X164.575 Y66.535 I0 J1.9
G1 X156.455
G3 X154.608 Y64.189 I0 J-1.9
G1 X154.626 Y64.142 Z-2.887
X154.654 Y64.101 Z-2.873
X154.681 Y64.077 Z-2.837
X154.712 Y64.057 Z-2.8
X154.737 Y64.047 Z-2.7
G0 Z5
X143.508 Y63.194
Z3
G1 Z1.2 F1000
X143.487 Y63.181 Z1.102 F333.3
X143.43 Y63.14 Z1.029
X143.356 Y63.076 Z1
G3 X144.605 Y61.78 Z0.901 I0.624 J-0.648
X143.356 Y63.076 Z0.803 I-0.624 J0.648
X144.605 Y61.78 Z0.704 I0.624 J-0.648
X143.356 Y63.076 Z0.605 I-0.624 J0.648
X144.605 Y61.78 Z0.506 I0.624 J-0.648
X143.356 Y63.076 Z0.408 I-0.624 J0.648
X144.605 Y61.78 Z0.309 I0.624 J-0.648
X143.356 Y63.076 Z0.21 I-0.624 J0.648
X144.605 Y61.78 Z0.111 I0.624 J-0.648
X143.356 Y63.076 Z0.013 I-0.624 J0.648
X144.605 Y61.78 Z-0.086 I0.624 J-0.648
X143.356 Y63.076 Z-0.185 I-0.624 J0.648
X144.605 Y61.78 Z-0.284 I0.624 J-0.648
X143.356 Y63.076 Z-0.382 I-0.624 J0.648
X144.605 Y61.78 Z-0.481 I0.624 J-0.648
X143.356 Y63.076 Z-0.58 I-0.624 J0.648
X144.605 Y61.78 Z-0.679 I0.624 J-0.648
X143.356 Y63.076 Z-0.777 I-0.624 J0.648
X144.605 Y61.78 Z-0.876 I0.624 J-0.648
X143.356 Y63.076 Z-0.975 I-0.624 J0.648
X143.081 Y62.428 Z-1 I0.624 J-0.648
X144.318 Y62.428 I0.619 J0
X144.018 Y62.428 I-0.15 J0 F1000
X145.318 Y62.428 I0.65 J0
X143.018 Y62.428 I-1.15 J0
X145.318 Y62.428 I1.15 J0
G1 X145.312 Y62.477 Z-0.987
X145.294 Y62.524 Z-0.973
X145.273 Y62.554 Z-0.937
X145.248 Y62.58 Z-0.9
X145.226 Y62.596 Z-0.8
G0 Z5
X143.508 Y63.194
Z3
G1 Z0.2 F1000
X143.487 Y63.181 Z0.102 F333.3
X143.43 Y63.14 Z0.029
X143.356 Y63.076 Z0
G3 X144.605 Y61.78 Z-0.099 I0.624 J-0.648
X143.356 Y63.076 Z-0.197 I-0.624 J0.648
X144.605 Y61.78 Z-0.296 I0.624 J-0.648
X143.356 Y63.076 Z-0.395 I-0.624 J0.648
X144.605 Y61.78 Z-0.494 I0.624 J-0.648
X143.356 Y63.076 Z-0.592 I-0.624 J0.648
X144.605 Y61.78 Z-0.691 I0.624 J-0.648
X143.356 Y63.076 Z-0.79 I-0.624 J0.648
X144.605 Y61.78 Z-0.889 I0.624 J-0.648
X143.356 Y63.076 Z-0.987 I-0.624 J0.648
X144.605 Y61.78 Z-1.086 I0.624 J-0.648
X143.356 Y63.076 Z-1.185 I-0.624 J0.648
X144.605 Y61.78 Z-1.284 I0.624 J-0.648
X143.356 Y63.076 Z-1.382 I-0.624 J0.648
X144.605 Y61.78 Z-1.481 I0.624 J-0.648
X143.356 Y63.076 Z-1.58 I-0.624 J0.648
X144.605 Y61.78 Z-1.679 I0.624 J-0.648
X143.356 Y63.076 Z-1.777 I-0.624 J0.648
X144.605 Y61.78 Z-1.876 I0.624 J-0.648
X143.356 Y63.076 Z-1.975 I-0.624 J0.648
X143.081 Y62.428 Z-2 I0.624 J-0.648
X144.318 Y62.428 I0.619 J0
X144.018 Y62.428 I-0.15 J0 F1000
X145.318 Y62.428 I0.65 J0
X143.018 Y62.428 I-1.15 J0
X145.318 Y62.428 I1.15 J0
G1 X145.312 Y62.477 Z-1.987
X145.294 Y62.524 Z-1.973
X145.273 Y62.554 Z-1.937
X145.248 Y62.58 Z-1.9
X145.226 Y62.596 Z-1.8
G0 Z5
X144.483 Y61.681
Z3
G1 Z-0.8 F1000
X144.493 Y61.688 Z-0.868 F333.3
X144.52 Y61.708 Z-0.928
X144.572 Y61.749 Z-0.98
X144.63 Y61.805 Z-1
G3 X143.331 Y63.051 Z-1.099 I-0.65 J0.623
X144.63 Y61.805 Z-1.197 I0.65 J-0.623
X143.331 Y63.051 Z-1.296 I-0.65 J0.623
X144.63 Y61.805 Z-1.395 I0.65 J-0.623
X143.331 Y63.051 Z-1.494 I-0.65 J0.623
X144.63 Y61.805 Z-1.592 I0.65 J-0.623
X143.331 Y63.051 Z-1.691 I-0.65 J0.623
X144.63 Y61.805 Z-1.79 I0.65 J-0.623
X143.331 Y63.051 Z-1.889 I-0.65 J0.623
X144.63 Y61.805 Z-1.987 I0.65 J-0.623
X143.331 Y63.051 Z-2.086 I-0.65 J0.623
X144.63 Y61.805 Z-2.185 I0.65 J-0.623
X143.331 Y63.051 Z-2.284 I-0.65 J0.623
X144.63 Y61.805 Z-2.382 I0.65 J-0.623
X143.331 Y63.051 Z-2.481 I-0.65 J0.623
X144.63 Y61.805 Z-2.58 I0.65 J-0.623
X143.331 Y63.051 Z-2.679 I-0.65 J0.623
X144.63 Y61.805 Z-2.777 I0.65 J-0.623
X143.331 Y63.051 Z-2.876 I-0.65 J0.623
X143.081 Y62.428 Z-2.9 I0.65 J-0.623
X144.318 Y62.428 I0.619 J0
X144.018 Y62.428 I-0.15 J0 F1000
X145.318 Y62.428 I0.65 J0
X143.018 Y62.428 I-1.15 J0
X145.318 Y62.428 I1.15 J0
G1 X145.312 Y62.477 Z-2.887
X145.294 Y62.524 Z-2.873
X145.273 Y62.554 Z-2.837
X145.248 Y62.58 Z-2.8
X145.226 Y62.596 Z-2.7
G0 Z5
X130.809 Y63.194
Z3
G1 Z1.2 F1000
X130.787 Y63.181 Z1.102 F333.3
X130.73 Y63.14 Z1.029
X130.656 Y63.076 Z1
G3 X131.905 Y61.78 Z0.901 I0.624 J-0.648
X130.656 Y63.076 Z0.803 I-0.624 J0.648
X131.905 Y61.78 Z0.704 I0.624 J-0.648
X130.656 Y63.076 Z0.605 I-0.624 J0.648
X131.905 Y61.78 Z0.506 I0.624 J-0.648
X130.656 Y63.076 Z0.408 I-0.624 J0.648
X131.905 Y61.78 Z0.309 I0.624 J-0.648
X130.656 Y63.076 Z0.21 I-0.624 J0.648
X131.905 Y61.78 Z0.111 I0.624 J-0.648
X130.656 Y63.076 Z0.013 I-0.624 J0.648
X131.905 Y61.78 Z-0.086 I0.624 J-0.648
X130.656 Y63.076 Z-0.185 I-0.624 J0.648
X131.905 Y61.78 Z-0.284 I0.624 J-0.648
X130.656 Y63.076 Z-0.382 I-0.624 J0.648
X131.905 Y61.78 Z-0.481 I0.624 J-0.648
X130.656 Y63.076 Z-0.58 I-0.624 J0.648
X131.905 Y61.78 Z-0.679 I0.624 J-0.648
X130.656 Y63.076 Z-0.777 I-0.624 J0.648
X131.905 Y61.78 Z-0.876 I0.624 J-0.648
X130.656 Y63.076 Z-0.975 I-0.624 J0.648
X130.38 Y62.428 Z-1 I0.624 J-0.648
X131.618 Y62.428 I0.619 J0
X131.318 Y62.428 I-0.15 J0 F1000
X132.618 Y62.428 I0.65 J0
X130.318 Y62.428 I-1.15 J0
X132.618 Y62.428 I1.15 J0
G1 X132.612 Y62.477 Z-0.987
X132.594 Y62.524 Z-0.973
X132.573 Y62.554 Z-0.937
X132.548 Y62.58 Z-0.9
X132.526 Y62.596 Z-0.8
G0 Z5
X130.809 Y63.194
Z3
G1 Z0.2 F1000
X130.787 Y63.181 Z0.102 F333.3
X130.73 Y63.14 Z0.029
X130.656 Y63.076 Z0
G3 X131.905 Y61.78 Z-0.099 I0.624 J-0.648
X130.656 Y63.076 Z-0.197 I-0.624 J0.648
X131.905 Y61.78 Z-0.296 I0.624 J-0.648
X130.656 Y63.076 Z-0.395 I-0.624 J0.648
X131.905 Y61.78 Z-0.494 I0.624 J-0.648
X130.656 Y63.076 Z-0.592 I-0.624 J0.648
X131.905 Y61.78 Z-0.691 I0.624 J-0.648
X130.656 Y63.076 Z-0.79 I-0.624 J0.648
X131.905 Y61.78 Z-0.889 I0.624 J-0.648
X130.656 Y63.076 Z-0.987 I-0.624 J0.648
X131.905 Y61.78 Z-1.086 I0.624 J-0.648
X130.656 Y63.076 Z-1.185 I-0.624 J0.648
X131.905 Y61.78 Z-1.284 I0.624 J-0.648
X130.656 Y63.076 Z-1.382 I-0.624 J0.648
X131.905 Y61.78 Z-1.481 I0.624 J-0.648
X130.656 Y63.076 Z-1.58 I-0.624 J0.648
X131.905 Y61.78 Z-1.679 I0.624 J-0.648
X130.656 Y63.076 Z-1.777 I-0.624 J0.648
X131.905 Y61.78 Z-1.876 I0.624 J-0.648
X130.656 Y63.076 Z-1.975 I-0.624 J0.648
X130.38 Y62.428 Z-2 I0.624 J-0.648
X131.618 Y62.428 I0.619 J0
X131.318 Y62.428 I-0.15 J0 F1000
X132.618 Y62.428 I0.65 J0
X130.318 Y62.428 I-1.15 J0
X132.618 Y62.428 I1.15 J0
G1 X132.612 Y62.477 Z-1.987
X132.594 Y62.524 Z-1.973
X132.573 Y62.554 Z-1.937
X132.548 Y62.58 Z-1.9
X132.526 Y62.596 Z-1.8
G0 Z5
X131.783 Y61.681
Z3
G1 Z-0.8 F1000
X131.793 Y61.688 Z-0.868 F333.3
X131.82 Y61.708 Z-0.928
X131.872 Y61.749 Z-0.98
X131.93 Y61.805 Z-1
G3 X130.631 Y63.051 Z-1.099 I-0.65 J0.623
X131.93 Y61.805 Z-1.197 I0.65 J-0.623
X130.631 Y63.051 Z-1.296 I-0.65 J0.623
X131.93 Y61.805 Z-1.395 I0.65 J-0.623
X130.631 Y63.051 Z-1.494 I-0.65 J0.623
X131.93 Y61.805 Z-1.592 I0.65 J-0.623
X130.631 Y63.051 Z-1.691 I-0.65 J0.623
X131.93 Y61.805 Z-1.79 I0.65 J-0.623
X130.631 Y63.051 Z-1.889 I-0.65 J0.623
X131.93 Y61.805 Z-1.987 I0.65 J-0.623
X130.631 Y63.051 Z-2.086 I-0.65 J0.623
X131.93 Y61.805 Z-2.185 I0.65 J-0.623
X130.631 Y63.051 Z-2.284 I-0.65 J0.623
X131.93 Y61.805 Z-2.382 I0.65 J-0.623
X130.631 Y63.051 Z-2.481 I-0.65 J0.623
X131.93 Y61.805 Z-2.58 I0.65 J-0.623
X130.631 Y63.051 Z-2.679 I-0.65 J0.623
X131.93 Y61.805 Z-2.777 I0.65 J-0.623
X130.631 Y63.051 Z-2.876 I-0.65 J0.623
X130.38 Y62.428 Z-2.9 I0.65 J-0.623
X131.618 Y62.428 I0.619 J0
X131.318 Y62.428 I-0.15 J0 F1000
X132.618 Y62.428 I0.65 J0
X130.318 Y62.428 I-1.15 J0
X132.618 Y62.428 I1.15 J0
G1 X132.612 Y62.477 Z-2.887
X132.594 Y62.524 Z-2.873
X132.573 Y62.554 Z-2.837
X132.548 Y62.58 Z-2.8
X132.526 Y62.596 Z-2.7
G0 Z5
X132.067 Y54.496
Z3
G1 Z1.2 F1000
X132.08 Y54.474 Z1.102 F333.3
X132.121 Y54.417 Z1.029
X132.185 Y54.344 Z1
G3 X133.481 Y55.592 Z0.901 I0.648 J0.624
X132.185 Y54.344 Z0.803 I-0.648 J-0.624
X133.481 Y55.592 Z0.704 I0.648 J0.624
X132.185 Y54.344 Z0.605 I-0.648 J-0.624
X133.481 Y55.592 Z0.506 I0.648 J0.624
X132.185 Y54.344 Z0.408 I-0.648 J-0.624
X133.481 Y55.592 Z0.309 I0.648 J0.624
X132.185 Y54.344 Z0.21 I-0.648 J-0.624
X133.481 Y55.592 Z0.111 I0.648 J0.624
X132.185 Y54.344 Z0.013 I-0.648 J-0.624
X133.481 Y55.592 Z-0.086 I0.648 J0.624
X132.185 Y54.344 Z-0.185 I-0.648 J-0.624
X133.481 Y55.592 Z-0.284 I0.648 J0.624
X132.185 Y54.344 Z-0.382 I-0.648 J-0.624
X133.481 Y55.592 Z-0.481 I0.648 J0.624
X132.185 Y54.344 Z-0.58 I-0.648 J-0.624
X133.481 Y55.592 Z-0.679 I0.648 J0.624
X132.185 Y54.344 Z-0.777 I-0.648 J-0.624
X133.481 Y55.592 Z-0.876 I0.648 J0.624
X132.185 Y54.344 Z-0.975 I-0.648 J-0.624
X132.833 Y54.068 Z-1 I0.648 J0.624
G1 X140.953 F1000
G3 X140.953 Y54.628 I0 J0.28
G1 X132.833
G3 X132.833 Y54.068 I0 J-0.28
G2 X133.335 Y53.733 I0 J-0.544
G3 X133.838 Y53.398 I0.503 J0.209
G1 X140.953
G3 X140.953 Y55.298 I0 J0.95
G1 X132.833
G3 X132.833 Y53.398 I0 J-0.95
G1 X133.838
G2 X134.551 Y52.923 I0 J-0.772
G3 X135.263 Y52.448 I0.712 J0.297
G1 X140.953
G3 X140.953 Y56.248 I0 J1.9
G1 X132.833
G3 X132.833 Y52.448 I0 J-1.9
G1 X135.263
X135.312 Y52.454 Z-0.987
X135.359 Y52.472 Z-0.973
X135.389 Y52.493 Z-0.937
X135.415 Y52.518 Z-0.9
X135.431 Y52.54 Z-0.8
G0 Z5
X132.067 Y54.496
Z3
G1 Z0.2 F1000
X132.08 Y54.474 Z0.102 F333.3
X132.121 Y54.417 Z0.029
X132.185 Y54.344 Z0
G3 X133.481 Y55.592 Z-0.099 I0.648 J0.624
X132.185 Y54.344 Z-0.197 I-0.648 J-0.624
X133.481 Y55.592 Z-0.296 I0.648 J0.624
X132.185 Y54.344 Z-0.395 I-0.648 J-0.624
X133.481 Y55.592 Z-0.494 I0.648 J0.624
X132.185 Y54.344 Z-0.592 I-0.648 J-0.624
X133.481 Y55.592 Z-0.691 I0.648 J0.624
X132.185 Y54.344 Z-0.79 I-0.648 J-0.624
X133.481 Y55.592 Z-0.889 I0.648 J0.624
X132.185 Y54.344 Z-0.987 I-0.648 J-0.624
X133.481 Y55.592 Z-1.086 I0.648 J0.624
X132.185 Y54.344 Z-1.185 I-0.648 J-0.624
X133.481 Y55.592 Z-1.284 I0.648 J0.624
X132.185 Y54.344 Z-1.382 I-0.648 J-0.624
X133.481 Y55.592 Z-1.481 I0.648 J0.624
X132.185 Y54.344 Z-1.58 I-0.648 J-0.624
X133.481 Y55.592 Z-1.679 I0.648 J0.624
X132.185 Y54.344 Z-1.777 I-0.648 J-0.624
X133.481 Y55.592 Z-1.876 I0.648 J0.624
X132.185 Y54.344 Z-1.975 I-0.648 J-0.624
X132.833 Y54.068 Z-2 I0.648 J0.624
G1 X140.953 F1000
G3 X140.953 Y54.628 I0 J0.28
G1 X132.833
G3 X132.833 Y54.068 I0 J-0.28
G2 X133.335 Y53.733 I0 J-0.544
G3 X133.838 Y53.398 I0.503 J0.209
G1 X140.953
G3 X140.953 Y55.298 I0 J0.95
G1 X132.833
G3 X132.833 Y53.398 I0 J-0.95
G1 X133.838
G2 X134.551 Y52.923 I0 J-0.772
G3 X135.263 Y52.448 I0.712 J0.297
G1 X140.953
G3 X140.953 Y56.248 I0 J1.9
G1 X132.833
G3 X132.833 Y52.448 I0 J-1.9
G1 X135.263
X135.312 Y52.454 Z-1.987
X135.359 Y52.472 Z-1.973
X135.389 Y52.493 Z-1.937
X135.415 Y52.518 Z-1.9
X135.431 Y52.54 Z-1.8
G0 Z5
X133.58 Y55.47
Z3
G1 Z-0.8 F1000
X133.573 Y55.48 Z-0.868 F333.3
X133.553 Y55.508 Z-0.928
X133.512 Y55.559 Z-0.98
X133.456 Y55.618 Z-1
G3 X132.21 Y54.318 Z-1.099 I-0.623 J-0.65
X133.456 Y55.618 Z-1.197 I0.623 J0.65
X132.21 Y54.318 Z-1.296 I-0.623 J-0.65
X133.456 Y55.618 Z-1.395 I0.623 J0.65
X132.21 Y54.318 Z-1.494 I-0.623 J-0.65
X133.456 Y55.618 Z-1.592 I0.623 J0.65
X132.21 Y54.318 Z-1.691 I-0.623 J-0.65
X133.456 Y55.618 Z-1.79 I0.623 J0.65
X132.21 Y54.318 Z-1.889 I-0.623 J-0.65
X133.456 Y55.618 Z-1.987 I0.623 J0.65
X132.21 Y54.318 Z-2.086 I-0.623 J-0.65
X133.456 Y55.618 Z-2.185 I0.623 J0.65
X132.21 Y54.318 Z-2.284 I-0.623 J-0.65
X133.456 Y55.618 Z-2.382 I0.623 J0.65
X132.21 Y54.318 Z-2.481 I-0.623 J-0.65
X133.456 Y55.618 Z-2.58 I0.623 J0.65
X132.21 Y54.318 Z-2.679 I-0.623 J-0.65
X133.456 Y55.618 Z-2.777 I0.623 J0.65
X132.21 Y54.318 Z-2.876 I-0.623 J-0.65
X132.833 Y54.068 Z-2.9 I0.623 J0.65
G1 X140.953 F1000
G3 X140.953 Y54.628 I0 J0.28
G1 X132.833
G3 X132.833 Y54.068 I0 J-0.28
G2 X133.335 Y53.733 I0 J-0.544
G3 X133.838 Y53.398 I0.503 J0.209
G1 X140.953
G3 X140.953 Y55.298 I0 J0.95
G1 X132.833
G3 X132.833 Y53.398 I0 J-0.95
G1 X133.838
G2 X134.551 Y52.923 I0 J-0.772
G3 X135.263 Y52.448 I0.712 J0.297
G1 X140.953
G3 X140.953 Y56.248 I0 J1.9
G1 X132.833
G3 X132.833 Y52.448 I0 J-1.9
G1 X135.263
X135.312 Y52.454 Z-2.887
X135.359 Y52.472 Z-2.873
X135.389 Y52.493 Z-2.837
X135.415 Y52.518 Z-2.8
X135.431 Y52.54 Z-2.7
G0 Z5
X127.516 Y51.554
Z3
G1 Z1.2 F1000
X127.494 Y51.541 Z1.102 F333.3
X127.437 Y51.5 Z1.029
X127.364 Y51.436 Z1
G3 X128.612 Y50.14 Z0.901 I0.624 J-0.648
X127.364 Y51.436 Z0.803 I-0.624 J0.648
X128.612 Y50.14 Z0.704 I0.624 J-0.648
X127.364 Y51.436 Z0.605 I-0.624 J0.648
X128.612 Y50.14 Z0.506 I0.624 J-0.648
X127.364 Y51.436 Z0.408 I-0.624 J0.648
X128.612 Y50.14 Z0.309 I0.624 J-0.648
X127.364 Y51.436 Z0.21 I-0.624 J0.648
X128.612 Y50.14 Z0.111 I0.624 J-0.648
X127.364 Y51.436 Z0.013 I-0.624 J0.648
X128.612 Y50.14 Z-0.086 I0.624 J-0.648
X127.364 Y51.436 Z-0.185 I-0.624 J0.648
X128.612 Y50.14 Z-0.284 I0.624 J-0.648
X127.364 Y51.436 Z-0.382 I-0.624 J0.648
X128.612 Y50.14 Z-0.481 I0.624 J-0.648
X127.364 Y51.436 Z-0.58 I-0.624 J0.648
X128.612 Y50.14 Z-0.679 I0.624 J-0.648
X127.364 Y51.436 Z-0.777 I-0.624 J0.648
X128.612 Y50.14 Z-0.876 I0.624 J-0.648
X127.364 Y51.436 Z-0.975 I-0.624 J0.648
X127.088 Y50.788 Z-1 I0.624 J-0.648
G1 Y29.968 F1000
G3 X127.648 Y29.968 I0.28 J0
G1 Y50.788
G3 X127.088 Y50.788 I-0.28 J0
G2 X126.753 Y50.285 I-0.544 J0
G3 X126.418 Y49.783 I0.209 J-0.502
G1 Y29.968
G3 X128.318 Y29.968 I0.95 J0
G1 Y50.788
G3 X126.418 Y50.788 I-0.95 J0
G1 Y49.783
G2 X125.943 Y49.07 I-0.772 J0
G3 X125.468 Y48.358 I0.297 J-0.712
G1 Y29.968
G3 X129.268 Y29.968 I1.9 J0
G1 Y50.788
G3 X125.468 Y50.788 I-1.9 J0
G1 Y48.358
X125.474 Y48.309 Z-0.987
X125.492 Y48.262 Z-0.973
X125.513 Y48.232 Z-0.937
X125.538 Y48.206 Z-0.9
X125.56 Y48.19 Z-0.8
G0 Z5
X127.516 Y51.554
Z3
G1 Z0.2 F1000
X127.494 Y51.541 Z0.102 F333.3
X127.437 Y51.5 Z0.029
X127.364 Y51.436 Z0
G3 X128.612 Y50.14 Z-0.099 I0.624 J-0.648
X127.364 Y51.436 Z-0.197 I-0.624 J0.648
X128.612 Y50.14 Z-0.296 I0.624 J-0.648
X127.364 Y51.436 Z-0.395 I-0.624 J0.648
X128.612 Y50.14 Z-0.494 I0.624 J-0.648
X127.364 Y51.436 Z-0.592 I-0.624 J0.648
X128.612 Y50.14 Z-0.691 I0.624 J-0.648
X127.364 Y51.436 Z-0.79 I-0.624 J0.648
X128.612 Y50.14 Z-0.889 I0.624 J-0.648
X127.364 Y51.436 Z-0.987 I-0.624 J0.648
X128.612 Y50.14 Z-1.086 I0.624 J-0.648
X127.364 Y51.436 Z-1.185 I-0.624 J0.648
X128.612 Y50.14 Z-1.284 I0.624 J-0.648
X127.364 Y51.436 Z-1.382 I-0.624 J0.648
X128.612 Y50.14 Z-1.481 I0.624 J-0.648
X127.364 Y51.436 Z-1.58 I-0.624 J0.648
X128.612 Y50.14 Z-1.679 I0.624 J-0.648
X127.364 Y51.436 Z-1.777 I-0.624 J0.648
X128.612 Y50.14 Z-1.876 I0.624 J-0.648
X127.364 Y51.436 Z-1.975 I-0.624 J0.648
X127.088 Y50.788 Z-2 I0.624 J-0.648
G1 Y29.968 F1000
G3 X127.648 Y29.968 I0.28 J0
G1 Y50.788
G3 X127.088 Y50.788 I-0.28 J0
G2 X126.753 Y50.285 I-0.544 J0
G3 X126.418 Y49.783 I0.209 J-0.502
G1 Y29.968
G3 X128.318 Y29.968 I0.95 J0
G1 Y50.788
G3 X126.418 Y50.788 I-0.95 J0
G1 Y49.783
G2 X125.943 Y49.07 I-0.772 J0
G3 X125.468 Y48.358 I0.297 J-0.712
G1 Y29.968
G3 X129.268 Y29.968 I1.9 J0
G1 Y50.788
G3 X125.468 Y50.788 I-1.9 J0
G1 Y48.358
X125.474 Y48.309 Z-1.987
X125.492 Y48.262 Z-1.973
X125.513 Y48.232 Z-1.937
X125.538 Y48.206 Z-1.9
X125.56 Y48.19 Z-1.8
G0 Z5
X128.49 Y50.041
Z3
G1 Z-0.8 F1000
X128.5 Y50.048 Z-0.868 F333.3
X128.528 Y50.068 Z-0.928
X128.579 Y50.109 Z-0.98
X128.638 Y50.165 Z-1
G3 X127.338 Y51.411 Z-1.099 I-0.65 J0.623
X128.638 Y50.165 Z-1.197 I0.65 J-0.623
X127.338 Y51.411 Z-1.296 I-0.65 J0.623
X128.638 Y50.165 Z-1.395 I0.65 J-0.623
X127.338 Y51.411 Z-1.494 I-0.65 J0.623
X128.638 Y50.165 Z-1.592 I0.65 J-0.623
X127.338 Y51.411 Z-1.691 I-0.65 J0.623
X128.638 Y50.165 Z-1.79 I0.65 J-0.623
X127.338 Y51.411 Z-1.889 I-0.65 J0.623
X128.638 Y50.165 Z-1.987 I0.65 J-0.623
X127.338 Y51.411 Z-2.086 I-0.65 J0.623
X128.638 Y50.165 Z-2.185 I0.65 J-0.623
X127.338 Y51.411 Z-2.284 I-0.65 J0.623
X128.638 Y50.165 Z-2.382 I0.65 J-0.623
X127.338 Y51.411 Z-2.481 I-0.65 J0.623
X128.638 Y50.165 Z-2.58 I0.65 J-0.623
X127.338 Y51.411 Z-2.679 I-0.65 J0.623
X128.638 Y50.165 Z-2.777 I0.65 J-0.623
X127.338 Y51.411 Z-2.876 I-0.65 J0.623
X127.088 Y50.788 Z-2.9 I0.65 J-0.623
G1 Y29.968 F1000
G3 X127.648 Y29.968 I0.28 J0
G1 Y50.788
G3 X127.088 Y50.788 I-0.28 J0
G2 X126.753 Y50.285 I-0.544 J0
G3 X126.418 Y49.783 I0.209 J-0.502
G1 Y29.968
G3 X128.318 Y29.968 I0.95 J0
G1 Y50.788
G3 X126.418 Y50.788 I-0.95 J0
G1 Y49.783
G2 X125.943 Y49.07 I-0.772 J0
G3 X125.468 Y48.358 I0.297 J-0.712
G1 Y29.968
G3 X129.268 Y29.968 I1.9 J0
G1 Y50.788
G3 X125.468 Y50.788 I-1.9 J0
G1 Y48.358
X125.474 Y48.309 Z-2.887
X125.492 Y48.262 Z-2.873
X125.513 Y48.232 Z-2.837
X125.538 Y48.206 Z-2.8
X125.56 Y48.19 Z-2.7
G0 Z5
X30.032 Y69.248
Z3
G1 Z2 F1000
Z-0.8 F333.3
X30.01 Y69.232 Z-0.9
X29.985 Y69.206 Z-0.937
X29.964 Y69.176 Z-0.973
X29.946 Y69.129 Z-0.987
X29.94 Y69.08 Z-1
G3 X30.74 Y69.08 I0.4 J0 F1000
X29.94 Y69.08 I-0.4 J0
X30.74 Y69.08 Z-1.044 I0.4 J0 F333.3
X29.94 Y69.08 Z-1.088 I-0.4 J0
X30.74 Y69.08 Z-1.132 I0.4 J0
X29.94 Y69.08 Z-1.176 I-0.4 J0
X30.74 Y69.08 Z-1.219 I0.4 J0
X29.94 Y69.08 Z-1.263 I-0.4 J0
X30.74 Y69.08 Z-1.307 I0.4 J0
X29.94 Y69.08 Z-1.351 I-0.4 J0
X30.74 Y69.08 Z-1.395 I0.4 J0
X29.94 Y69.08 Z-1.439 I-0.4 J0
X30.74 Y69.08 Z-1.483 I0.4 J0
X29.94 Y69.08 Z-1.527 I-0.4 J0
X30.74 Y69.08 Z-1.57 I0.4 J0
X29.94 Y69.08 Z-1.614 I-0.4 J0
X30.74 Y69.08 Z-1.658 I0.4 J0
X29.94 Y69.08 Z-1.702 I-0.4 J0
X30.74 Y69.08 Z-1.746 I0.4 J0
X29.94 Y69.08 Z-1.79 I-0.4 J0
X30.74 Y69.08 Z-1.834 I0.4 J0
X29.94 Y69.08 Z-1.878 I-0.4 J0
X30.74 Y69.08 Z-1.922 I0.4 J0
X29.94 Y69.08 Z-1.965 I-0.4 J0
X30.655 Y68.833 Z-2 I0.4 J0
X30.025 Y69.327 I-0.315 J0.247 F1000
X30.655 Y68.833 I0.315 J-0.247
X30.025 Y69.327 Z-2.044 I-0.315 J0.247 F333.3
X30.655 Y68.833 Z-2.088 I0.315 J-0.247
X30.025 Y69.327 Z-2.132 I-0.315 J0.247
X30.655 Y68.833 Z-2.176 I0.315 J-0.247
X30.025 Y69.327 Z-2.219 I-0.315 J0.247
X30.655 Y68.833 Z-2.263 I0.315 J-0.247
X30.025 Y69.327 Z-2.307 I-0.315 J0.247
X30.655 Y68.833 Z-2.351 I0.315 J-0.247
X30.025 Y69.327 Z-2.395 I-0.315 J0.247
X30.655 Y68.833 Z-2.439 I0.315 J-0.247
X30.025 Y69.327 Z-2.483 I-0.315 J0.247
X30.655 Y68.833 Z-2.527 I0.315 J-0.247
X30.025 Y69.327 Z-2.57 I-0.315 J0.247
X30.655 Y68.833 Z-2.614 I0.315 J-0.247
X30.025 Y69.327 Z-2.658 I-0.315 J0.247
X30.655 Y68.833 Z-2.702 I0.315 J-0.247
X30.025 Y69.327 Z-2.746 I-0.315 J0.247
X30.655 Y68.833 Z-2.79 I0.315 J-0.247
X30.025 Y69.327 Z-2.834 I-0.315 J0.247
X30.655 Y68.833 Z-2.878 I0.315 J-0.247
X30.578 Y69.402 Z-2.9 I-0.315 J0.247
X30.102 Y68.758 I-0.238 J-0.322 F1000
X30.578 Y69.402 I0.238 J0.322
G1 X30.534 Y69.426 Z-2.887
X30.486 Y69.439 Z-2.873
X30.45 Y69.441 Z-2.837
X30.414 Y69.436 Z-2.8
X30.388 Y69.428 Z-2.7
G0 Z15
M9
G28 G91 Z0
G90
G28 G91 X0 Y0
G90
M5
M30
