(CAM_AcrilicoEntrenador)
(T1  D=3 CR=0 - ZMIN=-2.9 - flat end mill)
G90 G94
G17
G21
G28 G91 Z0
G90

(FaltaUnHollo)
T1 M6
S5000 M3
G54
M8
G0 X108.54 Y36.418
Z15
Z5
G1 Z2.5 F1000
Z-2.6 F333.3
X108.559 Y36.431 Z-2.715
X108.606 Y36.475 Z-2.812
X108.635 Y36.515 Z-2.845
X108.656 Y36.558 Z-2.877
X108.673 Y36.613 Z-2.889
X108.678 Y36.67 Z-2.9
G3 X107.378 Y36.67 I-0.65 J0 F1000
X108.678 Y36.67 I0.65 J0
G1 X108.673 Y36.727 Z-2.889
X108.656 Y36.782 Z-2.877
X108.635 Y36.825 Z-2.845
X108.606 Y36.865 Z-2.812
X108.559 Y36.909 Z-2.715
X108.54 Y36.922 Z-2.6
G0 Z5
X107.776 Y47.565
G1 Z2.5 F1000
Z-2.6 F333.3
X107.789 Y47.546 Z-2.715
X107.833 Y47.499 Z-2.812
X107.873 Y47.47 Z-2.845
X107.916 Y47.449 Z-2.877
X107.971 Y47.432 Z-2.889
X108.028 Y47.427 Z-2.9
G3 X108.028 Y48.727 I0 J0.65 F1000
X108.028 Y47.427 I0 J-0.65
G1 X108.085 Y47.432 Z-2.889
X108.14 Y47.449 Z-2.877
X108.183 Y47.47 Z-2.845
X108.223 Y47.499 Z-2.812
X108.267 Y47.546 Z-2.715
X108.28 Y47.565 Z-2.6
G0 Z5
X99.883 Y61.718
G1 Z2.8 F1000
X99.91 Y61.744 Z2.653 F333.3
X99.982 Y61.822 Z2.544
X100.07 Y61.938 Z2.5
G3 X98.916 Y64.13 Z2.394 I-1.154 J0.792
G1 X78.096 Z1.667
G3 X78.096 Y61.33 Z1.513 I0 J-1.4
G1 X98.916 Z0.786
G3 X98.916 Y64.13 Z0.633 I0 J1.4
G1 X78.096 Z-0.095
G3 X78.096 Y61.33 Z-0.248 I0 J-1.4
G1 X98.916 Z-0.975
G3 X98.916 Y64.13 Z-1.129 I0 J1.4
G1 X78.096 Z-1.856
G3 X78.096 Y61.33 Z-2.009 I0 J-1.4
G1 X98.916 Z-2.736
G3 X98.916 Y64.13 Z-2.89 I0 J1.4
G1 X98.631 Z-2.9
X78.096 F1000
G3 X78.096 Y61.33 I0 J-1.4
G1 X98.916
G3 X98.916 Y64.13 I0 J1.4
G1 X98.631
X98.574 Y64.125 Z-2.889
X98.519 Y64.108 Z-2.877
X98.476 Y64.087 Z-2.845
X98.436 Y64.058 Z-2.812
X98.392 Y64.011 Z-2.715
X98.379 Y63.992 Z-2.6
G0 Z5
X128.38 Y51.755
G1 Z2.8 F1000
X128.354 Y51.782 Z2.653 F333.3
X128.276 Y51.854 Z2.544
X128.16 Y51.942 Z2.5
G3 X125.968 Y50.788 Z2.394 I-0.792 J-1.154
G1 Y29.968 Z1.667
G3 X128.768 Y29.968 Z1.513 I1.4 J0
G1 Y50.788 Z0.786
G3 X125.968 Y50.788 Z0.633 I-1.4 J0
G1 Y29.968 Z-0.095
G3 X128.768 Y29.968 Z-0.248 I1.4 J0
G1 Y50.788 Z-0.975
G3 X125.968 Y50.788 Z-1.129 I-1.4 J0
G1 Y29.968 Z-1.856
G3 X128.768 Y29.968 Z-2.009 I1.4 J0
G1 Y50.788 Z-2.736
G3 X125.968 Y50.788 Z-2.89 I-1.4 J0
G1 Y50.503 Z-2.9
Y29.968 F1000
G3 X128.768 Y29.968 I1.4 J0
G1 Y50.788
G3 X125.968 Y50.788 I-1.4 J0
G1 Y50.503
X125.973 Y50.446 Z-2.889
X125.99 Y50.391 Z-2.877
X126.011 Y50.348 Z-2.845
X126.04 Y50.308 Z-2.812
X126.087 Y50.264 Z-2.715
X126.106 Y50.251 Z-2.6
G0 Z5
X132.856 Y55.748
G1 Z2.8 F1000
X132.85 Z2.741 F333.3
X132.833 Z2.684
X132.77 Y55.747 Z2.59
X132.677 Y55.739 Z2.525
X132.568 Y55.723 Z2.5
G3 X132.833 Y52.948 Z2.356 I0.265 J-1.375
G1 X140.953 Z2.072
G3 X140.953 Y55.748 Z1.919 I0 J1.4
G1 X132.833 Z1.635
G3 X132.833 Y52.948 Z1.481 I0 J-1.4
G1 X140.953 Z1.198
G3 X140.953 Y55.748 Z1.044 I0 J1.4
G1 X132.833 Z0.761
G3 X132.833 Y52.948 Z0.607 I0 J-1.4
G1 X140.953 Z0.324
G3 X140.953 Y55.748 Z0.17 I0 J1.4
G1 X132.833 Z-0.114
G3 X132.833 Y52.948 Z-0.267 I0 J-1.4
G1 X140.953 Z-0.551
G3 X140.953 Y55.748 Z-0.704 I0 J1.4
G1 X132.833 Z-0.988
G3 X132.833 Y52.948 Z-1.141 I0 J-1.4
G1 X140.953 Z-1.425
G3 X140.953 Y55.748 Z-1.579 I0 J1.4
G1 X132.833 Z-1.862
G3 X132.833 Y52.948 Z-2.016 I0 J-1.4
G1 X140.953 Z-2.299
G3 X140.953 Y55.748 Z-2.453 I0 J1.4
G1 X132.833 Z-2.736
G3 X132.833 Y52.948 Z-2.89 I0 J-1.4
G1 X133.118 Z-2.9
X140.953 F1000
G3 X140.953 Y55.748 I0 J1.4
G1 X132.833
G3 X132.833 Y52.948 I0 J-1.4
G1 X133.118
X133.175 Y52.953 Z-2.889
X133.23 Y52.97 Z-2.877
X133.274 Y52.991 Z-2.845
X133.313 Y53.02 Z-2.812
X133.357 Y53.067 Z-2.715
X133.37 Y53.086 Z-2.6
G0 Z5
X131.72 Y62.94
G1 Z2.5 F1000
Z-2.6 F333.3
X131.707 Y62.959 Z-2.715
X131.663 Y63.006 Z-2.812
X131.623 Y63.035 Z-2.845
X131.58 Y63.056 Z-2.877
X131.525 Y63.073 Z-2.889
X131.468 Y63.078 Z-2.9
G3 X131.468 Y61.778 I0 J-0.65 F1000
X131.468 Y63.078 I0 J0.65
G1 X131.411 Y63.073 Z-2.889
X131.356 Y63.056 Z-2.877
X131.312 Y63.035 Z-2.845
X131.273 Y63.006 Z-2.812
X131.229 Y62.959 Z-2.715
X131.216 Y62.94 Z-2.6
G0 Z5
X143.656 Y62.68
G1 Z2.5 F1000
Z-2.6 F333.3
X143.637 Y62.667 Z-2.715
X143.59 Y62.623 Z-2.812
X143.561 Y62.583 Z-2.845
X143.54 Y62.54 Z-2.877
X143.523 Y62.485 Z-2.889
X143.518 Y62.428 Z-2.9
G3 X144.818 Y62.428 I0.65 J0 F1000
X143.518 Y62.428 I-0.65 J0
G1 X143.523 Y62.371 Z-2.889
X143.54 Y62.316 Z-2.877
X143.561 Y62.273 Z-2.845
X143.59 Y62.233 Z-2.812
X143.637 Y62.189 Z-2.715
X143.656 Y62.176 Z-2.6
G0 Z5
X160.877 Y66.035
G1 Z2.8 F1000
G18 G3 X160.587 Z2.5 I-0.3 K0 F333.3
G1 X156.455 Z2.356
G17 G3 X156.455 Y63.235 Z2.202 I0 J-1.4
G1 X164.575 Z1.919
G3 X164.575 Y66.035 Z1.765 I0 J1.4
G1 X156.455 Z1.481
G3 X156.455 Y63.235 Z1.328 I0 J-1.4
G1 X164.575 Z1.044
G3 X164.575 Y66.035 Z0.891 I0 J1.4
G1 X156.455 Z0.607
G3 X156.455 Y63.235 Z0.454 I0 J-1.4
G1 X164.575 Z0.17
G3 X164.575 Y66.035 Z0.016 I0 J1.4
G1 X156.455 Z-0.267
G3 X156.455 Y63.235 Z-0.421 I0 J-1.4
G1 X164.575 Z-0.704
G3 X164.575 Y66.035 Z-0.858 I0 J1.4
G1 X156.455 Z-1.141
G3 X156.455 Y63.235 Z-1.295 I0 J-1.4
G1 X164.575 Z-1.579
G3 X164.575 Y66.035 Z-1.732 I0 J1.4
G1 X156.455 Z-2.016
G3 X156.455 Y63.235 Z-2.169 I0 J-1.4
G1 X164.575 Z-2.453
G3 X164.575 Y66.035 Z-2.606 I0 J1.4
G1 X156.455 Z-2.89
G3 X156.172 Y66.006 Z-2.9 I0 J-1.4
X156.455 Y63.235 I0.283 J-1.371 F1000
G1 X164.575
G3 X164.575 Y66.035 I0 J1.4
G1 X156.455
G3 X156.172 Y66.006 I0 J-1.4
G1 X156.117 Y65.989 Z-2.889
X156.067 Y65.962 Z-2.877
X156.028 Y65.932 Z-2.845
X155.996 Y65.896 Z-2.812
X155.962 Y65.841 Z-2.715
X155.953 Y65.82 Z-2.6
G0 Z5
X177.51 Y69.08
G1 Z2.5 F1000
Z-2.9 F333.3
G3 X177.81 Y69.08 I0.15 J0 F1000
X177.51 Y69.08 I-0.15 J0
G1 X177.516 Y69.037 Z-2.89
X177.535 Y68.998 Z-2.88
X177.564 Y68.965 Z-2.87
X177.593 Y68.946 Z-2.842
X177.625 Y68.934 Z-2.814
X177.66 Y68.93 Z-2.786
X177.707 Y68.938 Z-2.698
X177.722 Y68.944 Z-2.6
G0 Z5
X172.925 Y49.954
G1 Z2.8 F1000
X172.961 Y49.942 Z2.653 F333.3
X173.063 Y49.914 Z2.544
X173.206 Y49.887 Z2.5
G3 X173.579 Y52.713 Z2.344 I0.187 J1.413
X173.206 Y49.887 Z2.187 I-0.187 J-1.413
X173.579 Y52.713 Z2.031 I0.187 J1.413
X173.206 Y49.887 Z1.875 I-0.187 J-1.413
X173.579 Y52.713 Z1.718 I0.187 J1.413
X173.206 Y49.887 Z1.562 I-0.187 J-1.413
X173.579 Y52.713 Z1.406 I0.187 J1.413
X173.206 Y49.887 Z1.249 I-0.187 J-1.413
X173.579 Y52.713 Z1.093 I0.187 J1.413
X173.206 Y49.887 Z0.937 I-0.187 J-1.413
X173.579 Y52.713 Z0.78 I0.187 J1.413
X173.206 Y49.887 Z0.624 I-0.187 J-1.413
X173.579 Y52.713 Z0.468 I0.187 J1.413
X173.206 Y49.887 Z0.311 I-0.187 J-1.413
X173.579 Y52.713 Z0.155 I0.187 J1.413
X173.206 Y49.887 Z-0.001 I-0.187 J-1.413
X173.579 Y52.713 Z-0.158 I0.187 J1.413
X173.206 Y49.887 Z-0.314 I-0.187 J-1.413
X173.579 Y52.713 Z-0.47 I0.187 J1.413
X173.206 Y49.887 Z-0.627 I-0.187 J-1.413
X173.579 Y52.713 Z-0.783 I0.187 J1.413
X173.206 Y49.887 Z-0.939 I-0.187 J-1.413
X173.579 Y52.713 Z-1.096 I0.187 J1.413
X173.206 Y49.887 Z-1.252 I-0.187 J-1.413
X173.579 Y52.713 Z-1.408 I0.187 J1.413
X173.206 Y49.887 Z-1.565 I-0.187 J-1.413
X173.579 Y52.713 Z-1.721 I0.187 J1.413
X173.206 Y49.887 Z-1.877 I-0.187 J-1.413
X173.579 Y52.713 Z-2.034 I0.187 J1.413
X173.206 Y49.887 Z-2.19 I-0.187 J-1.413
X173.579 Y52.713 Z-2.346 I0.187 J1.413
X173.206 Y49.887 Z-2.503 I-0.187 J-1.413
X173.579 Y52.713 Z-2.659 I0.187 J1.413
X173.206 Y49.887 Z-2.815 I-0.187 J-1.413
X174.818 Y51.3 Z-2.9 I0.187 J1.413
X172.905 Y51.3 I-0.956 J0
X174.855 Y51.3 I0.975 J0 F1000
X170.055 Y51.3 I-2.4 J0
X174.855 Y51.3 I2.4 J0
G1 X174.85 Y51.357 Z-2.889
X174.833 Y51.412 Z-2.877
X174.812 Y51.455 Z-2.845
X174.783 Y51.495 Z-2.812
X174.736 Y51.539 Z-2.715
X174.717 Y51.552 Z-2.6
G0 Z5
X172.925 Y27.104
G1 Z2.8 F1000
X172.961 Y27.092 Z2.653 F333.3
X173.063 Y27.064 Z2.544
X173.206 Y27.037 Z2.5
G3 X173.579 Y29.863 Z2.344 I0.187 J1.413
X173.206 Y27.037 Z2.187 I-0.187 J-1.413
X173.579 Y29.863 Z2.031 I0.187 J1.413
X173.206 Y27.037 Z1.875 I-0.187 J-1.413
X173.579 Y29.863 Z1.718 I0.187 J1.413
X173.206 Y27.037 Z1.562 I-0.187 J-1.413
X173.579 Y29.863 Z1.406 I0.187 J1.413
X173.206 Y27.037 Z1.249 I-0.187 J-1.413
X173.579 Y29.863 Z1.093 I0.187 J1.413
X173.206 Y27.037 Z0.937 I-0.187 J-1.413
X173.579 Y29.863 Z0.78 I0.187 J1.413
X173.206 Y27.037 Z0.624 I-0.187 J-1.413
X173.579 Y29.863 Z0.468 I0.187 J1.413
X173.206 Y27.037 Z0.311 I-0.187 J-1.413
X173.579 Y29.863 Z0.155 I0.187 J1.413
X173.206 Y27.037 Z-0.001 I-0.187 J-1.413
X173.579 Y29.863 Z-0.158 I0.187 J1.413
X173.206 Y27.037 Z-0.314 I-0.187 J-1.413
X173.579 Y29.863 Z-0.47 I0.187 J1.413
X173.206 Y27.037 Z-0.627 I-0.187 J-1.413
X173.579 Y29.863 Z-0.783 I0.187 J1.413
X173.206 Y27.037 Z-0.939 I-0.187 J-1.413
X173.579 Y29.863 Z-1.096 I0.187 J1.413
X173.206 Y27.037 Z-1.252 I-0.187 J-1.413
X173.579 Y29.863 Z-1.408 I0.187 J1.413
X173.206 Y27.037 Z-1.565 I-0.187 J-1.413
X173.579 Y29.863 Z-1.721 I0.187 J1.413
X173.206 Y27.037 Z-1.877 I-0.187 J-1.413
X173.579 Y29.863 Z-2.034 I0.187 J1.413
X173.206 Y27.037 Z-2.19 I-0.187 J-1.413
X173.579 Y29.863 Z-2.346 I0.187 J1.413
X173.206 Y27.037 Z-2.503 I-0.187 J-1.413
X173.579 Y29.863 Z-2.659 I0.187 J1.413
X173.206 Y27.037 Z-2.815 I-0.187 J-1.413
X174.818 Y28.45 Z-2.9 I0.187 J1.413
X172.905 Y28.45 I-0.956 J0
X174.855 Y28.45 I0.975 J0 F1000
X170.055 Y28.45 I-2.4 J0
X174.855 Y28.45 I2.4 J0
G1 X174.85 Y28.507 Z-2.889
X174.833 Y28.562 Z-2.877
X174.812 Y28.605 Z-2.845
X174.783 Y28.645 Z-2.812
X174.736 Y28.689 Z-2.715
X174.717 Y28.702 Z-2.6
G0 Z5
X177.51 Y14.47
G1 Z2.5 F1000
Z-2.9 F333.3
G3 X177.81 Y14.47 I0.15 J0 F1000
X177.51 Y14.47 I-0.15 J0
G1 X177.516 Y14.427 Z-2.89
X177.535 Y14.388 Z-2.88
X177.564 Y14.355 Z-2.87
X177.593 Y14.336 Z-2.842
X177.625 Y14.324 Z-2.814
X177.66 Y14.32 Z-2.786
X177.707 Y14.328 Z-2.698
X177.722 Y14.334 Z-2.6
G0 Z5
X143.971 Y21.476
G1 Z2.5 F1000
Z-2.6 F333.3
X143.984 Y21.457 Z-2.715
X144.028 Y21.41 Z-2.812
X144.068 Y21.381 Z-2.845
X144.111 Y21.36 Z-2.877
X144.166 Y21.343 Z-2.889
X144.223 Y21.338 Z-2.9
G3 X144.223 Y22.638 I0 J0.65 F1000
X144.223 Y21.338 I0 J-0.65
G1 X144.28 Y21.343 Z-2.889
X144.335 Y21.36 Z-2.877
X144.378 Y21.381 Z-2.845
X144.418 Y21.41 Z-2.812
X144.462 Y21.457 Z-2.715
X144.475 Y21.476 Z-2.6
G0 Z5
X131.775 Y22.5
G1 Z2.5 F1000
Z-2.6 F333.3
X131.762 Y22.519 Z-2.715
X131.718 Y22.566 Z-2.812
X131.679 Y22.595 Z-2.845
X131.635 Y22.616 Z-2.877
X131.58 Y22.633 Z-2.889
X131.523 Y22.638 Z-2.9
G3 X131.523 Y21.338 I0 J-0.65 F1000
X131.523 Y22.638 I0 J0.65
G1 X131.466 Y22.633 Z-2.889
X131.411 Y22.616 Z-2.877
X131.368 Y22.595 Z-2.845
X131.328 Y22.566 Z-2.812
X131.284 Y22.519 Z-2.715
X131.271 Y22.5 Z-2.6
G0 Z5
X84.743 Y20.69
G1 Z2.8 F1000
G18 G2 X85.033 Z2.5 I0.3 K0 F333.3
G1 X98.916 Z2.015
G17 G3 X98.916 Y23.49 Z1.862 I0 J1.4
G1 X80.636 Z1.223
G3 X80.636 Y20.69 Z1.07 I0 J-1.4
G1 X98.916 Z0.431
G3 X98.916 Y23.49 Z0.278 I0 J1.4
G1 X80.636 Z-0.361
G3 X80.636 Y20.69 Z-0.514 I0 J-1.4
G1 X98.916 Z-1.153
G3 X98.916 Y23.49 Z-1.306 I0 J1.4
G1 X80.636 Z-1.945
G3 X80.636 Y20.69 Z-2.098 I0 J-1.4
G1 X98.916 Z-2.736
G3 X98.916 Y23.49 Z-2.89 I0 J1.4
G1 X98.631 Z-2.9
X80.636 F1000
G3 X80.636 Y20.69 I0 J-1.4
G1 X98.916
G3 X98.916 Y23.49 I0 J1.4
G1 X98.631
X98.574 Y23.485 Z-2.889
X98.519 Y23.468 Z-2.877
X98.476 Y23.447 Z-2.845
X98.436 Y23.418 Z-2.812
X98.392 Y23.371 Z-2.715
X98.379 Y23.352 Z-2.6
G0 Z5
X54.263 Y20.69
G1 Z2.8 F1000
G18 G2 X54.553 Z2.5 I0.3 K0 F333.3
G1 X68.436 Z2.015
G17 G3 X68.436 Y23.49 Z1.862 I0 J1.4
G1 X50.156 Z1.223
G3 X50.156 Y20.69 Z1.07 I0 J-1.4
G1 X68.436 Z0.431
G3 X68.436 Y23.49 Z0.278 I0 J1.4
G1 X50.156 Z-0.361
G3 X50.156 Y20.69 Z-0.514 I0 J-1.4
G1 X68.436 Z-1.153
G3 X68.436 Y23.49 Z-1.306 I0 J1.4
G1 X50.156 Z-1.945
G3 X50.156 Y20.69 Z-2.098 I0 J-1.4
G1 X68.436 Z-2.736
G3 X68.436 Y23.49 Z-2.89 I0 J1.4
G1 X68.151 Z-2.9
X50.156 F1000
G3 X50.156 Y20.69 I0 J-1.4
G1 X68.436
G3 X68.436 Y23.49 I0 J1.4
G1 X68.151
X68.094 Y23.485 Z-2.889
X68.039 Y23.468 Z-2.877
X67.996 Y23.447 Z-2.845
X67.956 Y23.418 Z-2.812
X67.912 Y23.371 Z-2.715
X67.899 Y23.352 Z-2.6
G0 Z5
X40.751 Y22.539
G1 Z2.8 F1000
G19 G2 Y22.249 Z2.5 J-0.3 K0 F333.3
G1 Y19.55 Z2.406
G17 G3 X43.551 Y19.55 Z2.252 I1.4 J0
G1 Y24.63 Z2.075
G3 X40.751 Y24.63 Z1.921 I-1.4 J0
G1 Y19.55 Z1.744
G3 X43.551 Y19.55 Z1.59 I1.4 J0
G1 Y24.63 Z1.413
G3 X40.751 Y24.63 Z1.259 I-1.4 J0
G1 Y19.55 Z1.082
G3 X43.551 Y19.55 Z0.928 I1.4 J0
G1 Y24.63 Z0.751
G3 X40.751 Y24.63 Z0.597 I-1.4 J0
G1 Y19.55 Z0.42
G3 X43.551 Y19.55 Z0.266 I1.4 J0
G1 Y24.63 Z0.089
G3 X40.751 Y24.63 Z-0.065 I-1.4 J0
G1 Y19.55 Z-0.242
G3 X43.551 Y19.55 Z-0.396 I1.4 J0
G1 Y24.63 Z-0.573
G3 X40.751 Y24.63 Z-0.727 I-1.4 J0
G1 Y19.55 Z-0.904
G3 X43.551 Y19.55 Z-1.058 I1.4 J0
G1 Y24.63 Z-1.235
G3 X40.751 Y24.63 Z-1.389 I-1.4 J0
G1 Y19.55 Z-1.566
G3 X43.551 Y19.55 Z-1.72 I1.4 J0
G1 Y24.63 Z-1.897
G3 X40.751 Y24.63 Z-2.051 I-1.4 J0
G1 Y19.55 Z-2.228
G3 X43.551 Y19.55 Z-2.382 I1.4 J0
G1 Y24.63 Z-2.559
G3 X40.751 Y24.63 Z-2.713 I-1.4 J0
G1 Y19.55 Z-2.89
G3 X40.78 Y19.267 Z-2.9 I1.4 J0
X43.551 Y19.55 I1.371 J0.283 F1000
G1 Y24.63
G3 X40.751 Y24.63 I-1.4 J0
G1 Y19.55
G3 X40.78 Y19.267 I1.4 J0
G1 X40.797 Y19.212 Z-2.889
X40.824 Y19.162 Z-2.877
X40.854 Y19.123 Z-2.845
X40.89 Y19.091 Z-2.812
X40.945 Y19.057 Z-2.715
X40.966 Y19.048 Z-2.6
G0 Z5
X30.34 Y14.62
G1 Z2.5 F1000
Z-2.9 F333.3
G3 X30.34 Y14.32 I0 J-0.15 F1000
X30.34 Y14.62 I0 J0.15
G1 X30.297 Y14.614 Z-2.89
X30.258 Y14.595 Z-2.88
X30.225 Y14.566 Z-2.87
X30.206 Y14.537 Z-2.842
X30.194 Y14.505 Z-2.814
X30.19 Y14.47 Z-2.786
X30.198 Y14.423 Z-2.698
X30.204 Y14.408 Z-2.6
G0 Z5
X38.482 Y34.877
G1 Z2.8 F1000
X38.514 Y34.857 Z2.653 F333.3
X38.607 Y34.806 Z2.544
X38.741 Y34.748 Z2.5
G3 X40.63 Y36.06 Z2.406 I0.489 J1.312
G1 Y41.14 Z2.228
G3 X37.83 Y41.14 Z2.075 I-1.4 J0
G1 Y36.06 Z1.897
G3 X40.63 Y36.06 Z1.744 I1.4 J0
G1 Y41.14 Z1.566
G3 X37.83 Y41.14 Z1.413 I-1.4 J0
G1 Y36.06 Z1.235
G3 X40.63 Y36.06 Z1.082 I1.4 J0
G1 Y41.14 Z0.904
G3 X37.83 Y41.14 Z0.751 I-1.4 J0
G1 Y36.06 Z0.573
G3 X40.63 Y36.06 Z0.42 I1.4 J0
G1 Y41.14 Z0.242
G3 X37.83 Y41.14 Z0.089 I-1.4 J0
G1 Y36.06 Z-0.089
G3 X40.63 Y36.06 Z-0.242 I1.4 J0
G1 Y41.14 Z-0.42
G3 X37.83 Y41.14 Z-0.573 I-1.4 J0
G1 Y36.06 Z-0.751
G3 X40.63 Y36.06 Z-0.904 I1.4 J0
G1 Y41.14 Z-1.082
G3 X37.83 Y41.14 Z-1.235 I-1.4 J0
G1 Y36.06 Z-1.413
G3 X40.63 Y36.06 Z-1.566 I1.4 J0
G1 Y41.14 Z-1.743
G3 X37.83 Y41.14 Z-1.897 I-1.4 J0
G1 Y36.06 Z-2.074
G3 X40.63 Y36.06 Z-2.228 I1.4 J0
G1 Y41.14 Z-2.405
G3 X37.83 Y41.14 Z-2.559 I-1.4 J0
G1 Y36.06 Z-2.736
G3 X40.63 Y36.06 Z-2.89 I1.4 J0
G1 Y36.345 Z-2.9
Y41.14 F1000
G3 X37.83 Y41.14 I-1.4 J0
G1 Y36.06
G3 X40.63 Y36.06 I1.4 J0
G1 Y36.345
X40.625 Y36.402 Z-2.889
X40.608 Y36.457 Z-2.877
X40.587 Y36.5 Z-2.845
X40.558 Y36.54 Z-2.812
X40.511 Y36.584 Z-2.715
X40.492 Y36.597 Z-2.6
G0 Z5
X54.263 Y61.33
G1 Z2.8 F1000
G18 G2 X54.553 Z2.5 I0.3 K0 F333.3
G1 X68.436 Z2.015
G17 G3 X68.436 Y64.13 Z1.862 I0 J1.4
G1 X50.156 Z1.223
G3 X50.156 Y61.33 Z1.07 I0 J-1.4
G1 X68.436 Z0.431
G3 X68.436 Y64.13 Z0.278 I0 J1.4
G1 X50.156 Z-0.361
G3 X50.156 Y61.33 Z-0.514 I0 J-1.4
G1 X68.436 Z-1.153
G3 X68.436 Y64.13 Z-1.306 I0 J1.4
G1 X50.156 Z-1.945
G3 X50.156 Y61.33 Z-2.098 I0 J-1.4
G1 X68.436 Z-2.736
G3 X68.436 Y64.13 Z-2.89 I0 J1.4
G1 X68.151 Z-2.9
X50.156 F1000
G3 X50.156 Y61.33 I0 J-1.4
G1 X68.436
G3 X68.436 Y64.13 I0 J1.4
G1 X68.151
X68.094 Y64.125 Z-2.889
X68.039 Y64.108 Z-2.877
X67.996 Y64.087 Z-2.845
X67.956 Y64.058 Z-2.812
X67.912 Y64.011 Z-2.715
X67.899 Y63.992 Z-2.6
G0 Z15
M9
G28 G91 Z0
G90
G28 G91 X0 Y0
G90
M5
M30
