(1001)
(NoFaltaNingunHollo)
(T2  D=2 CR=0 - ZMIN=-2.9 - flat end mill)
G90 G94
G17
G21
G28 G91 Z0
G90

(FaltaUnHollo)
T2 M6
S5000 M3
G54
M8
G0 X108.496 Y37.287
Z15
Z3
G1 Z2.7 F1000
X108.482 Y37.301 Z2.613 F333.3
X108.442 Y37.339 Z2.544
X108.381 Y37.39 Z2.505
X108.349 Y37.412 Z2.5
G3 X107.332 Y35.928 Z2.401 I-0.509 J-0.742
X108.349 Y37.412 Z2.303 I0.509 J0.742
X107.332 Y35.928 Z2.204 I-0.509 J-0.742
X108.349 Y37.412 Z2.105 I0.509 J0.742
X107.332 Y35.928 Z2.006 I-0.509 J-0.742
X108.349 Y37.412 Z1.908 I0.509 J0.742
X107.332 Y35.928 Z1.809 I-0.509 J-0.742
X108.349 Y37.412 Z1.71 I0.509 J0.742
X107.332 Y35.928 Z1.611 I-0.509 J-0.742
X108.349 Y37.412 Z1.513 I0.509 J0.742
X107.332 Y35.928 Z1.414 I-0.509 J-0.742
X108.349 Y37.412 Z1.315 I0.509 J0.742
X107.332 Y35.928 Z1.216 I-0.509 J-0.742
X108.349 Y37.412 Z1.118 I0.509 J0.742
X107.332 Y35.928 Z1.019 I-0.509 J-0.742
X108.349 Y37.412 Z0.92 I0.509 J0.742
X107.332 Y35.928 Z0.821 I-0.509 J-0.742
X108.349 Y37.412 Z0.723 I0.509 J0.742
X107.332 Y35.928 Z0.624 I-0.509 J-0.742
X108.349 Y37.412 Z0.525 I0.509 J0.742
X107.332 Y35.928 Z0.427 I-0.509 J-0.742
X108.349 Y37.412 Z0.328 I0.509 J0.742
X107.332 Y35.928 Z0.229 I-0.509 J-0.742
X108.349 Y37.412 Z0.13 I0.509 J0.742
X107.332 Y35.928 Z0.032 I-0.509 J-0.742
X108.349 Y37.412 Z-0.067 I0.509 J0.742
X107.332 Y35.928 Z-0.166 I-0.509 J-0.742
X108.349 Y37.412 Z-0.265 I0.509 J0.742
X107.332 Y35.928 Z-0.363 I-0.509 J-0.742
X108.349 Y37.412 Z-0.462 I0.509 J0.742
X107.332 Y35.928 Z-0.561 I-0.509 J-0.742
X108.349 Y37.412 Z-0.66 I0.509 J0.742
X107.332 Y35.928 Z-0.758 I-0.509 J-0.742
X108.349 Y37.412 Z-0.857 I0.509 J0.742
X107.332 Y35.928 Z-0.956 I-0.509 J-0.742
X108.349 Y37.412 Z-1.055 I0.509 J0.742
X107.332 Y35.928 Z-1.153 I-0.509 J-0.742
X108.349 Y37.412 Z-1.252 I0.509 J0.742
X107.332 Y35.928 Z-1.351 I-0.509 J-0.742
X108.349 Y37.412 Z-1.449 I0.509 J0.742
X107.332 Y35.928 Z-1.548 I-0.509 J-0.742
X108.349 Y37.412 Z-1.647 I0.509 J0.742
X107.332 Y35.928 Z-1.746 I-0.509 J-0.742
X108.349 Y37.412 Z-1.844 I0.509 J0.742
X107.332 Y35.928 Z-1.943 I-0.509 J-0.742
X108.349 Y37.412 Z-2.042 I0.509 J0.742
X107.332 Y35.928 Z-2.141 I-0.509 J-0.742
X108.349 Y37.412 Z-2.239 I0.509 J0.742
X107.332 Y35.928 Z-2.338 I-0.509 J-0.742
X108.349 Y37.412 Z-2.437 I0.509 J0.742
X107.332 Y35.928 Z-2.536 I-0.509 J-0.742
X108.349 Y37.412 Z-2.634 I0.509 J0.742
X107.332 Y35.928 Z-2.733 I-0.509 J-0.742
X108.349 Y37.412 Z-2.832 I0.509 J0.742
X106.94 Y36.67 Z-2.9 I-0.509 J-0.742
X108.178 Y36.67 I0.619 J0
X107.878 Y36.67 I-0.15 J0 F1000
X109.178 Y36.67 I0.65 J0
X106.878 Y36.67 I-1.15 J0
X109.178 Y36.67 I1.15 J0
G1 X109.172 Y36.719 Z-2.887
X109.154 Y36.766 Z-2.873
X109.133 Y36.796 Z-2.837
X109.108 Y36.822 Z-2.8
X109.086 Y36.838 Z-2.7
G0 Z5
X108.496 Y48.694
Z3
G1 Z2.7 F1000
X108.482 Y48.708 Z2.613 F333.3
X108.442 Y48.746 Z2.544
X108.381 Y48.797 Z2.505
X108.349 Y48.819 Z2.5
G3 X107.332 Y47.335 Z2.401 I-0.509 J-0.742
X108.349 Y48.819 Z2.303 I0.509 J0.742
X107.332 Y47.335 Z2.204 I-0.509 J-0.742
X108.349 Y48.819 Z2.105 I0.509 J0.742
X107.332 Y47.335 Z2.006 I-0.509 J-0.742
X108.349 Y48.819 Z1.908 I0.509 J0.742
X107.332 Y47.335 Z1.809 I-0.509 J-0.742
X108.349 Y48.819 Z1.71 I0.509 J0.742
X107.332 Y47.335 Z1.611 I-0.509 J-0.742
X108.349 Y48.819 Z1.513 I0.509 J0.742
X107.332 Y47.335 Z1.414 I-0.509 J-0.742
X108.349 Y48.819 Z1.315 I0.509 J0.742
X107.332 Y47.335 Z1.216 I-0.509 J-0.742
X108.349 Y48.819 Z1.118 I0.509 J0.742
X107.332 Y47.335 Z1.019 I-0.509 J-0.742
X108.349 Y48.819 Z0.92 I0.509 J0.742
X107.332 Y47.335 Z0.821 I-0.509 J-0.742
X108.349 Y48.819 Z0.723 I0.509 J0.742
X107.332 Y47.335 Z0.624 I-0.509 J-0.742
X108.349 Y48.819 Z0.525 I0.509 J0.742
X107.332 Y47.335 Z0.427 I-0.509 J-0.742
X108.349 Y48.819 Z0.328 I0.509 J0.742
X107.332 Y47.335 Z0.229 I-0.509 J-0.742
X108.349 Y48.819 Z0.13 I0.509 J0.742
X107.332 Y47.335 Z0.032 I-0.509 J-0.742
X108.349 Y48.819 Z-0.067 I0.509 J0.742
X107.332 Y47.335 Z-0.166 I-0.509 J-0.742
X108.349 Y48.819 Z-0.265 I0.509 J0.742
X107.332 Y47.335 Z-0.363 I-0.509 J-0.742
X108.349 Y48.819 Z-0.462 I0.509 J0.742
X107.332 Y47.335 Z-0.561 I-0.509 J-0.742
X108.349 Y48.819 Z-0.66 I0.509 J0.742
X107.332 Y47.335 Z-0.758 I-0.509 J-0.742
X108.349 Y48.819 Z-0.857 I0.509 J0.742
X107.332 Y47.335 Z-0.956 I-0.509 J-0.742
X108.349 Y48.819 Z-1.055 I0.509 J0.742
X107.332 Y47.335 Z-1.153 I-0.509 J-0.742
X108.349 Y48.819 Z-1.252 I0.509 J0.742
X107.332 Y47.335 Z-1.351 I-0.509 J-0.742
X108.349 Y48.819 Z-1.449 I0.509 J0.742
X107.332 Y47.335 Z-1.548 I-0.509 J-0.742
X108.349 Y48.819 Z-1.647 I0.509 J0.742
X107.332 Y47.335 Z-1.746 I-0.509 J-0.742
X108.349 Y48.819 Z-1.844 I0.509 J0.742
X107.332 Y47.335 Z-1.943 I-0.509 J-0.742
X108.349 Y48.819 Z-2.042 I0.509 J0.742
X107.332 Y47.335 Z-2.141 I-0.509 J-0.742
X108.349 Y48.819 Z-2.239 I0.509 J0.742
X107.332 Y47.335 Z-2.338 I-0.509 J-0.742
X108.349 Y48.819 Z-2.437 I0.509 J0.742
X107.332 Y47.335 Z-2.536 I-0.509 J-0.742
X108.349 Y48.819 Z-2.634 I0.509 J0.742
X107.332 Y47.335 Z-2.733 I-0.509 J-0.742
X108.349 Y48.819 Z-2.832 I0.509 J0.742
X106.94 Y48.077 Z-2.9 I-0.509 J-0.742
X108.178 Y48.077 I0.619 J0
X107.878 Y48.077 I-0.15 J0 F1000
X109.178 Y48.077 I0.65 J0
X106.878 Y48.077 I-1.15 J0
X109.178 Y48.077 I1.15 J0
G1 X109.172 Y48.126 Z-2.887
X109.154 Y48.173 Z-2.873
X109.133 Y48.203 Z-2.837
X109.108 Y48.229 Z-2.8
X109.086 Y48.245 Z-2.7
G0 Z5
X98.299 Y64.005
Z3
G1 Z2.7 F1000
X98.285 Y63.991 Z2.613 F333.3
X98.247 Y63.952 Z2.544
X98.196 Y63.89 Z2.505
X98.174 Y63.859 Z2.5
G3 X99.658 Y62.841 Z2.401 I0.742 J-0.509
X98.174 Y63.859 Z2.303 I-0.742 J0.509
X99.658 Y62.841 Z2.204 I0.742 J-0.509
X98.174 Y63.859 Z2.105 I-0.742 J0.509
X99.658 Y62.841 Z2.006 I0.742 J-0.509
X98.174 Y63.859 Z1.908 I-0.742 J0.509
X99.658 Y62.841 Z1.809 I0.742 J-0.509
X98.174 Y63.859 Z1.71 I-0.742 J0.509
X99.658 Y62.841 Z1.611 I0.742 J-0.509
X98.174 Y63.859 Z1.513 I-0.742 J0.509
X99.658 Y62.841 Z1.414 I0.742 J-0.509
X98.174 Y63.859 Z1.315 I-0.742 J0.509
X99.658 Y62.841 Z1.216 I0.742 J-0.509
X98.174 Y63.859 Z1.118 I-0.742 J0.509
X99.658 Y62.841 Z1.019 I0.742 J-0.509
X98.174 Y63.859 Z0.92 I-0.742 J0.509
X99.658 Y62.841 Z0.821 I0.742 J-0.509
X98.174 Y63.859 Z0.723 I-0.742 J0.509
X99.658 Y62.841 Z0.624 I0.742 J-0.509
X98.174 Y63.859 Z0.525 I-0.742 J0.509
X99.658 Y62.841 Z0.427 I0.742 J-0.509
X98.174 Y63.859 Z0.328 I-0.742 J0.509
X99.658 Y62.841 Z0.229 I0.742 J-0.509
X98.174 Y63.859 Z0.13 I-0.742 J0.509
X99.658 Y62.841 Z0.032 I0.742 J-0.509
X98.174 Y63.859 Z-0.067 I-0.742 J0.509
X99.658 Y62.841 Z-0.166 I0.742 J-0.509
X98.174 Y63.859 Z-0.265 I-0.742 J0.509
X99.658 Y62.841 Z-0.363 I0.742 J-0.509
X98.174 Y63.859 Z-0.462 I-0.742 J0.509
X99.658 Y62.841 Z-0.561 I0.742 J-0.509
X98.174 Y63.859 Z-0.66 I-0.742 J0.509
X99.658 Y62.841 Z-0.758 I0.742 J-0.509
X98.174 Y63.859 Z-0.857 I-0.742 J0.509
X99.658 Y62.841 Z-0.956 I0.742 J-0.509
X98.174 Y63.859 Z-1.055 I-0.742 J0.509
X99.658 Y62.841 Z-1.153 I0.742 J-0.509
X98.174 Y63.859 Z-1.252 I-0.742 J0.509
X99.658 Y62.841 Z-1.351 I0.742 J-0.509
X98.174 Y63.859 Z-1.449 I-0.742 J0.509
X99.658 Y62.841 Z-1.548 I0.742 J-0.509
X98.174 Y63.859 Z-1.647 I-0.742 J0.509
X99.658 Y62.841 Z-1.746 I0.742 J-0.509
X98.174 Y63.859 Z-1.844 I-0.742 J0.509
X99.658 Y62.841 Z-1.943 I0.742 J-0.509
X98.174 Y63.859 Z-2.042 I-0.742 J0.509
X99.658 Y62.841 Z-2.141 I0.742 J-0.509
X98.174 Y63.859 Z-2.239 I-0.742 J0.509
X99.658 Y62.841 Z-2.338 I0.742 J-0.509
X98.174 Y63.859 Z-2.437 I-0.742 J0.509
X99.658 Y62.841 Z-2.536 I0.742 J-0.509
X98.174 Y63.859 Z-2.634 I-0.742 J0.509
X99.658 Y62.841 Z-2.733 I0.742 J-0.509
X98.174 Y63.859 Z-2.832 I-0.742 J0.509
X98.916 Y62.45 Z-2.9 I0.742 J-0.509
X98.916 Y63.01 I0 J0.28 F1000
G1 X78.096
G3 X78.096 Y62.45 I0 J-0.28
G1 X98.916
G2 X99.305 Y62.245 I0 J-0.471
G3 X99.744 Y62.264 I0.214 J0.146
X98.916 Y63.68 I-0.828 J0.466
G1 X78.096
G3 X78.096 Y61.78 I0 J-0.95
G1 X98.916
G3 X99.744 Y62.264 I0 J0.95
G2 X100.34 Y62.623 I0.616 J-0.347
G3 X100.763 Y63.176 I-0.012 J0.448
X98.916 Y64.63 I-1.847 J-0.446
G1 X78.096
G3 X78.096 Y60.83 I0 J-1.9
G1 X98.916
G3 X100.763 Y63.176 I0 J1.9
G1 X100.745 Y63.223 Z-2.887
X100.717 Y63.264 Z-2.873
X100.69 Y63.288 Z-2.837
X100.659 Y63.308 Z-2.8
X100.634 Y63.318 Z-2.7
G0 Z5
X128.643 Y51.405
Z3
G1 Z2.7 F1000
X128.629 Y51.419 Z2.613 F333.3
X128.59 Y51.457 Z2.544
X128.528 Y51.508 Z2.505
X128.497 Y51.53 Z2.5
G3 X127.479 Y50.046 Z2.401 I-0.509 J-0.742
X128.497 Y51.53 Z2.303 I0.509 J0.742
X127.479 Y50.046 Z2.204 I-0.509 J-0.742
X128.497 Y51.53 Z2.105 I0.509 J0.742
X127.479 Y50.046 Z2.006 I-0.509 J-0.742
X128.497 Y51.53 Z1.908 I0.509 J0.742
X127.479 Y50.046 Z1.809 I-0.509 J-0.742
X128.497 Y51.53 Z1.71 I0.509 J0.742
X127.479 Y50.046 Z1.611 I-0.509 J-0.742
X128.497 Y51.53 Z1.513 I0.509 J0.742
X127.479 Y50.046 Z1.414 I-0.509 J-0.742
X128.497 Y51.53 Z1.315 I0.509 J0.742
X127.479 Y50.046 Z1.216 I-0.509 J-0.742
X128.497 Y51.53 Z1.118 I0.509 J0.742
X127.479 Y50.046 Z1.019 I-0.509 J-0.742
X128.497 Y51.53 Z0.92 I0.509 J0.742
X127.479 Y50.046 Z0.821 I-0.509 J-0.742
X128.497 Y51.53 Z0.723 I0.509 J0.742
X127.479 Y50.046 Z0.624 I-0.509 J-0.742
X128.497 Y51.53 Z0.525 I0.509 J0.742
X127.479 Y50.046 Z0.427 I-0.509 J-0.742
X128.497 Y51.53 Z0.328 I0.509 J0.742
X127.479 Y50.046 Z0.229 I-0.509 J-0.742
X128.497 Y51.53 Z0.13 I0.509 J0.742
X127.479 Y50.046 Z0.032 I-0.509 J-0.742
X128.497 Y51.53 Z-0.067 I0.509 J0.742
X127.479 Y50.046 Z-0.166 I-0.509 J-0.742
X128.497 Y51.53 Z-0.265 I0.509 J0.742
X127.479 Y50.046 Z-0.363 I-0.509 J-0.742
X128.497 Y51.53 Z-0.462 I0.509 J0.742
X127.479 Y50.046 Z-0.561 I-0.509 J-0.742
X128.497 Y51.53 Z-0.66 I0.509 J0.742
X127.479 Y50.046 Z-0.758 I-0.509 J-0.742
X128.497 Y51.53 Z-0.857 I0.509 J0.742
X127.479 Y50.046 Z-0.956 I-0.509 J-0.742
X128.497 Y51.53 Z-1.055 I0.509 J0.742
X127.479 Y50.046 Z-1.153 I-0.509 J-0.742
X128.497 Y51.53 Z-1.252 I0.509 J0.742
X127.479 Y50.046 Z-1.351 I-0.509 J-0.742
X128.497 Y51.53 Z-1.449 I0.509 J0.742
X127.479 Y50.046 Z-1.548 I-0.509 J-0.742
X128.497 Y51.53 Z-1.647 I0.509 J0.742
X127.479 Y50.046 Z-1.746 I-0.509 J-0.742
X128.497 Y51.53 Z-1.844 I0.509 J0.742
X127.479 Y50.046 Z-1.943 I-0.509 J-0.742
X128.497 Y51.53 Z-2.042 I0.509 J0.742
X127.479 Y50.046 Z-2.141 I-0.509 J-0.742
X128.497 Y51.53 Z-2.239 I0.509 J0.742
X127.479 Y50.046 Z-2.338 I-0.509 J-0.742
X128.497 Y51.53 Z-2.437 I0.509 J0.742
X127.479 Y50.046 Z-2.536 I-0.509 J-0.742
X128.497 Y51.53 Z-2.634 I0.509 J0.742
X127.479 Y50.046 Z-2.733 I-0.509 J-0.742
X128.497 Y51.53 Z-2.832 I0.509 J0.742
X127.088 Y50.788 Z-2.9 I-0.509 J-0.742
G1 Y29.968 F1000
G3 X127.648 Y29.968 I0.28 J0
G1 Y50.788
G3 X127.088 Y50.788 I-0.28 J0
G2 X126.753 Y50.285 I-0.544 J0
G3 X126.418 Y49.783 I0.209 J-0.502
G1 Y29.968
G3 X128.318 Y29.968 I0.95 J0
G1 Y50.788
G3 X126.418 Y50.788 I-0.95 J0
G1 Y49.783
G2 X125.943 Y49.07 I-0.772 J0
G3 X125.468 Y48.358 I0.297 J-0.712
G1 Y29.968
G3 X129.268 Y29.968 I1.9 J0
G1 Y50.788
G3 X125.468 Y50.788 I-1.9 J0
G1 Y48.358
X125.474 Y48.309 Z-2.887
X125.492 Y48.262 Z-2.873
X125.513 Y48.232 Z-2.837
X125.538 Y48.206 Z-2.8
X125.56 Y48.19 Z-2.7
G0 Z5
X132.216 Y55.623
Z3
G1 Z2.7 F1000
X132.202 Y55.609 Z2.613 F333.3
X132.164 Y55.57 Z2.544
X132.113 Y55.508 Z2.505
X132.091 Y55.477 Z2.5
G3 X133.575 Y54.459 Z2.401 I0.742 J-0.509
X132.091 Y55.477 Z2.303 I-0.742 J0.509
X133.575 Y54.459 Z2.204 I0.742 J-0.509
X132.091 Y55.477 Z2.105 I-0.742 J0.509
X133.575 Y54.459 Z2.006 I0.742 J-0.509
X132.091 Y55.477 Z1.908 I-0.742 J0.509
X133.575 Y54.459 Z1.809 I0.742 J-0.509
X132.091 Y55.477 Z1.71 I-0.742 J0.509
X133.575 Y54.459 Z1.611 I0.742 J-0.509
X132.091 Y55.477 Z1.513 I-0.742 J0.509
X133.575 Y54.459 Z1.414 I0.742 J-0.509
X132.091 Y55.477 Z1.315 I-0.742 J0.509
X133.575 Y54.459 Z1.216 I0.742 J-0.509
X132.091 Y55.477 Z1.118 I-0.742 J0.509
X133.575 Y54.459 Z1.019 I0.742 J-0.509
X132.091 Y55.477 Z0.92 I-0.742 J0.509
X133.575 Y54.459 Z0.821 I0.742 J-0.509
X132.091 Y55.477 Z0.723 I-0.742 J0.509
X133.575 Y54.459 Z0.624 I0.742 J-0.509
X132.091 Y55.477 Z0.525 I-0.742 J0.509
X133.575 Y54.459 Z0.427 I0.742 J-0.509
X132.091 Y55.477 Z0.328 I-0.742 J0.509
X133.575 Y54.459 Z0.229 I0.742 J-0.509
X132.091 Y55.477 Z0.13 I-0.742 J0.509
X133.575 Y54.459 Z0.032 I0.742 J-0.509
X132.091 Y55.477 Z-0.067 I-0.742 J0.509
X133.575 Y54.459 Z-0.166 I0.742 J-0.509
X132.091 Y55.477 Z-0.265 I-0.742 J0.509
X133.575 Y54.459 Z-0.363 I0.742 J-0.509
X132.091 Y55.477 Z-0.462 I-0.742 J0.509
X133.575 Y54.459 Z-0.561 I0.742 J-0.509
X132.091 Y55.477 Z-0.66 I-0.742 J0.509
X133.575 Y54.459 Z-0.758 I0.742 J-0.509
X132.091 Y55.477 Z-0.857 I-0.742 J0.509
X133.575 Y54.459 Z-0.956 I0.742 J-0.509
X132.091 Y55.477 Z-1.055 I-0.742 J0.509
X133.575 Y54.459 Z-1.153 I0.742 J-0.509
X132.091 Y55.477 Z-1.252 I-0.742 J0.509
X133.575 Y54.459 Z-1.351 I0.742 J-0.509
X132.091 Y55.477 Z-1.449 I-0.742 J0.509
X133.575 Y54.459 Z-1.548 I0.742 J-0.509
X132.091 Y55.477 Z-1.647 I-0.742 J0.509
X133.575 Y54.459 Z-1.746 I0.742 J-0.509
X132.091 Y55.477 Z-1.844 I-0.742 J0.509
X133.575 Y54.459 Z-1.943 I0.742 J-0.509
X132.091 Y55.477 Z-2.042 I-0.742 J0.509
X133.575 Y54.459 Z-2.141 I0.742 J-0.509
X132.091 Y55.477 Z-2.239 I-0.742 J0.509
X133.575 Y54.459 Z-2.338 I0.742 J-0.509
X132.091 Y55.477 Z-2.437 I-0.742 J0.509
X133.575 Y54.459 Z-2.536 I0.742 J-0.509
X132.091 Y55.477 Z-2.634 I-0.742 J0.509
X133.575 Y54.459 Z-2.733 I0.742 J-0.509
X132.091 Y55.477 Z-2.832 I-0.742 J0.509
X132.833 Y54.068 Z-2.9 I0.742 J-0.509
G1 X140.953 F1000
G3 X140.953 Y54.628 I0 J0.28
G1 X132.833
G3 X132.833 Y54.068 I0 J-0.28
G2 X133.335 Y53.733 I0 J-0.544
G3 X133.838 Y53.398 I0.503 J0.209
G1 X140.953
G3 X140.953 Y55.298 I0 J0.95
G1 X132.833
G3 X132.833 Y53.398 I0 J-0.95
G1 X133.838
G2 X134.551 Y52.923 I0 J-0.772
G3 X135.263 Y52.448 I0.712 J0.297
G1 X140.953
G3 X140.953 Y56.248 I0 J1.9
G1 X132.833
G3 X132.833 Y52.448 I0 J-1.9
G1 X135.263
X135.312 Y52.454 Z-2.887
X135.359 Y52.472 Z-2.873
X135.389 Y52.493 Z-2.837
X135.415 Y52.518 Z-2.8
X135.431 Y52.54 Z-2.7
G0 Z5
X131.936 Y63.045
Z3
G1 Z2.7 F1000
X131.922 Y63.059 Z2.613 F333.3
X131.882 Y63.097 Z2.544
X131.82 Y63.148 Z2.505
X131.789 Y63.17 Z2.5
G3 X130.772 Y61.686 Z2.401 I-0.509 J-0.742
X131.789 Y63.17 Z2.303 I0.509 J0.742
X130.772 Y61.686 Z2.204 I-0.509 J-0.742
X131.789 Y63.17 Z2.105 I0.509 J0.742
X130.772 Y61.686 Z2.006 I-0.509 J-0.742
X131.789 Y63.17 Z1.908 I0.509 J0.742
X130.772 Y61.686 Z1.809 I-0.509 J-0.742
X131.789 Y63.17 Z1.71 I0.509 J0.742
X130.772 Y61.686 Z1.611 I-0.509 J-0.742
X131.789 Y63.17 Z1.513 I0.509 J0.742
X130.772 Y61.686 Z1.414 I-0.509 J-0.742
X131.789 Y63.17 Z1.315 I0.509 J0.742
X130.772 Y61.686 Z1.216 I-0.509 J-0.742
X131.789 Y63.17 Z1.118 I0.509 J0.742
X130.772 Y61.686 Z1.019 I-0.509 J-0.742
X131.789 Y63.17 Z0.92 I0.509 J0.742
X130.772 Y61.686 Z0.821 I-0.509 J-0.742
X131.789 Y63.17 Z0.723 I0.509 J0.742
X130.772 Y61.686 Z0.624 I-0.509 J-0.742
X131.789 Y63.17 Z0.525 I0.509 J0.742
X130.772 Y61.686 Z0.427 I-0.509 J-0.742
X131.789 Y63.17 Z0.328 I0.509 J0.742
X130.772 Y61.686 Z0.229 I-0.509 J-0.742
X131.789 Y63.17 Z0.13 I0.509 J0.742
X130.772 Y61.686 Z0.032 I-0.509 J-0.742
X131.789 Y63.17 Z-0.067 I0.509 J0.742
X130.772 Y61.686 Z-0.166 I-0.509 J-0.742
X131.789 Y63.17 Z-0.265 I0.509 J0.742
X130.772 Y61.686 Z-0.363 I-0.509 J-0.742
X131.789 Y63.17 Z-0.462 I0.509 J0.742
X130.772 Y61.686 Z-0.561 I-0.509 J-0.742
X131.789 Y63.17 Z-0.66 I0.509 J0.742
X130.772 Y61.686 Z-0.758 I-0.509 J-0.742
X131.789 Y63.17 Z-0.857 I0.509 J0.742
X130.772 Y61.686 Z-0.956 I-0.509 J-0.742
X131.789 Y63.17 Z-1.055 I0.509 J0.742
X130.772 Y61.686 Z-1.153 I-0.509 J-0.742
X131.789 Y63.17 Z-1.252 I0.509 J0.742
X130.772 Y61.686 Z-1.351 I-0.509 J-0.742
X131.789 Y63.17 Z-1.449 I0.509 J0.742
X130.772 Y61.686 Z-1.548 I-0.509 J-0.742
X131.789 Y63.17 Z-1.647 I0.509 J0.742
X130.772 Y61.686 Z-1.746 I-0.509 J-0.742
X131.789 Y63.17 Z-1.844 I0.509 J0.742
X130.772 Y61.686 Z-1.943 I-0.509 J-0.742
X131.789 Y63.17 Z-2.042 I0.509 J0.742
X130.772 Y61.686 Z-2.141 I-0.509 J-0.742
X131.789 Y63.17 Z-2.239 I0.509 J0.742
X130.772 Y61.686 Z-2.338 I-0.509 J-0.742
X131.789 Y63.17 Z-2.437 I0.509 J0.742
X130.772 Y61.686 Z-2.536 I-0.509 J-0.742
X131.789 Y63.17 Z-2.634 I0.509 J0.742
X130.772 Y61.686 Z-2.733 I-0.509 J-0.742
X131.789 Y63.17 Z-2.832 I0.509 J0.742
X130.38 Y62.428 Z-2.9 I-0.509 J-0.742
X131.618 Y62.428 I0.619 J0
X131.318 Y62.428 I-0.15 J0 F1000
X132.618 Y62.428 I0.65 J0
X130.318 Y62.428 I-1.15 J0
X132.618 Y62.428 I1.15 J0
G1 X132.612 Y62.477 Z-2.887
X132.594 Y62.524 Z-2.873
X132.573 Y62.554 Z-2.837
X132.548 Y62.58 Z-2.8
X132.526 Y62.596 Z-2.7
G0 Z5
X144.636 Y63.045
Z3
G1 Z2.7 F1000
X144.622 Y63.059 Z2.613 F333.3
X144.582 Y63.097 Z2.544
X144.52 Y63.148 Z2.505
X144.489 Y63.17 Z2.5
G3 X143.472 Y61.686 Z2.401 I-0.509 J-0.742
X144.489 Y63.17 Z2.303 I0.509 J0.742
X143.472 Y61.686 Z2.204 I-0.509 J-0.742
X144.489 Y63.17 Z2.105 I0.509 J0.742
X143.472 Y61.686 Z2.006 I-0.509 J-0.742
X144.489 Y63.17 Z1.908 I0.509 J0.742
X143.472 Y61.686 Z1.809 I-0.509 J-0.742
X144.489 Y63.17 Z1.71 I0.509 J0.742
X143.472 Y61.686 Z1.611 I-0.509 J-0.742
X144.489 Y63.17 Z1.513 I0.509 J0.742
X143.472 Y61.686 Z1.414 I-0.509 J-0.742
X144.489 Y63.17 Z1.315 I0.509 J0.742
X143.472 Y61.686 Z1.216 I-0.509 J-0.742
X144.489 Y63.17 Z1.118 I0.509 J0.742
X143.472 Y61.686 Z1.019 I-0.509 J-0.742
X144.489 Y63.17 Z0.92 I0.509 J0.742
X143.472 Y61.686 Z0.821 I-0.509 J-0.742
X144.489 Y63.17 Z0.723 I0.509 J0.742
X143.472 Y61.686 Z0.624 I-0.509 J-0.742
X144.489 Y63.17 Z0.525 I0.509 J0.742
X143.472 Y61.686 Z0.427 I-0.509 J-0.742
X144.489 Y63.17 Z0.328 I0.509 J0.742
X143.472 Y61.686 Z0.229 I-0.509 J-0.742
X144.489 Y63.17 Z0.13 I0.509 J0.742
X143.472 Y61.686 Z0.032 I-0.509 J-0.742
X144.489 Y63.17 Z-0.067 I0.509 J0.742
X143.472 Y61.686 Z-0.166 I-0.509 J-0.742
X144.489 Y63.17 Z-0.265 I0.509 J0.742
X143.472 Y61.686 Z-0.363 I-0.509 J-0.742
X144.489 Y63.17 Z-0.462 I0.509 J0.742
X143.472 Y61.686 Z-0.561 I-0.509 J-0.742
X144.489 Y63.17 Z-0.66 I0.509 J0.742
X143.472 Y61.686 Z-0.758 I-0.509 J-0.742
X144.489 Y63.17 Z-0.857 I0.509 J0.742
X143.472 Y61.686 Z-0.956 I-0.509 J-0.742
X144.489 Y63.17 Z-1.055 I0.509 J0.742
X143.472 Y61.686 Z-1.153 I-0.509 J-0.742
X144.489 Y63.17 Z-1.252 I0.509 J0.742
X143.472 Y61.686 Z-1.351 I-0.509 J-0.742
X144.489 Y63.17 Z-1.449 I0.509 J0.742
X143.472 Y61.686 Z-1.548 I-0.509 J-0.742
X144.489 Y63.17 Z-1.647 I0.509 J0.742
X143.472 Y61.686 Z-1.746 I-0.509 J-0.742
X144.489 Y63.17 Z-1.844 I0.509 J0.742
X143.472 Y61.686 Z-1.943 I-0.509 J-0.742
X144.489 Y63.17 Z-2.042 I0.509 J0.742
X143.472 Y61.686 Z-2.141 I-0.509 J-0.742
X144.489 Y63.17 Z-2.239 I0.509 J0.742
X143.472 Y61.686 Z-2.338 I-0.509 J-0.742
X144.489 Y63.17 Z-2.437 I0.509 J0.742
X143.472 Y61.686 Z-2.536 I-0.509 J-0.742
X144.489 Y63.17 Z-2.634 I0.509 J0.742
X143.472 Y61.686 Z-2.733 I-0.509 J-0.742
X144.489 Y63.17 Z-2.832 I0.509 J0.742
X143.081 Y62.428 Z-2.9 I-0.509 J-0.742
X144.318 Y62.428 I0.619 J0
X144.018 Y62.428 I-0.15 J0 F1000
X145.318 Y62.428 I0.65 J0
X143.018 Y62.428 I-1.15 J0
X145.318 Y62.428 I1.15 J0
G1 X145.312 Y62.477 Z-2.887
X145.294 Y62.524 Z-2.873
X145.273 Y62.554 Z-2.837
X145.248 Y62.58 Z-2.8
X145.226 Y62.596 Z-2.7
G0 Z5
X157.072 Y63.36
Z3
G1 Z2.7 F1000
X157.086 Y63.374 Z2.613 F333.3
X157.124 Y63.413 Z2.544
X157.175 Y63.475 Z2.505
X157.197 Y63.506 Z2.5
G3 X155.713 Y64.524 Z2.401 I-0.742 J0.509
X157.197 Y63.506 Z2.303 I0.742 J-0.509
X155.713 Y64.524 Z2.204 I-0.742 J0.509
X157.197 Y63.506 Z2.105 I0.742 J-0.509
X155.713 Y64.524 Z2.006 I-0.742 J0.509
X157.197 Y63.506 Z1.908 I0.742 J-0.509
X155.713 Y64.524 Z1.809 I-0.742 J0.509
X157.197 Y63.506 Z1.71 I0.742 J-0.509
X155.713 Y64.524 Z1.611 I-0.742 J0.509
X157.197 Y63.506 Z1.513 I0.742 J-0.509
X155.713 Y64.524 Z1.414 I-0.742 J0.509
X157.197 Y63.506 Z1.315 I0.742 J-0.509
X155.713 Y64.524 Z1.216 I-0.742 J0.509
X157.197 Y63.506 Z1.118 I0.742 J-0.509
X155.713 Y64.524 Z1.019 I-0.742 J0.509
X157.197 Y63.506 Z0.92 I0.742 J-0.509
X155.713 Y64.524 Z0.821 I-0.742 J0.509
X157.197 Y63.506 Z0.723 I0.742 J-0.509
X155.713 Y64.524 Z0.624 I-0.742 J0.509
X157.197 Y63.506 Z0.525 I0.742 J-0.509
X155.713 Y64.524 Z0.427 I-0.742 J0.509
X157.197 Y63.506 Z0.328 I0.742 J-0.509
X155.713 Y64.524 Z0.229 I-0.742 J0.509
X157.197 Y63.506 Z0.13 I0.742 J-0.509
X155.713 Y64.524 Z0.032 I-0.742 J0.509
X157.197 Y63.506 Z-0.067 I0.742 J-0.509
X155.713 Y64.524 Z-0.166 I-0.742 J0.509
X157.197 Y63.506 Z-0.265 I0.742 J-0.509
X155.713 Y64.524 Z-0.363 I-0.742 J0.509
X157.197 Y63.506 Z-0.462 I0.742 J-0.509
X155.713 Y64.524 Z-0.561 I-0.742 J0.509
X157.197 Y63.506 Z-0.66 I0.742 J-0.509
X155.713 Y64.524 Z-0.758 I-0.742 J0.509
X157.197 Y63.506 Z-0.857 I0.742 J-0.509
X155.713 Y64.524 Z-0.956 I-0.742 J0.509
X157.197 Y63.506 Z-1.055 I0.742 J-0.509
X155.713 Y64.524 Z-1.153 I-0.742 J0.509
X157.197 Y63.506 Z-1.252 I0.742 J-0.509
X155.713 Y64.524 Z-1.351 I-0.742 J0.509
X157.197 Y63.506 Z-1.449 I0.742 J-0.509
X155.713 Y64.524 Z-1.548 I-0.742 J0.509
X157.197 Y63.506 Z-1.647 I0.742 J-0.509
X155.713 Y64.524 Z-1.746 I-0.742 J0.509
X157.197 Y63.506 Z-1.844 I0.742 J-0.509
X155.713 Y64.524 Z-1.943 I-0.742 J0.509
X157.197 Y63.506 Z-2.042 I0.742 J-0.509
X155.713 Y64.524 Z-2.141 I-0.742 J0.509
X157.197 Y63.506 Z-2.239 I0.742 J-0.509
X155.713 Y64.524 Z-2.338 I-0.742 J0.509
X157.197 Y63.506 Z-2.437 I0.742 J-0.509
X155.713 Y64.524 Z-2.536 I-0.742 J0.509
X157.197 Y63.506 Z-2.634 I0.742 J-0.509
X155.713 Y64.524 Z-2.733 I-0.742 J0.509
X157.197 Y63.506 Z-2.832 I0.742 J-0.509
X156.455 Y64.915 Z-2.9 I-0.742 J0.509
X156.455 Y64.355 I0 J-0.28 F1000
G1 X164.575
G3 X164.575 Y64.915 I0 J0.28
G1 X156.455
G2 X156.066 Y65.12 I0 J0.471
G3 X155.627 Y65.101 I-0.214 J-0.146
X156.455 Y63.685 I0.828 J-0.466
G1 X164.575
G3 X164.575 Y65.585 I0 J0.95
G1 X156.455
G3 X155.627 Y65.101 I0 J-0.95
G2 X155.031 Y64.742 I-0.616 J0.347
G3 X154.608 Y64.189 I0.012 J-0.448
X156.455 Y62.735 I1.847 J0.446
G1 X164.575
G3 X164.575 Y66.535 I0 J1.9
G1 X156.455
G3 X154.608 Y64.189 I0 J-1.9
G1 X154.626 Y64.142 Z-2.887
X154.654 Y64.101 Z-2.873
X154.681 Y64.077 Z-2.837
X154.712 Y64.057 Z-2.8
X154.737 Y64.047 Z-2.7
G0 Z5
X174.11 Y51.917
Z3
G1 Z2.7 F1000
X174.096 Y51.931 Z2.613 F333.3
X174.057 Y51.969 Z2.544
X173.995 Y52.02 Z2.505
X173.964 Y52.042 Z2.5
G3 X172.946 Y50.558 Z2.401 I-0.509 J-0.742
X173.964 Y52.042 Z2.303 I0.509 J0.742
X172.946 Y50.558 Z2.204 I-0.509 J-0.742
X173.964 Y52.042 Z2.105 I0.509 J0.742
X172.946 Y50.558 Z2.006 I-0.509 J-0.742
X173.964 Y52.042 Z1.908 I0.509 J0.742
X172.946 Y50.558 Z1.809 I-0.509 J-0.742
X173.964 Y52.042 Z1.71 I0.509 J0.742
X172.946 Y50.558 Z1.611 I-0.509 J-0.742
X173.964 Y52.042 Z1.513 I0.509 J0.742
X172.946 Y50.558 Z1.414 I-0.509 J-0.742
X173.964 Y52.042 Z1.315 I0.509 J0.742
X172.946 Y50.558 Z1.216 I-0.509 J-0.742
X173.964 Y52.042 Z1.118 I0.509 J0.742
X172.946 Y50.558 Z1.019 I-0.509 J-0.742
X173.964 Y52.042 Z0.92 I0.509 J0.742
X172.946 Y50.558 Z0.821 I-0.509 J-0.742
X173.964 Y52.042 Z0.723 I0.509 J0.742
X172.946 Y50.558 Z0.624 I-0.509 J-0.742
X173.964 Y52.042 Z0.525 I0.509 J0.742
X172.946 Y50.558 Z0.427 I-0.509 J-0.742
X173.964 Y52.042 Z0.328 I0.509 J0.742
X172.946 Y50.558 Z0.229 I-0.509 J-0.742
X173.964 Y52.042 Z0.13 I0.509 J0.742
X172.946 Y50.558 Z0.032 I-0.509 J-0.742
X173.964 Y52.042 Z-0.067 I0.509 J0.742
X172.946 Y50.558 Z-0.166 I-0.509 J-0.742
X173.964 Y52.042 Z-0.265 I0.509 J0.742
X172.946 Y50.558 Z-0.363 I-0.509 J-0.742
X173.964 Y52.042 Z-0.462 I0.509 J0.742
X172.946 Y50.558 Z-0.561 I-0.509 J-0.742
X173.964 Y52.042 Z-0.66 I0.509 J0.742
X172.946 Y50.558 Z-0.758 I-0.509 J-0.742
X173.964 Y52.042 Z-0.857 I0.509 J0.742
X172.946 Y50.558 Z-0.956 I-0.509 J-0.742
X173.964 Y52.042 Z-1.055 I0.509 J0.742
X172.946 Y50.558 Z-1.153 I-0.509 J-0.742
X173.964 Y52.042 Z-1.252 I0.509 J0.742
X172.946 Y50.558 Z-1.351 I-0.509 J-0.742
X173.964 Y52.042 Z-1.449 I0.509 J0.742
X172.946 Y50.558 Z-1.548 I-0.509 J-0.742
X173.964 Y52.042 Z-1.647 I0.509 J0.742
X172.946 Y50.558 Z-1.746 I-0.509 J-0.742
X173.964 Y52.042 Z-1.844 I0.509 J0.742
X172.946 Y50.558 Z-1.943 I-0.509 J-0.742
X173.964 Y52.042 Z-2.042 I0.509 J0.742
X172.946 Y50.558 Z-2.141 I-0.509 J-0.742
X173.964 Y52.042 Z-2.239 I0.509 J0.742
X172.946 Y50.558 Z-2.338 I-0.509 J-0.742
X173.964 Y52.042 Z-2.437 I0.509 J0.742
X172.946 Y50.558 Z-2.536 I-0.509 J-0.742
X173.964 Y52.042 Z-2.634 I0.509 J0.742
X172.946 Y50.558 Z-2.733 I-0.509 J-0.742
X173.964 Y52.042 Z-2.832 I0.509 J0.742
X172.555 Y51.3 Z-2.9 I-0.509 J-0.742
X173.355 Y51.3 I0.4 J0 F1000
X171.555 Y51.3 I-0.9 J0
X174.355 Y51.3 I1.4 J0
X170.555 Y51.3 I-1.9 J0
X175.355 Y51.3 I2.4 J0
X169.555 Y51.3 I-2.9 J0
X175.355 Y51.3 I2.9 J0
G1 X175.349 Y51.349 Z-2.887
X175.331 Y51.396 Z-2.873
X175.31 Y51.426 Z-2.837
X175.285 Y51.452 Z-2.8
X175.263 Y51.468 Z-2.7
G0 Z5
X177.102 Y69.248
Z3
G1 Z2.5 F1000
Z-2.7 F333.3
X177.08 Y69.232 Z-2.8
X177.055 Y69.206 Z-2.837
X177.034 Y69.176 Z-2.873
X177.016 Y69.129 Z-2.887
X177.01 Y69.08 Z-2.9
G3 X178.31 Y69.08 I0.65 J0 F1000
X177.01 Y69.08 I-0.65 J0
G1 X177.016 Y69.031 Z-2.887
X177.034 Y68.984 Z-2.873
X177.055 Y68.954 Z-2.837
X177.08 Y68.928 Z-2.8
X177.102 Y68.912 Z-2.7
G0 Z5
X174.11 Y29.067
Z3
G1 Z2.7 F1000
X174.096 Y29.081 Z2.613 F333.3
X174.057 Y29.119 Z2.544
X173.995 Y29.17 Z2.505
X173.964 Y29.192 Z2.5
G3 X172.946 Y27.708 Z2.401 I-0.509 J-0.742
X173.964 Y29.192 Z2.303 I0.509 J0.742
X172.946 Y27.708 Z2.204 I-0.509 J-0.742
X173.964 Y29.192 Z2.105 I0.509 J0.742
X172.946 Y27.708 Z2.006 I-0.509 J-0.742
X173.964 Y29.192 Z1.908 I0.509 J0.742
X172.946 Y27.708 Z1.809 I-0.509 J-0.742
X173.964 Y29.192 Z1.71 I0.509 J0.742
X172.946 Y27.708 Z1.611 I-0.509 J-0.742
X173.964 Y29.192 Z1.513 I0.509 J0.742
X172.946 Y27.708 Z1.414 I-0.509 J-0.742
X173.964 Y29.192 Z1.315 I0.509 J0.742
X172.946 Y27.708 Z1.216 I-0.509 J-0.742
X173.964 Y29.192 Z1.118 I0.509 J0.742
X172.946 Y27.708 Z1.019 I-0.509 J-0.742
X173.964 Y29.192 Z0.92 I0.509 J0.742
X172.946 Y27.708 Z0.821 I-0.509 J-0.742
X173.964 Y29.192 Z0.723 I0.509 J0.742
X172.946 Y27.708 Z0.624 I-0.509 J-0.742
X173.964 Y29.192 Z0.525 I0.509 J0.742
X172.946 Y27.708 Z0.427 I-0.509 J-0.742
X173.964 Y29.192 Z0.328 I0.509 J0.742
X172.946 Y27.708 Z0.229 I-0.509 J-0.742
X173.964 Y29.192 Z0.13 I0.509 J0.742
X172.946 Y27.708 Z0.032 I-0.509 J-0.742
X173.964 Y29.192 Z-0.067 I0.509 J0.742
X172.946 Y27.708 Z-0.166 I-0.509 J-0.742
X173.964 Y29.192 Z-0.265 I0.509 J0.742
X172.946 Y27.708 Z-0.363 I-0.509 J-0.742
X173.964 Y29.192 Z-0.462 I0.509 J0.742
X172.946 Y27.708 Z-0.561 I-0.509 J-0.742
X173.964 Y29.192 Z-0.66 I0.509 J0.742
X172.946 Y27.708 Z-0.758 I-0.509 J-0.742
X173.964 Y29.192 Z-0.857 I0.509 J0.742
X172.946 Y27.708 Z-0.956 I-0.509 J-0.742
X173.964 Y29.192 Z-1.055 I0.509 J0.742
X172.946 Y27.708 Z-1.153 I-0.509 J-0.742
X173.964 Y29.192 Z-1.252 I0.509 J0.742
X172.946 Y27.708 Z-1.351 I-0.509 J-0.742
X173.964 Y29.192 Z-1.449 I0.509 J0.742
X172.946 Y27.708 Z-1.548 I-0.509 J-0.742
X173.964 Y29.192 Z-1.647 I0.509 J0.742
X172.946 Y27.708 Z-1.746 I-0.509 J-0.742
X173.964 Y29.192 Z-1.844 I0.509 J0.742
X172.946 Y27.708 Z-1.943 I-0.509 J-0.742
X173.964 Y29.192 Z-2.042 I0.509 J0.742
X172.946 Y27.708 Z-2.141 I-0.509 J-0.742
X173.964 Y29.192 Z-2.239 I0.509 J0.742
X172.946 Y27.708 Z-2.338 I-0.509 J-0.742
X173.964 Y29.192 Z-2.437 I0.509 J0.742
X172.946 Y27.708 Z-2.536 I-0.509 J-0.742
X173.964 Y29.192 Z-2.634 I0.509 J0.742
X172.946 Y27.708 Z-2.733 I-0.509 J-0.742
X173.964 Y29.192 Z-2.832 I0.509 J0.742
X172.555 Y28.45 Z-2.9 I-0.509 J-0.742
X173.355 Y28.45 I0.4 J0 F1000
X171.555 Y28.45 I-0.9 J0
X174.355 Y28.45 I1.4 J0
X170.555 Y28.45 I-1.9 J0
X175.355 Y28.45 I2.4 J0
X169.555 Y28.45 I-2.9 J0
X175.355 Y28.45 I2.9 J0
G1 X175.349 Y28.499 Z-2.887
X175.331 Y28.546 Z-2.873
X175.31 Y28.576 Z-2.837
X175.285 Y28.602 Z-2.8
X175.263 Y28.618 Z-2.7
G0 Z5
X177.102 Y14.638
Z3
G1 Z2.5 F1000
Z-2.7 F333.3
X177.08 Y14.622 Z-2.8
X177.055 Y14.596 Z-2.837
X177.034 Y14.566 Z-2.873
X177.016 Y14.519 Z-2.887
X177.01 Y14.47 Z-2.9
G3 X178.31 Y14.47 I0.65 J0 F1000
X177.01 Y14.47 I-0.65 J0
G1 X177.016 Y14.421 Z-2.887
X177.034 Y14.374 Z-2.873
X177.055 Y14.344 Z-2.837
X177.08 Y14.318 Z-2.8
X177.102 Y14.302 Z-2.7
G0 Z5
X144.691 Y22.605
Z3
G1 Z2.7 F1000
X144.677 Y22.619 Z2.613 F333.3
X144.637 Y22.657 Z2.544
X144.576 Y22.708 Z2.505
X144.544 Y22.73 Z2.5
G3 X143.527 Y21.246 Z2.401 I-0.509 J-0.742
X144.544 Y22.73 Z2.303 I0.509 J0.742
X143.527 Y21.246 Z2.204 I-0.509 J-0.742
X144.544 Y22.73 Z2.105 I0.509 J0.742
X143.527 Y21.246 Z2.006 I-0.509 J-0.742
X144.544 Y22.73 Z1.908 I0.509 J0.742
X143.527 Y21.246 Z1.809 I-0.509 J-0.742
X144.544 Y22.73 Z1.71 I0.509 J0.742
X143.527 Y21.246 Z1.611 I-0.509 J-0.742
X144.544 Y22.73 Z1.513 I0.509 J0.742
X143.527 Y21.246 Z1.414 I-0.509 J-0.742
X144.544 Y22.73 Z1.315 I0.509 J0.742
X143.527 Y21.246 Z1.216 I-0.509 J-0.742
X144.544 Y22.73 Z1.118 I0.509 J0.742
X143.527 Y21.246 Z1.019 I-0.509 J-0.742
X144.544 Y22.73 Z0.92 I0.509 J0.742
X143.527 Y21.246 Z0.821 I-0.509 J-0.742
X144.544 Y22.73 Z0.723 I0.509 J0.742
X143.527 Y21.246 Z0.624 I-0.509 J-0.742
X144.544 Y22.73 Z0.525 I0.509 J0.742
X143.527 Y21.246 Z0.427 I-0.509 J-0.742
X144.544 Y22.73 Z0.328 I0.509 J0.742
X143.527 Y21.246 Z0.229 I-0.509 J-0.742
X144.544 Y22.73 Z0.13 I0.509 J0.742
X143.527 Y21.246 Z0.032 I-0.509 J-0.742
X144.544 Y22.73 Z-0.067 I0.509 J0.742
X143.527 Y21.246 Z-0.166 I-0.509 J-0.742
X144.544 Y22.73 Z-0.265 I0.509 J0.742
X143.527 Y21.246 Z-0.363 I-0.509 J-0.742
X144.544 Y22.73 Z-0.462 I0.509 J0.742
X143.527 Y21.246 Z-0.561 I-0.509 J-0.742
X144.544 Y22.73 Z-0.66 I0.509 J0.742
X143.527 Y21.246 Z-0.758 I-0.509 J-0.742
X144.544 Y22.73 Z-0.857 I0.509 J0.742
X143.527 Y21.246 Z-0.956 I-0.509 J-0.742
X144.544 Y22.73 Z-1.055 I0.509 J0.742
X143.527 Y21.246 Z-1.153 I-0.509 J-0.742
X144.544 Y22.73 Z-1.252 I0.509 J0.742
X143.527 Y21.246 Z-1.351 I-0.509 J-0.742
X144.544 Y22.73 Z-1.449 I0.509 J0.742
X143.527 Y21.246 Z-1.548 I-0.509 J-0.742
X144.544 Y22.73 Z-1.647 I0.509 J0.742
X143.527 Y21.246 Z-1.746 I-0.509 J-0.742
X144.544 Y22.73 Z-1.844 I0.509 J0.742
X143.527 Y21.246 Z-1.943 I-0.509 J-0.742
X144.544 Y22.73 Z-2.042 I0.509 J0.742
X143.527 Y21.246 Z-2.141 I-0.509 J-0.742
X144.544 Y22.73 Z-2.239 I0.509 J0.742
X143.527 Y21.246 Z-2.338 I-0.509 J-0.742
X144.544 Y22.73 Z-2.437 I0.509 J0.742
X143.527 Y21.246 Z-2.536 I-0.509 J-0.742
X144.544 Y22.73 Z-2.634 I0.509 J0.742
X143.527 Y21.246 Z-2.733 I-0.509 J-0.742
X144.544 Y22.73 Z-2.832 I0.509 J0.742
X143.135 Y21.988 Z-2.9 I-0.509 J-0.742
X144.373 Y21.988 I0.619 J0
X144.073 Y21.988 I-0.15 J0 F1000
X145.373 Y21.988 I0.65 J0
X143.073 Y21.988 I-1.15 J0
X145.373 Y21.988 I1.15 J0
G1 X145.367 Y22.037 Z-2.887
X145.349 Y22.084 Z-2.873
X145.328 Y22.114 Z-2.837
X145.303 Y22.14 Z-2.8
X145.281 Y22.156 Z-2.7
G0 Z5
X131.991 Y22.605
Z3
G1 Z2.7 F1000
X131.977 Y22.619 Z2.613 F333.3
X131.937 Y22.657 Z2.544
X131.876 Y22.708 Z2.505
X131.844 Y22.73 Z2.5
G3 X130.827 Y21.246 Z2.401 I-0.509 J-0.742
X131.844 Y22.73 Z2.303 I0.509 J0.742
X130.827 Y21.246 Z2.204 I-0.509 J-0.742
X131.844 Y22.73 Z2.105 I0.509 J0.742
X130.827 Y21.246 Z2.006 I-0.509 J-0.742
X131.844 Y22.73 Z1.908 I0.509 J0.742
X130.827 Y21.246 Z1.809 I-0.509 J-0.742
X131.844 Y22.73 Z1.71 I0.509 J0.742
X130.827 Y21.246 Z1.611 I-0.509 J-0.742
X131.844 Y22.73 Z1.513 I0.509 J0.742
X130.827 Y21.246 Z1.414 I-0.509 J-0.742
X131.844 Y22.73 Z1.315 I0.509 J0.742
X130.827 Y21.246 Z1.216 I-0.509 J-0.742
X131.844 Y22.73 Z1.118 I0.509 J0.742
X130.827 Y21.246 Z1.019 I-0.509 J-0.742
X131.844 Y22.73 Z0.92 I0.509 J0.742
X130.827 Y21.246 Z0.821 I-0.509 J-0.742
X131.844 Y22.73 Z0.723 I0.509 J0.742
X130.827 Y21.246 Z0.624 I-0.509 J-0.742
X131.844 Y22.73 Z0.525 I0.509 J0.742
X130.827 Y21.246 Z0.427 I-0.509 J-0.742
X131.844 Y22.73 Z0.328 I0.509 J0.742
X130.827 Y21.246 Z0.229 I-0.509 J-0.742
X131.844 Y22.73 Z0.13 I0.509 J0.742
X130.827 Y21.246 Z0.032 I-0.509 J-0.742
X131.844 Y22.73 Z-0.067 I0.509 J0.742
X130.827 Y21.246 Z-0.166 I-0.509 J-0.742
X131.844 Y22.73 Z-0.265 I0.509 J0.742
X130.827 Y21.246 Z-0.363 I-0.509 J-0.742
X131.844 Y22.73 Z-0.462 I0.509 J0.742
X130.827 Y21.246 Z-0.561 I-0.509 J-0.742
X131.844 Y22.73 Z-0.66 I0.509 J0.742
X130.827 Y21.246 Z-0.758 I-0.509 J-0.742
X131.844 Y22.73 Z-0.857 I0.509 J0.742
X130.827 Y21.246 Z-0.956 I-0.509 J-0.742
X131.844 Y22.73 Z-1.055 I0.509 J0.742
X130.827 Y21.246 Z-1.153 I-0.509 J-0.742
X131.844 Y22.73 Z-1.252 I0.509 J0.742
X130.827 Y21.246 Z-1.351 I-0.509 J-0.742
X131.844 Y22.73 Z-1.449 I0.509 J0.742
X130.827 Y21.246 Z-1.548 I-0.509 J-0.742
X131.844 Y22.73 Z-1.647 I0.509 J0.742
X130.827 Y21.246 Z-1.746 I-0.509 J-0.742
X131.844 Y22.73 Z-1.844 I0.509 J0.742
X130.827 Y21.246 Z-1.943 I-0.509 J-0.742
X131.844 Y22.73 Z-2.042 I0.509 J0.742
X130.827 Y21.246 Z-2.141 I-0.509 J-0.742
X131.844 Y22.73 Z-2.239 I0.509 J0.742
X130.827 Y21.246 Z-2.338 I-0.509 J-0.742
X131.844 Y22.73 Z-2.437 I0.509 J0.742
X130.827 Y21.246 Z-2.536 I-0.509 J-0.742
X131.844 Y22.73 Z-2.634 I0.509 J0.742
X130.827 Y21.246 Z-2.733 I-0.509 J-0.742
X131.844 Y22.73 Z-2.832 I0.509 J0.742
X130.436 Y21.988 Z-2.9 I-0.509 J-0.742
X131.673 Y21.988 I0.619 J0
X131.373 Y21.988 I-0.15 J0 F1000
X132.673 Y21.988 I0.65 J0
X130.373 Y21.988 I-1.15 J0
X132.673 Y21.988 I1.15 J0
G1 X132.667 Y22.037 Z-2.887
X132.649 Y22.084 Z-2.873
X132.628 Y22.114 Z-2.837
X132.603 Y22.14 Z-2.8
X132.581 Y22.156 Z-2.7
G0 Z5
X99.533 Y20.815
Z3
G1 Z2.7 F1000
X99.547 Y20.829 Z2.613 F333.3
X99.585 Y20.868 Z2.544
X99.636 Y20.93 Z2.505
X99.658 Y20.961 Z2.5
G3 X98.174 Y21.979 Z2.401 I-0.742 J0.509
X99.658 Y20.961 Z2.303 I0.742 J-0.509
X98.174 Y21.979 Z2.204 I-0.742 J0.509
X99.658 Y20.961 Z2.105 I0.742 J-0.509
X98.174 Y21.979 Z2.006 I-0.742 J0.509
X99.658 Y20.961 Z1.908 I0.742 J-0.509
X98.174 Y21.979 Z1.809 I-0.742 J0.509
X99.658 Y20.961 Z1.71 I0.742 J-0.509
X98.174 Y21.979 Z1.611 I-0.742 J0.509
X99.658 Y20.961 Z1.513 I0.742 J-0.509
X98.174 Y21.979 Z1.414 I-0.742 J0.509
X99.658 Y20.961 Z1.315 I0.742 J-0.509
X98.174 Y21.979 Z1.216 I-0.742 J0.509
X99.658 Y20.961 Z1.118 I0.742 J-0.509
X98.174 Y21.979 Z1.019 I-0.742 J0.509
X99.658 Y20.961 Z0.92 I0.742 J-0.509
X98.174 Y21.979 Z0.821 I-0.742 J0.509
X99.658 Y20.961 Z0.723 I0.742 J-0.509
X98.174 Y21.979 Z0.624 I-0.742 J0.509
X99.658 Y20.961 Z0.525 I0.742 J-0.509
X98.174 Y21.979 Z0.427 I-0.742 J0.509
X99.658 Y20.961 Z0.328 I0.742 J-0.509
X98.174 Y21.979 Z0.229 I-0.742 J0.509
X99.658 Y20.961 Z0.13 I0.742 J-0.509
X98.174 Y21.979 Z0.032 I-0.742 J0.509
X99.658 Y20.961 Z-0.067 I0.742 J-0.509
X98.174 Y21.979 Z-0.166 I-0.742 J0.509
X99.658 Y20.961 Z-0.265 I0.742 J-0.509
X98.174 Y21.979 Z-0.363 I-0.742 J0.509
X99.658 Y20.961 Z-0.462 I0.742 J-0.509
X98.174 Y21.979 Z-0.561 I-0.742 J0.509
X99.658 Y20.961 Z-0.66 I0.742 J-0.509
X98.174 Y21.979 Z-0.758 I-0.742 J0.509
X99.658 Y20.961 Z-0.857 I0.742 J-0.509
X98.174 Y21.979 Z-0.956 I-0.742 J0.509
X99.658 Y20.961 Z-1.055 I0.742 J-0.509
X98.174 Y21.979 Z-1.153 I-0.742 J0.509
X99.658 Y20.961 Z-1.252 I0.742 J-0.509
X98.174 Y21.979 Z-1.351 I-0.742 J0.509
X99.658 Y20.961 Z-1.449 I0.742 J-0.509
X98.174 Y21.979 Z-1.548 I-0.742 J0.509
X99.658 Y20.961 Z-1.647 I0.742 J-0.509
X98.174 Y21.979 Z-1.746 I-0.742 J0.509
X99.658 Y20.961 Z-1.844 I0.742 J-0.509
X98.174 Y21.979 Z-1.943 I-0.742 J0.509
X99.658 Y20.961 Z-2.042 I0.742 J-0.509
X98.174 Y21.979 Z-2.141 I-0.742 J0.509
X99.658 Y20.961 Z-2.239 I0.742 J-0.509
X98.174 Y21.979 Z-2.338 I-0.742 J0.509
X99.658 Y20.961 Z-2.437 I0.742 J-0.509
X98.174 Y21.979 Z-2.536 I-0.742 J0.509
X99.658 Y20.961 Z-2.634 I0.742 J-0.509
X98.174 Y21.979 Z-2.733 I-0.742 J0.509
X99.658 Y20.961 Z-2.832 I0.742 J-0.509
X98.916 Y22.37 Z-2.9 I-0.742 J0.509
G1 X80.636 F1000
G3 X80.636 Y21.81 I0 J-0.28
G1 X98.916
G3 X98.916 Y22.37 I0 J0.28
G2 X98.413 Y22.705 I0 J0.544
G3 X97.911 Y23.04 I-0.502 J-0.209
G1 X80.636
G3 X80.636 Y21.14 I0 J-0.95
G1 X98.916
G3 X98.916 Y23.04 I0 J0.95
G1 X97.911
G2 X97.199 Y23.515 I0 J0.772
G3 X96.486 Y23.99 I-0.713 J-0.297
G1 X80.636
G3 X80.636 Y20.19 I0 J-1.9
G1 X98.916
G3 X98.916 Y23.99 I0 J1.9
G1 X96.486
X96.437 Y23.984 Z-2.887
X96.39 Y23.966 Z-2.873
X96.36 Y23.945 Z-2.837
X96.334 Y23.92 Z-2.8
X96.318 Y23.898 Z-2.7
G0 Z5
X69.053 Y20.815
Z3
G1 Z2.7 F1000
X69.067 Y20.829 Z2.613 F333.3
X69.105 Y20.868 Z2.544
X69.156 Y20.93 Z2.505
X69.178 Y20.961 Z2.5
G3 X67.694 Y21.979 Z2.401 I-0.742 J0.509
X69.178 Y20.961 Z2.303 I0.742 J-0.509
X67.694 Y21.979 Z2.204 I-0.742 J0.509
X69.178 Y20.961 Z2.105 I0.742 J-0.509
X67.694 Y21.979 Z2.006 I-0.742 J0.509
X69.178 Y20.961 Z1.908 I0.742 J-0.509
X67.694 Y21.979 Z1.809 I-0.742 J0.509
X69.178 Y20.961 Z1.71 I0.742 J-0.509
X67.694 Y21.979 Z1.611 I-0.742 J0.509
X69.178 Y20.961 Z1.513 I0.742 J-0.509
X67.694 Y21.979 Z1.414 I-0.742 J0.509
X69.178 Y20.961 Z1.315 I0.742 J-0.509
X67.694 Y21.979 Z1.216 I-0.742 J0.509
X69.178 Y20.961 Z1.118 I0.742 J-0.509
X67.694 Y21.979 Z1.019 I-0.742 J0.509
X69.178 Y20.961 Z0.92 I0.742 J-0.509
X67.694 Y21.979 Z0.821 I-0.742 J0.509
X69.178 Y20.961 Z0.723 I0.742 J-0.509
X67.694 Y21.979 Z0.624 I-0.742 J0.509
X69.178 Y20.961 Z0.525 I0.742 J-0.509
X67.694 Y21.979 Z0.427 I-0.742 J0.509
X69.178 Y20.961 Z0.328 I0.742 J-0.509
X67.694 Y21.979 Z0.229 I-0.742 J0.509
X69.178 Y20.961 Z0.13 I0.742 J-0.509
X67.694 Y21.979 Z0.032 I-0.742 J0.509
X69.178 Y20.961 Z-0.067 I0.742 J-0.509
X67.694 Y21.979 Z-0.166 I-0.742 J0.509
X69.178 Y20.961 Z-0.265 I0.742 J-0.509
X67.694 Y21.979 Z-0.363 I-0.742 J0.509
X69.178 Y20.961 Z-0.462 I0.742 J-0.509
X67.694 Y21.979 Z-0.561 I-0.742 J0.509
X69.178 Y20.961 Z-0.66 I0.742 J-0.509
X67.694 Y21.979 Z-0.758 I-0.742 J0.509
X69.178 Y20.961 Z-0.857 I0.742 J-0.509
X67.694 Y21.979 Z-0.956 I-0.742 J0.509
X69.178 Y20.961 Z-1.055 I0.742 J-0.509
X67.694 Y21.979 Z-1.153 I-0.742 J0.509
X69.178 Y20.961 Z-1.252 I0.742 J-0.509
X67.694 Y21.979 Z-1.351 I-0.742 J0.509
X69.178 Y20.961 Z-1.449 I0.742 J-0.509
X67.694 Y21.979 Z-1.548 I-0.742 J0.509
X69.178 Y20.961 Z-1.647 I0.742 J-0.509
X67.694 Y21.979 Z-1.746 I-0.742 J0.509
X69.178 Y20.961 Z-1.844 I0.742 J-0.509
X67.694 Y21.979 Z-1.943 I-0.742 J0.509
X69.178 Y20.961 Z-2.042 I0.742 J-0.509
X67.694 Y21.979 Z-2.141 I-0.742 J0.509
X69.178 Y20.961 Z-2.239 I0.742 J-0.509
X67.694 Y21.979 Z-2.338 I-0.742 J0.509
X69.178 Y20.961 Z-2.437 I0.742 J-0.509
X67.694 Y21.979 Z-2.536 I-0.742 J0.509
X69.178 Y20.961 Z-2.634 I0.742 J-0.509
X67.694 Y21.979 Z-2.733 I-0.742 J0.509
X69.178 Y20.961 Z-2.832 I0.742 J-0.509
X68.436 Y22.37 Z-2.9 I-0.742 J0.509
G1 X50.156 F1000
G3 X50.156 Y21.81 I0 J-0.28
G1 X68.436
G3 X68.436 Y22.37 I0 J0.28
G2 X67.934 Y22.705 I0 J0.544
G3 X67.431 Y23.04 I-0.503 J-0.209
G1 X50.156
G3 X50.156 Y21.14 I0 J-0.95
G1 X68.436
G3 X68.436 Y23.04 I0 J0.95
G1 X67.431
G2 X66.718 Y23.515 I0 J0.772
G3 X66.006 Y23.99 I-0.713 J-0.297
G1 X50.156
G3 X50.156 Y20.19 I0 J-1.9
G1 X68.436
G3 X68.436 Y23.99 I0 J1.9
G1 X66.006
X65.957 Y23.984 Z-2.887
X65.91 Y23.966 Z-2.873
X65.88 Y23.945 Z-2.837
X65.854 Y23.92 Z-2.8
X65.838 Y23.898 Z-2.7
G0 Z5
X42.768 Y23.355
Z3
G1 Z2.7 F1000
X42.782 Y23.369 Z2.613 F333.3
X42.82 Y23.408 Z2.544
X42.871 Y23.47 Z2.505
X42.893 Y23.501 Z2.5
G3 X41.409 Y24.519 Z2.401 I-0.742 J0.509
X42.893 Y23.501 Z2.303 I0.742 J-0.509
X41.409 Y24.519 Z2.204 I-0.742 J0.509
X42.893 Y23.501 Z2.105 I0.742 J-0.509
X41.409 Y24.519 Z2.006 I-0.742 J0.509
X42.893 Y23.501 Z1.908 I0.742 J-0.509
X41.409 Y24.519 Z1.809 I-0.742 J0.509
X42.893 Y23.501 Z1.71 I0.742 J-0.509
X41.409 Y24.519 Z1.611 I-0.742 J0.509
X42.893 Y23.501 Z1.513 I0.742 J-0.509
X41.409 Y24.519 Z1.414 I-0.742 J0.509
X42.893 Y23.501 Z1.315 I0.742 J-0.509
X41.409 Y24.519 Z1.216 I-0.742 J0.509
X42.893 Y23.501 Z1.118 I0.742 J-0.509
X41.409 Y24.519 Z1.019 I-0.742 J0.509
X42.893 Y23.501 Z0.92 I0.742 J-0.509
X41.409 Y24.519 Z0.821 I-0.742 J0.509
X42.893 Y23.501 Z0.723 I0.742 J-0.509
X41.409 Y24.519 Z0.624 I-0.742 J0.509
X42.893 Y23.501 Z0.525 I0.742 J-0.509
X41.409 Y24.519 Z0.427 I-0.742 J0.509
X42.893 Y23.501 Z0.328 I0.742 J-0.509
X41.409 Y24.519 Z0.229 I-0.742 J0.509
X42.893 Y23.501 Z0.13 I0.742 J-0.509
X41.409 Y24.519 Z0.032 I-0.742 J0.509
X42.893 Y23.501 Z-0.067 I0.742 J-0.509
X41.409 Y24.519 Z-0.166 I-0.742 J0.509
X42.893 Y23.501 Z-0.265 I0.742 J-0.509
X41.409 Y24.519 Z-0.363 I-0.742 J0.509
X42.893 Y23.501 Z-0.462 I0.742 J-0.509
X41.409 Y24.519 Z-0.561 I-0.742 J0.509
X42.893 Y23.501 Z-0.66 I0.742 J-0.509
X41.409 Y24.519 Z-0.758 I-0.742 J0.509
X42.893 Y23.501 Z-0.857 I0.742 J-0.509
X41.409 Y24.519 Z-0.956 I-0.742 J0.509
X42.893 Y23.501 Z-1.055 I0.742 J-0.509
X41.409 Y24.519 Z-1.153 I-0.742 J0.509
X42.893 Y23.501 Z-1.252 I0.742 J-0.509
X41.409 Y24.519 Z-1.351 I-0.742 J0.509
X42.893 Y23.501 Z-1.449 I0.742 J-0.509
X41.409 Y24.519 Z-1.548 I-0.742 J0.509
X42.893 Y23.501 Z-1.647 I0.742 J-0.509
X41.409 Y24.519 Z-1.746 I-0.742 J0.509
X42.893 Y23.501 Z-1.844 I0.742 J-0.509
X41.409 Y24.519 Z-1.943 I-0.742 J0.509
X42.893 Y23.501 Z-2.042 I0.742 J-0.509
X41.409 Y24.519 Z-2.141 I-0.742 J0.509
X42.893 Y23.501 Z-2.239 I0.742 J-0.509
X41.409 Y24.519 Z-2.338 I-0.742 J0.509
X42.893 Y23.501 Z-2.437 I0.742 J-0.509
X41.409 Y24.519 Z-2.536 I-0.742 J0.509
X42.893 Y23.501 Z-2.634 I0.742 J-0.509
X41.409 Y24.519 Z-2.733 I-0.742 J0.509
X42.893 Y23.501 Z-2.832 I0.742 J-0.509
X42.151 Y24.91 Z-2.9 I-0.742 J0.509
X41.871 Y24.63 I0 J-0.28 F1000
G1 Y19.55
G3 X42.431 Y19.55 I0.28 J0
G1 Y24.63
G3 X42.151 Y24.91 I-0.28 J0
G2 X41.762 Y25.115 I0 J0.471
G3 X41.323 Y25.096 I-0.214 J-0.146
X41.201 Y24.63 I0.828 J-0.466
G1 Y19.55
G3 X43.101 Y19.55 I0.95 J0
G1 Y24.63
G3 X41.323 Y25.096 I-0.95 J0
G2 X40.728 Y24.707 I-0.673 J0.379
G3 X40.251 Y24.18 I0.053 J-0.527
G1 Y19.55
G3 X44.051 Y19.55 I1.9 J0
G1 Y24.63
G3 X40.251 Y24.63 I-1.9 J0
G1 Y24.18
X40.257 Y24.13 Z-2.887
X40.275 Y24.084 Z-2.873
X40.296 Y24.053 Z-2.837
X40.321 Y24.027 Z-2.8
X40.343 Y24.011 Z-2.7
G0 Z5
X30.508 Y15.028
Z3
G1 Z2.5 F1000
Z-2.7 F333.3
X30.492 Y15.05 Z-2.8
X30.466 Y15.075 Z-2.837
X30.436 Y15.096 Z-2.873
X30.389 Y15.114 Z-2.887
X30.34 Y15.12 Z-2.9
G3 X30.34 Y13.82 I0 J-0.65 F1000
X30.34 Y15.12 I0 J0.65
G1 X30.291 Y15.114 Z-2.887
X30.244 Y15.096 Z-2.873
X30.214 Y15.075 Z-2.837
X30.188 Y15.05 Z-2.8
X30.172 Y15.028 Z-2.7
G0 Z5
X40.505 Y41.757
Z3
G1 Z2.7 F1000
X40.491 Y41.771 Z2.613 F333.3
X40.452 Y41.809 Z2.544
X40.39 Y41.86 Z2.505
X40.359 Y41.882 Z2.5
G3 X39.341 Y40.398 Z2.401 I-0.509 J-0.742
X40.359 Y41.882 Z2.303 I0.509 J0.742
X39.341 Y40.398 Z2.204 I-0.509 J-0.742
X40.359 Y41.882 Z2.105 I0.509 J0.742
X39.341 Y40.398 Z2.006 I-0.509 J-0.742
X40.359 Y41.882 Z1.908 I0.509 J0.742
X39.341 Y40.398 Z1.809 I-0.509 J-0.742
X40.359 Y41.882 Z1.71 I0.509 J0.742
X39.341 Y40.398 Z1.611 I-0.509 J-0.742
X40.359 Y41.882 Z1.513 I0.509 J0.742
X39.341 Y40.398 Z1.414 I-0.509 J-0.742
X40.359 Y41.882 Z1.315 I0.509 J0.742
X39.341 Y40.398 Z1.216 I-0.509 J-0.742
X40.359 Y41.882 Z1.118 I0.509 J0.742
X39.341 Y40.398 Z1.019 I-0.509 J-0.742
X40.359 Y41.882 Z0.92 I0.509 J0.742
X39.341 Y40.398 Z0.821 I-0.509 J-0.742
X40.359 Y41.882 Z0.723 I0.509 J0.742
X39.341 Y40.398 Z0.624 I-0.509 J-0.742
X40.359 Y41.882 Z0.525 I0.509 J0.742
X39.341 Y40.398 Z0.427 I-0.509 J-0.742
X40.359 Y41.882 Z0.328 I0.509 J0.742
X39.341 Y40.398 Z0.229 I-0.509 J-0.742
X40.359 Y41.882 Z0.13 I0.509 J0.742
X39.341 Y40.398 Z0.032 I-0.509 J-0.742
X40.359 Y41.882 Z-0.067 I0.509 J0.742
X39.341 Y40.398 Z-0.166 I-0.509 J-0.742
X40.359 Y41.882 Z-0.265 I0.509 J0.742
X39.341 Y40.398 Z-0.363 I-0.509 J-0.742
X40.359 Y41.882 Z-0.462 I0.509 J0.742
X39.341 Y40.398 Z-0.561 I-0.509 J-0.742
X40.359 Y41.882 Z-0.66 I0.509 J0.742
X39.341 Y40.398 Z-0.758 I-0.509 J-0.742
X40.359 Y41.882 Z-0.857 I0.509 J0.742
X39.341 Y40.398 Z-0.956 I-0.509 J-0.742
X40.359 Y41.882 Z-1.055 I0.509 J0.742
X39.341 Y40.398 Z-1.153 I-0.509 J-0.742
X40.359 Y41.882 Z-1.252 I0.509 J0.742
X39.341 Y40.398 Z-1.351 I-0.509 J-0.742
X40.359 Y41.882 Z-1.449 I0.509 J0.742
X39.341 Y40.398 Z-1.548 I-0.509 J-0.742
X40.359 Y41.882 Z-1.647 I0.509 J0.742
X39.341 Y40.398 Z-1.746 I-0.509 J-0.742
X40.359 Y41.882 Z-1.844 I0.509 J0.742
X39.341 Y40.398 Z-1.943 I-0.509 J-0.742
X40.359 Y41.882 Z-2.042 I0.509 J0.742
X39.341 Y40.398 Z-2.141 I-0.509 J-0.742
X40.359 Y41.882 Z-2.239 I0.509 J0.742
X39.341 Y40.398 Z-2.338 I-0.509 J-0.742
X40.359 Y41.882 Z-2.437 I0.509 J0.742
X39.341 Y40.398 Z-2.536 I-0.509 J-0.742
X40.359 Y41.882 Z-2.634 I0.509 J0.742
X39.341 Y40.398 Z-2.733 I-0.509 J-0.742
X40.359 Y41.882 Z-2.832 I0.509 J0.742
X38.95 Y41.14 Z-2.9 I-0.509 J-0.742
G1 Y36.06 F1000
G3 X39.51 Y36.06 I0.28 J0
G1 Y41.14
G3 X38.95 Y41.14 I-0.28 J0
G2 X38.615 Y40.638 I-0.544 J0
G3 X38.28 Y40.135 I0.209 J-0.503
G1 Y36.06
G3 X40.18 Y36.06 I0.95 J0
G1 Y41.14
G3 X38.28 Y41.14 I-0.95 J0
G1 Y40.135
G2 X37.805 Y39.423 I-0.772 J0
G3 X37.33 Y38.71 I0.297 J-0.713
G1 Y36.06
G3 X41.13 Y36.06 I1.9 J0
G1 Y41.14
G3 X37.33 Y41.14 I-1.9 J0
G1 Y38.71
X37.336 Y38.661 Z-2.887
X37.354 Y38.614 Z-2.873
X37.375 Y38.584 Z-2.837
X37.4 Y38.558 Z-2.8
X37.422 Y38.542 Z-2.7
G0 Z5
X30.032 Y69.248
Z3
G1 Z2.5 F1000
Z-2.7 F333.3
X30.01 Y69.232 Z-2.8
X29.985 Y69.206 Z-2.837
X29.964 Y69.176 Z-2.873
X29.946 Y69.129 Z-2.887
X29.94 Y69.08 Z-2.9
G3 X30.74 Y69.08 I0.4 J0 F1000
X29.94 Y69.08 I-0.4 J0
G1 X29.946 Y69.031 Z-2.887
X29.964 Y68.984 Z-2.873
X29.985 Y68.954 Z-2.837
X30.01 Y68.928 Z-2.8
X30.032 Y68.912 Z-2.7
G0 Z5
X69.053 Y61.455
Z3
G1 Z2.7 F1000
X69.067 Y61.469 Z2.613 F333.3
X69.105 Y61.508 Z2.544
X69.156 Y61.57 Z2.505
X69.178 Y61.601 Z2.5
G3 X67.694 Y62.619 Z2.401 I-0.742 J0.509
X69.178 Y61.601 Z2.303 I0.742 J-0.509
X67.694 Y62.619 Z2.204 I-0.742 J0.509
X69.178 Y61.601 Z2.105 I0.742 J-0.509
X67.694 Y62.619 Z2.006 I-0.742 J0.509
X69.178 Y61.601 Z1.908 I0.742 J-0.509
X67.694 Y62.619 Z1.809 I-0.742 J0.509
X69.178 Y61.601 Z1.71 I0.742 J-0.509
X67.694 Y62.619 Z1.611 I-0.742 J0.509
X69.178 Y61.601 Z1.513 I0.742 J-0.509
X67.694 Y62.619 Z1.414 I-0.742 J0.509
X69.178 Y61.601 Z1.315 I0.742 J-0.509
X67.694 Y62.619 Z1.216 I-0.742 J0.509
X69.178 Y61.601 Z1.118 I0.742 J-0.509
X67.694 Y62.619 Z1.019 I-0.742 J0.509
X69.178 Y61.601 Z0.92 I0.742 J-0.509
X67.694 Y62.619 Z0.821 I-0.742 J0.509
X69.178 Y61.601 Z0.723 I0.742 J-0.509
X67.694 Y62.619 Z0.624 I-0.742 J0.509
X69.178 Y61.601 Z0.525 I0.742 J-0.509
X67.694 Y62.619 Z0.427 I-0.742 J0.509
X69.178 Y61.601 Z0.328 I0.742 J-0.509
X67.694 Y62.619 Z0.229 I-0.742 J0.509
X69.178 Y61.601 Z0.13 I0.742 J-0.509
X67.694 Y62.619 Z0.032 I-0.742 J0.509
X69.178 Y61.601 Z-0.067 I0.742 J-0.509
X67.694 Y62.619 Z-0.166 I-0.742 J0.509
X69.178 Y61.601 Z-0.265 I0.742 J-0.509
X67.694 Y62.619 Z-0.363 I-0.742 J0.509
X69.178 Y61.601 Z-0.462 I0.742 J-0.509
X67.694 Y62.619 Z-0.561 I-0.742 J0.509
X69.178 Y61.601 Z-0.66 I0.742 J-0.509
X67.694 Y62.619 Z-0.758 I-0.742 J0.509
X69.178 Y61.601 Z-0.857 I0.742 J-0.509
X67.694 Y62.619 Z-0.956 I-0.742 J0.509
X69.178 Y61.601 Z-1.055 I0.742 J-0.509
X67.694 Y62.619 Z-1.153 I-0.742 J0.509
X69.178 Y61.601 Z-1.252 I0.742 J-0.509
X67.694 Y62.619 Z-1.351 I-0.742 J0.509
X69.178 Y61.601 Z-1.449 I0.742 J-0.509
X67.694 Y62.619 Z-1.548 I-0.742 J0.509
X69.178 Y61.601 Z-1.647 I0.742 J-0.509
X67.694 Y62.619 Z-1.746 I-0.742 J0.509
X69.178 Y61.601 Z-1.844 I0.742 J-0.509
X67.694 Y62.619 Z-1.943 I-0.742 J0.509
X69.178 Y61.601 Z-2.042 I0.742 J-0.509
X67.694 Y62.619 Z-2.141 I-0.742 J0.509
X69.178 Y61.601 Z-2.239 I0.742 J-0.509
X67.694 Y62.619 Z-2.338 I-0.742 J0.509
X69.178 Y61.601 Z-2.437 I0.742 J-0.509
X67.694 Y62.619 Z-2.536 I-0.742 J0.509
X69.178 Y61.601 Z-2.634 I0.742 J-0.509
X67.694 Y62.619 Z-2.733 I-0.742 J0.509
X69.178 Y61.601 Z-2.832 I0.742 J-0.509
X68.436 Y63.01 Z-2.9 I-0.742 J0.509
G1 X50.156 F1000
G3 X50.156 Y62.45 I0 J-0.28
G1 X68.436
G3 X68.436 Y63.01 I0 J0.28
G2 X67.934 Y63.345 I0 J0.544
G3 X67.431 Y63.68 I-0.503 J-0.209
G1 X50.156
G3 X50.156 Y61.78 I0 J-0.95
G1 X68.436
G3 X68.436 Y63.68 I0 J0.95
G1 X67.431
G2 X66.718 Y64.155 I0 J0.772
G3 X66.006 Y64.63 I-0.713 J-0.297
G1 X50.156
G3 X50.156 Y60.83 I0 J-1.9
G1 X68.436
G3 X68.436 Y64.63 I0 J1.9
G1 X66.006
X65.957 Y64.624 Z-2.887
X65.91 Y64.606 Z-2.873
X65.88 Y64.585 Z-2.837
X65.854 Y64.56 Z-2.8
X65.838 Y64.538 Z-2.7
G0 Z15
M9
G28 G91 Z0
G90
G28 G91 X0 Y0
G90
M5
M30
