(G-CODE GENERATED BY FLATCAM v8.97 - www.flatcam.org - Version Date: 2019/09/27)

(Name: Entrenador1-SchDoc_4Display_en_uno.drl_panelized_cnc)
(Type: G-code from Excellon)
(Units: MM)

(Created on Sunday, 09 February 2020 at 17:41)

(Feedrate: 79.9998 mm/min)
(Feedrate rapids 800.0009 mm/min)

(Z_Cut: -1.5011 mm)
(Z_Move: 1.999 mm)
(Z Toolchange: 12.7 mm)
(X,Y Toolchange: 0.0000, 0.0000 mm)
(Z Start: None mm)
(Z End: 12.7 mm)
(Steps per circle: 128)
(Postprocessor Excellon: default)

(X range:   -1.6000 ...  148.9900  mm)
(Y range:   -1.6000 ...  209.4401  mm)

(Spindle Speed: None RPM)

G21
G90
G94

G01 F80.00
G00 Z1.9990

M03
G00 X147.3200 Y55.2450
G01 Z-1.5011
G01 Z0
G00 Z1.9990
G00 X147.3200 Y66.6750
G01 Z-1.5011
G01 Z0
G00 Z1.9990
G00 X147.3200 Y99.0600
G01 Z-1.5011
G01 Z0
G00 Z1.9990
G00 X147.3200 Y108.7801
G01 Z-1.5011
G01 Z0
G00 Z1.9990
G00 X147.3200 Y164.0251
G01 Z-1.5011
G01 Z0
G00 Z1.9990
G00 X147.3200 Y175.4551
G01 Z-1.5011
G01 Z0
G00 Z1.9990
G00 X147.3200 Y207.8401
G01 Z-1.5011
G01 Z0
G00 Z1.9990
G00 X0.0000 Y207.8401
G01 Z-1.5011
G01 Z0
G00 Z1.9990
G00 X0.0000 Y175.4551
G01 Z-1.5011
G01 Z0
G00 Z1.9990
G00 X0.0000 Y163.3901
G01 Z-1.5011
G01 Z0
G00 Z1.9990
G00 X0.0000 Y108.7801
G01 Z-1.5011
G01 Z0
G00 Z1.9990
G00 X0.0000 Y99.0600
G01 Z-1.5011
G01 Z0
G00 Z1.9990
G00 X0.0000 Y66.6750
G01 Z-1.5011
G01 Z0
G00 Z1.9990
G00 X0.0000 Y54.6100
G01 Z-1.5011
G01 Z0
G00 Z1.9990
G00 X0.0000 Y0.0000
G01 Z-1.5011
G01 Z0
G00 Z1.9990
G00 X147.3200 Y0.0000
G01 Z-1.5011
G01 Z0
G00 Z1.9990
M05
G00 Z12.70
G00 X0.0 Y0.0

M02