(G-CODE GENERATED BY FLATCAM v8.97 - www.flatcam.org - Version Date: 2019/09/27)

(Name: Entrenador1-SchDoc_4Display_en_uno-Edge_Cuts.gbr_panelized_cutout_cnc)
(Type: G-code from Geometry)
(Units: MM)

(Created on Sunday, 09 February 2020 at 17:41)

(TOOL DIAMETER: 2.0 mm)
(Feedrate: 79.9998 mm/min)
(Feedrate_Z: 79.9998 mm/min)
(Feedrate rapids 79.9998 mm/min)

(Z_Cut: -1.5 mm)
(Z_Move: 1.999 mm)
(Z Toolchange: 12.7 mm)
(X,Y Toolchange: 0.0000, 0.0000 mm)
(Z Start: None mm)
(Z End: 12.7 mm)
(Steps per circle: 128)
(Postprocessor Geometry: default)

(X range:   -4.8600 ...  152.1800  mm)
(Y range:   -4.8600 ...  212.7001  mm)

(Spindle Speed: None RPM)

G21
G90
G94

G01 F80.00
G00 Z1.9990

M03
G00 X-4.8600 Y46.5300
G01 F80.00
G01 Z-1.5000
G01 F80.00
G01 X-4.8599 Y-3.8223
G01 X-4.8588 Y-3.8615
G01 X-4.8573 Y-3.8860
G01 X-4.8550 Y-3.9130
G01 X-4.8520 Y-3.9398
G01 X-4.8487 Y-3.9641
G01 X-4.8448 Y-3.9883
G01 X-4.8399 Y-4.0148
G01 X-4.8348 Y-4.0389
G01 X-4.8285 Y-4.0652
G01 X-4.8216 Y-4.0912
G01 X-4.8148 Y-4.1148
G01 X-4.8074 Y-4.1382
G01 X-4.7986 Y-4.1637
G01 X-4.7892 Y-4.1890
G01 X-4.7801 Y-4.2118
G01 X-4.7704 Y-4.2344
G01 X-4.7592 Y-4.2590
G01 X-4.7473 Y-4.2832
G01 X-4.7361 Y-4.3049
G01 X-4.7230 Y-4.3286
G01 X-4.7106 Y-4.3498
G01 X-4.6978 Y-4.3707
G01 X-4.6831 Y-4.3933
G01 X-4.6678 Y-4.4156
G01 X-4.6534 Y-4.4355
G01 X-4.6385 Y-4.4550
G01 X-4.6217 Y-4.4761
G01 X-4.6043 Y-4.4968
G01 X-4.5880 Y-4.5152
G01 X-4.5696 Y-4.5349
G01 X-4.5525 Y-4.5525
G01 X-4.5331 Y-4.5713
G01 X-4.5152 Y-4.5880
G01 X-4.4968 Y-4.6043
G01 X-4.4761 Y-4.6217
G01 X-4.4550 Y-4.6385
G01 X-4.4355 Y-4.6534
G01 X-4.4156 Y-4.6678
G01 X-4.3934 Y-4.6830
G01 X-4.3707 Y-4.6978
G01 X-4.3498 Y-4.7107
G01 X-4.3286 Y-4.7230
G01 X-4.3050 Y-4.7360
G01 X-4.2832 Y-4.7473
G01 X-4.2589 Y-4.7592
G01 X-4.2344 Y-4.7704
G01 X-4.2118 Y-4.7801
G01 X-4.1890 Y-4.7892
G01 X-4.1638 Y-4.7986
G01 X-4.1405 Y-4.8066
G01 X-4.1148 Y-4.8148
G01 X-4.0889 Y-4.8223
G01 X-4.0651 Y-4.8286
G01 X-4.0413 Y-4.8342
G01 X-4.0149 Y-4.8398
G01 X-3.9907 Y-4.8443
G01 X-3.9641 Y-4.8487
G01 X-3.9373 Y-4.8523
G01 X-3.9129 Y-4.8550
G01 X-3.8860 Y-4.8573
G01 X-3.8615 Y-4.8588
G01 X-3.8370 Y-4.8597
G01 X-3.8100 Y-4.8600
G01 X70.6600 Y-4.8600
G00 Z1.9990
G00 X76.6600 Y-4.8600
G01 F80.00
G01 Z-1.5000
G01 F80.00
G01 X151.1300 Y-4.8600
G01 X151.1570 Y-4.8597
G01 X151.1815 Y-4.8588
G01 X151.2060 Y-4.8573
G01 X151.2329 Y-4.8550
G01 X151.2598 Y-4.8520
G01 X151.2841 Y-4.8487
G01 X151.3107 Y-4.8443
G01 X151.3349 Y-4.8398
G01 X151.3613 Y-4.8342
G01 X151.3851 Y-4.8286
G01 X151.4089 Y-4.8223
G01 X151.4348 Y-4.8148
G01 X151.4605 Y-4.8066
G01 X151.4837 Y-4.7986
G01 X151.5090 Y-4.7892
G01 X151.5318 Y-4.7801
G01 X151.5544 Y-4.7704
G01 X151.5789 Y-4.7592
G01 X151.6032 Y-4.7473
G01 X151.6250 Y-4.7360
G01 X151.6486 Y-4.7230
G01 X151.6698 Y-4.7106
G01 X151.6907 Y-4.6978
G01 X151.7134 Y-4.6831
G01 X151.7356 Y-4.6678
G01 X151.7555 Y-4.6534
G01 X151.7750 Y-4.6385
G01 X151.7961 Y-4.6217
G01 X151.8168 Y-4.6043
G01 X151.8352 Y-4.5880
G01 X151.8531 Y-4.5713
G01 X151.8725 Y-4.5525
G01 X151.8913 Y-4.5331
G01 X151.9080 Y-4.5152
G01 X151.9259 Y-4.4949
G01 X151.9417 Y-4.4761
G01 X151.9570 Y-4.4570
G01 X151.9734 Y-4.4355
G01 X151.9892 Y-4.4136
G01 X152.0031 Y-4.3934
G01 X152.0164 Y-4.3728
G01 X152.0306 Y-4.3498
G01 X152.0442 Y-4.3265
G01 X152.0560 Y-4.3050
G01 X152.0684 Y-4.2810
G01 X152.0792 Y-4.2589
G01 X152.0894 Y-4.2366
G01 X152.1001 Y-4.2118
G01 X152.1101 Y-4.1867
G01 X152.1186 Y-4.1637
G01 X152.1266 Y-4.1405
G01 X152.1348 Y-4.1148
G01 X152.1416 Y-4.0912
G01 X152.1486 Y-4.0651
G01 X152.1542 Y-4.0413
G01 X152.1598 Y-4.0149
G01 X152.1648 Y-3.9883
G01 X152.1687 Y-3.9641
G01 X152.1720 Y-3.9398
G01 X152.1750 Y-3.9129
G01 X152.1773 Y-3.8860
G01 X152.1788 Y-3.8615
G01 X152.1799 Y-3.8223
G01 X152.1800 Y46.5300
G00 Z1.9990
G00 X152.1800 Y52.5300
G01 F80.00
G01 Z-1.5000
G01 F80.00
G01 X152.1800 Y59.6900
G00 Z1.9990
G00 X152.1800 Y59.6900
G01 F80.00
G01 Z-1.5000
G01 F80.00
G01 X152.1797 Y59.7158
G01 X152.1788 Y59.7415
G01 X152.1772 Y59.7672
G01 X152.1750 Y59.7929
G01 X152.1721 Y59.8185
G01 X152.1687 Y59.8441
G01 X152.1646 Y59.8695
G01 X152.1598 Y59.8948
G01 X152.1545 Y59.9201
G01 X152.1486 Y59.9451
G01 X152.1420 Y59.9701
G01 X152.1348 Y59.9948
G01 X152.1270 Y60.0194
G01 X152.1186 Y60.0437
G01 X152.1097 Y60.0679
G01 X152.1001 Y60.0918
G01 X152.0899 Y60.1155
G01 X152.0792 Y60.1389
G01 X152.0679 Y60.1621
G01 X152.0560 Y60.1850
G01 X152.0436 Y60.2075
G01 X152.0306 Y60.2298
G01 X152.0171 Y60.2518
G01 X152.0031 Y60.2734
G01 X151.9885 Y60.2946
G01 X151.9734 Y60.3155
G01 X151.9578 Y60.3360
G01 X151.9417 Y60.3561
G01 X151.9251 Y60.3758
G01 X151.9080 Y60.3952
G01 X151.8905 Y60.4140
G01 X151.8725 Y60.4325
G01 X151.8540 Y60.4505
G01 X151.8352 Y60.4680
G01 X151.8159 Y60.4851
G01 X151.7961 Y60.5017
G01 X151.7760 Y60.5178
G01 X151.7555 Y60.5334
G01 X151.7346 Y60.5485
G01 X151.7031 Y60.5698
G01 X151.6814 Y60.5836
G01 X151.6593 Y60.5969
G01 X151.6368 Y60.6096
G01 X151.6130 Y60.6223
G01 X151.5900 Y60.6339
G01 X151.5667 Y60.6449
G01 X151.5431 Y60.6553
G01 X151.5193 Y60.6652
G01 X151.4953 Y60.6744
G01 X151.4710 Y60.6831
G01 X151.4477 Y60.6908
G01 X151.4230 Y60.6983
G01 X151.3851 Y60.7086
G01 X151.3601 Y60.7145
G01 X151.3348 Y60.7199
G01 X151.3095 Y60.7246
G01 X151.2841 Y60.7287
G01 X151.2585 Y60.7321
G01 X151.2329 Y60.7350
G01 X151.2072 Y60.7372
G01 X151.1815 Y60.7388
G01 X151.1192 Y60.7406
G01 X151.1085 Y60.7414
G01 X151.0978 Y60.7427
G01 X151.0871 Y60.7446
G01 X151.0766 Y60.7469
G01 X151.0662 Y60.7498
G01 X151.0560 Y60.7532
G01 X151.0459 Y60.7571
G01 X151.0361 Y60.7614
G01 X151.0265 Y60.7663
G01 X151.0171 Y60.7716
G01 X151.0080 Y60.7774
G01 X150.9991 Y60.7836
G01 X150.9907 Y60.7902
G01 X150.9825 Y60.7972
G01 X150.9747 Y60.8047
G01 X150.9672 Y60.8125
G01 X150.9602 Y60.8207
G01 X150.9536 Y60.8291
G01 X150.9474 Y60.8380
G01 X150.9416 Y60.8471
G01 X150.9363 Y60.8565
G01 X150.9314 Y60.8661
G01 X150.9271 Y60.8759
G01 X150.9232 Y60.8860
G01 X150.9198 Y60.8962
G01 X150.9169 Y60.9066
G01 X150.9146 Y60.9171
G01 X150.9127 Y60.9278
G01 X150.9114 Y60.9385
G01 X150.9106 Y60.9492
G01 X150.9103 Y60.9600
G01 X150.9106 Y60.9708
G01 X150.9114 Y60.9815
G01 X150.9127 Y60.9922
G01 X150.9146 Y61.0029
G01 X150.9169 Y61.0134
G01 X150.9198 Y61.0238
G01 X150.9232 Y61.0340
G01 X150.9271 Y61.0441
G01 X150.9314 Y61.0539
G01 X150.9363 Y61.0635
G01 X150.9416 Y61.0729
G01 X150.9474 Y61.0820
G01 X150.9536 Y61.0909
G01 X150.9602 Y61.0993
G01 X150.9672 Y61.1075
G01 X150.9747 Y61.1153
G01 X150.9825 Y61.1228
G01 X150.9907 Y61.1298
G01 X150.9991 Y61.1364
G01 X151.0080 Y61.1426
G01 X151.0171 Y61.1484
G01 X151.0265 Y61.1537
G01 X151.0361 Y61.1586
G01 X151.0459 Y61.1629
G01 X151.0560 Y61.1668
G01 X151.0662 Y61.1702
G01 X151.0766 Y61.1731
G01 X151.0871 Y61.1754
G01 X151.0978 Y61.1773
G01 X151.1085 Y61.1786
G01 X151.1192 Y61.1794
G01 X151.1815 Y61.1812
G01 X151.2072 Y61.1828
G01 X151.2329 Y61.1850
G01 X151.2585 Y61.1879
G01 X151.2841 Y61.1913
G01 X151.3095 Y61.1954
G01 X151.3348 Y61.2001
G01 X151.3601 Y61.2055
G01 X151.3851 Y61.2114
G01 X151.4230 Y61.2217
G01 X151.4477 Y61.2292
G01 X151.4722 Y61.2373
G01 X151.4964 Y61.2460
G01 X151.5193 Y61.2548
G01 X151.5431 Y61.2647
G01 X151.5667 Y61.2751
G01 X151.5900 Y61.2861
G01 X151.6130 Y61.2977
G01 X151.6358 Y61.3098
G01 X151.6582 Y61.3225
G01 X151.6803 Y61.3357
G01 X151.7031 Y61.3502
G01 X151.7346 Y61.3715
G01 X151.7555 Y61.3866
G01 X151.7760 Y61.4022
G01 X151.7961 Y61.4183
G01 X151.8159 Y61.4349
G01 X151.8352 Y61.4520
G01 X151.8540 Y61.4695
G01 X151.8725 Y61.4875
G01 X151.8905 Y61.5060
G01 X151.9080 Y61.5248
G01 X151.9251 Y61.5442
G01 X151.9417 Y61.5639
G01 X151.9578 Y61.5840
G01 X151.9734 Y61.6045
G01 X151.9885 Y61.6254
G01 X152.0031 Y61.6466
G01 X152.0171 Y61.6682
G01 X152.0306 Y61.6902
G01 X152.0436 Y61.7125
G01 X152.0560 Y61.7350
G01 X152.0679 Y61.7579
G01 X152.0792 Y61.7811
G01 X152.0953 Y61.8169
G01 X152.1052 Y61.8407
G01 X152.1140 Y61.8636
G01 X152.1227 Y61.8878
G01 X152.1308 Y61.9123
G01 X152.1383 Y61.9370
G01 X152.1452 Y61.9618
G01 X152.1515 Y61.9868
G01 X152.1571 Y62.0119
G01 X152.1622 Y62.0372
G01 X152.1666 Y62.0626
G01 X152.1704 Y62.0881
G01 X152.1736 Y62.1137
G01 X152.1761 Y62.1393
G01 X152.1780 Y62.1650
G01 X152.1793 Y62.1907
G01 X152.1799 Y62.2165
G01 X152.1799 Y102.8823
G01 X152.1788 Y102.9215
G01 X152.1771 Y102.9485
G01 X152.1750 Y102.9729
G01 X152.1723 Y102.9973
G01 X152.1687 Y103.0241
G01 X152.1648 Y103.0483
G01 X152.1598 Y103.0748
G01 X152.1542 Y103.1013
G01 X152.1486 Y103.1252
G01 X152.1423 Y103.1489
G01 X152.1348 Y103.1748
G01 X152.1266 Y103.2005
G01 X152.1187 Y103.2237
G01 X152.1101 Y103.2467
G01 X152.1001 Y103.2718
G01 X152.0894 Y103.2966
G01 X152.0792 Y103.3189
G01 X152.0684 Y103.3410
G01 X152.0560 Y103.3650
G01 X152.0430 Y103.3886
G01 X152.0306 Y103.4098
G01 X152.0178 Y103.4307
G01 X152.0031 Y103.4534
G01 X151.9878 Y103.4756
G01 X151.9734 Y103.4955
G01 X151.9585 Y103.5150
G01 X151.9417 Y103.5361
G01 X151.9243 Y103.5568
G01 X151.9080 Y103.5752
G01 X151.8913 Y103.5931
G01 X151.8725 Y103.6125
G01 X151.8531 Y103.6313
G01 X151.8351 Y103.6480
G01 X151.8149 Y103.6659
G01 X151.7961 Y103.6817
G01 X151.7770 Y103.6970
G01 X151.7555 Y103.7134
G01 X151.7336 Y103.7292
G01 X151.7134 Y103.7431
G01 X151.6928 Y103.7564
G01 X151.6698 Y103.7706
G01 X151.6465 Y103.7842
G01 X151.6250 Y103.7960
G01 X151.6032 Y103.8073
G01 X151.5789 Y103.8192
G01 X151.5544 Y103.8304
G01 X151.5318 Y103.8401
G01 X151.5090 Y103.8492
G01 X151.4838 Y103.8586
G01 X151.4582 Y103.8674
G01 X151.4348 Y103.8748
G01 X151.4112 Y103.8816
G01 X151.3852 Y103.8885
G01 X151.3589 Y103.8948
G01 X151.3349 Y103.8998
G01 X151.3107 Y103.9043
G01 X151.2840 Y103.9087
G01 X151.2573 Y103.9123
G01 X151.2329 Y103.9150
G01 X151.2060 Y103.9173
G01 X151.1815 Y103.9188
G01 X151.1570 Y103.9197
G01 X151.1300 Y103.9200
G01 X76.6600 Y103.9200
G00 Z1.9990
G00 X76.6600 Y103.9200
G01 F80.00
G01 Z-1.5000
G01 F80.00
G01 X151.1300 Y103.9200
G01 X151.1545 Y103.9203
G01 X151.1815 Y103.9213
G01 X151.2085 Y103.9230
G01 X151.2329 Y103.9251
G01 X151.2573 Y103.9278
G01 X151.2841 Y103.9314
G01 X151.3107 Y103.9357
G01 X151.3349 Y103.9402
G01 X151.3613 Y103.9458
G01 X151.3851 Y103.9515
G01 X151.4089 Y103.9577
G01 X151.4348 Y103.9652
G01 X151.4582 Y103.9727
G01 X151.4837 Y103.9814
G01 X151.5090 Y103.9908
G01 X151.5318 Y104.0000
G01 X151.5544 Y104.0096
G01 X151.5790 Y104.0208
G01 X151.6010 Y104.0316
G01 X151.6249 Y104.0440
G01 X151.6486 Y104.0571
G01 X151.6698 Y104.0694
G01 X151.6907 Y104.0823
G01 X151.7134 Y104.0970
G01 X151.7356 Y104.1123
G01 X151.7555 Y104.1267
G01 X151.7750 Y104.1415
G01 X151.7961 Y104.1584
G01 X151.8168 Y104.1758
G01 X151.8352 Y104.1920
G01 X151.8531 Y104.2087
G01 X151.8725 Y104.2276
G01 X151.8913 Y104.2469
G01 X151.9080 Y104.2649
G01 X151.9259 Y104.2851
G01 X151.9417 Y104.3039
G01 X151.9570 Y104.3231
G01 X151.9734 Y104.3445
G01 X151.9892 Y104.3664
G01 X152.0031 Y104.3867
G01 X152.0164 Y104.4073
G01 X152.0306 Y104.4302
G01 X152.0442 Y104.4536
G01 X152.0560 Y104.4751
G01 X152.0684 Y104.4991
G01 X152.0792 Y104.5211
G01 X152.0894 Y104.5434
G01 X152.1001 Y104.5682
G01 X152.1101 Y104.5933
G01 X152.1186 Y104.6163
G01 X152.1266 Y104.6395
G01 X152.1348 Y104.6652
G01 X152.1416 Y104.6888
G01 X152.1486 Y104.7149
G01 X152.1542 Y104.7388
G01 X152.1598 Y104.7652
G01 X152.1648 Y104.7917
G01 X152.1687 Y104.8160
G01 X152.1720 Y104.8403
G01 X152.1750 Y104.8671
G01 X152.1773 Y104.8940
G01 X152.1788 Y104.9185
G01 X152.1799 Y104.9578
G01 X152.1800 Y155.3101
G00 Z1.9990
G00 X152.1800 Y161.3101
G01 F80.00
G01 Z-1.5000
G01 F80.00
G01 X152.1800 Y168.4701
G00 Z1.9990
G00 X152.1800 Y168.4701
G01 F80.00
G01 Z-1.5000
G01 F80.00
G01 X152.1797 Y168.4958
G01 X152.1788 Y168.5216
G01 X152.1772 Y168.5473
G01 X152.1750 Y168.5730
G01 X152.1721 Y168.5986
G01 X152.1687 Y168.6241
G01 X152.1646 Y168.6496
G01 X152.1598 Y168.6749
G01 X152.1545 Y168.7001
G01 X152.1486 Y168.7252
G01 X152.1420 Y168.7501
G01 X152.1348 Y168.7749
G01 X152.1270 Y168.7994
G01 X152.1186 Y168.8238
G01 X152.1097 Y168.8480
G01 X152.1001 Y168.8719
G01 X152.0899 Y168.8956
G01 X152.0792 Y168.9190
G01 X152.0679 Y168.9421
G01 X152.0561 Y168.9650
G01 X152.0436 Y168.9876
G01 X152.0306 Y169.0099
G01 X152.0171 Y169.0318
G01 X152.0031 Y169.0534
G01 X151.9885 Y169.0747
G01 X151.9734 Y169.0955
G01 X151.9578 Y169.1160
G01 X151.9417 Y169.1362
G01 X151.9251 Y169.1559
G01 X151.9080 Y169.1752
G01 X151.8905 Y169.1941
G01 X151.8725 Y169.2125
G01 X151.8540 Y169.2305
G01 X151.8352 Y169.2480
G01 X151.8158 Y169.2652
G01 X151.7961 Y169.2817
G01 X151.7761 Y169.2978
G01 X151.7555 Y169.3134
G01 X151.7346 Y169.3285
G01 X151.7031 Y169.3499
G01 X151.6814 Y169.3637
G01 X151.6593 Y169.3769
G01 X151.6358 Y169.3902
G01 X151.6130 Y169.4024
G01 X151.5900 Y169.4139
G01 X151.5667 Y169.4250
G01 X151.5431 Y169.4354
G01 X151.5193 Y169.4452
G01 X151.4953 Y169.4545
G01 X151.4710 Y169.4632
G01 X151.4477 Y169.4709
G01 X151.4230 Y169.4784
G01 X151.3851 Y169.4886
G01 X151.3601 Y169.4946
G01 X151.3348 Y169.4999
G01 X151.3095 Y169.5046
G01 X151.2841 Y169.5087
G01 X151.2586 Y169.5122
G01 X151.2330 Y169.5150
G01 X151.2072 Y169.5172
G01 X151.1815 Y169.5188
G01 X151.1192 Y169.5207
G01 X151.1085 Y169.5214
G01 X151.0978 Y169.5228
G01 X151.0871 Y169.5246
G01 X151.0766 Y169.5270
G01 X151.0662 Y169.5298
G01 X151.0560 Y169.5332
G01 X151.0459 Y169.5371
G01 X151.0361 Y169.5415
G01 X151.0265 Y169.5463
G01 X151.0171 Y169.5516
G01 X151.0080 Y169.5574
G01 X150.9991 Y169.5636
G01 X150.9907 Y169.5703
G01 X150.9825 Y169.5773
G01 X150.9747 Y169.5847
G01 X150.9672 Y169.5925
G01 X150.9602 Y169.6007
G01 X150.9536 Y169.6092
G01 X150.9474 Y169.6180
G01 X150.9416 Y169.6271
G01 X150.9363 Y169.6365
G01 X150.9314 Y169.6461
G01 X150.9271 Y169.6560
G01 X150.9232 Y169.6660
G01 X150.9198 Y169.6763
G01 X150.9169 Y169.6867
G01 X150.9146 Y169.6972
G01 X150.9127 Y169.7078
G01 X150.9114 Y169.7185
G01 X150.9106 Y169.7293
G01 X150.9103 Y169.7401
G01 X150.9106 Y169.7508
G01 X150.9114 Y169.7616
G01 X150.9127 Y169.7723
G01 X150.9146 Y169.7829
G01 X150.9169 Y169.7934
G01 X150.9198 Y169.8038
G01 X150.9232 Y169.8141
G01 X150.9271 Y169.8241
G01 X150.9314 Y169.8340
G01 X150.9363 Y169.8436
G01 X150.9416 Y169.8530
G01 X150.9474 Y169.8621
G01 X150.9536 Y169.8709
G01 X150.9602 Y169.8794
G01 X150.9672 Y169.8876
G01 X150.9747 Y169.8954
G01 X150.9825 Y169.9028
G01 X150.9907 Y169.9098
G01 X150.9991 Y169.9165
G01 X151.0080 Y169.9227
G01 X151.0171 Y169.9285
G01 X151.0265 Y169.9338
G01 X151.0361 Y169.9386
G01 X151.0459 Y169.9430
G01 X151.0560 Y169.9469
G01 X151.0662 Y169.9503
G01 X151.0766 Y169.9531
G01 X151.0871 Y169.9555
G01 X151.0978 Y169.9573
G01 X151.1085 Y169.9587
G01 X151.1192 Y169.9594
G01 X151.1815 Y169.9613
G01 X151.2072 Y169.9629
G01 X151.2330 Y169.9651
G01 X151.2585 Y169.9679
G01 X151.2839 Y169.9714
G01 X151.3095 Y169.9755
G01 X151.3348 Y169.9802
G01 X151.3601 Y169.9855
G01 X151.3852 Y169.9915
G01 X151.4230 Y170.0017
G01 X151.4477 Y170.0092
G01 X151.4710 Y170.0169
G01 X151.4953 Y170.0256
G01 X151.5193 Y170.0349
G01 X151.5431 Y170.0447
G01 X151.5667 Y170.0551
G01 X151.5900 Y170.0662
G01 X151.6130 Y170.0777
G01 X151.6358 Y170.0899
G01 X151.6582 Y170.1026
G01 X151.6814 Y170.1164
G01 X151.7031 Y170.1302
G01 X151.7346 Y170.1516
G01 X151.7555 Y170.1667
G01 X151.7761 Y170.1823
G01 X151.7961 Y170.1983
G01 X151.8158 Y170.2149
G01 X151.8352 Y170.2320
G01 X151.8540 Y170.2496
G01 X151.8725 Y170.2676
G01 X151.8905 Y170.2860
G01 X151.9080 Y170.3049
G01 X151.9251 Y170.3242
G01 X151.9417 Y170.3439
G01 X151.9578 Y170.3641
G01 X151.9734 Y170.3845
G01 X151.9885 Y170.4054
G01 X152.0031 Y170.4267
G01 X152.0171 Y170.4483
G01 X152.0306 Y170.4702
G01 X152.0436 Y170.4925
G01 X152.0560 Y170.5150
G01 X152.0679 Y170.5380
G01 X152.0792 Y170.5611
G01 X152.0953 Y170.5969
G01 X152.1052 Y170.6207
G01 X152.1144 Y170.6448
G01 X152.1231 Y170.6690
G01 X152.1308 Y170.6924
G01 X152.1383 Y170.7170
G01 X152.1452 Y170.7418
G01 X152.1515 Y170.7668
G01 X152.1571 Y170.7920
G01 X152.1622 Y170.8173
G01 X152.1666 Y170.8426
G01 X152.1704 Y170.8681
G01 X152.1736 Y170.8937
G01 X152.1761 Y170.9193
G01 X152.1780 Y170.9450
G01 X152.1793 Y170.9708
G01 X152.1799 Y170.9966
G01 X152.1799 Y211.6623
G01 X152.1788 Y211.7016
G01 X152.1771 Y211.7285
G01 X152.1750 Y211.7530
G01 X152.1723 Y211.7774
G01 X152.1687 Y211.8041
G01 X152.1648 Y211.8284
G01 X152.1599 Y211.8549
G01 X152.1542 Y211.8813
G01 X152.1486 Y211.9052
G01 X152.1423 Y211.9289
G01 X152.1348 Y211.9548
G01 X152.1266 Y211.9806
G01 X152.1187 Y212.0038
G01 X152.1101 Y212.0268
G01 X152.1001 Y212.0519
G01 X152.0894 Y212.0767
G01 X152.0792 Y212.0990
G01 X152.0684 Y212.1210
G01 X152.0560 Y212.1451
G01 X152.0430 Y212.1687
G01 X152.0307 Y212.1898
G01 X152.0178 Y212.2108
G01 X152.0031 Y212.2334
G01 X151.9878 Y212.2557
G01 X151.9734 Y212.2756
G01 X151.9585 Y212.2951
G01 X151.9417 Y212.3161
G01 X151.9243 Y212.3368
G01 X151.9080 Y212.3552
G01 X151.8913 Y212.3732
G01 X151.8726 Y212.3925
G01 X151.8549 Y212.4097
G01 X151.8351 Y212.4281
G01 X151.8149 Y212.4459
G01 X151.7961 Y212.4617
G01 X151.7770 Y212.4771
G01 X151.7555 Y212.4934
G01 X151.7336 Y212.5092
G01 X151.7134 Y212.5231
G01 X151.6928 Y212.5365
G01 X151.6697 Y212.5507
G01 X151.6465 Y212.5643
G01 X151.6250 Y212.5761
G01 X151.6010 Y212.5885
G01 X151.5789 Y212.5993
G01 X151.5566 Y212.6095
G01 X151.5319 Y212.6201
G01 X151.5067 Y212.6301
G01 X151.4838 Y212.6387
G01 X151.4605 Y212.6467
G01 X151.4348 Y212.6549
G01 X151.4089 Y212.6624
G01 X151.3851 Y212.6686
G01 X151.3613 Y212.6743
G01 X151.3348 Y212.6799
G01 X151.3083 Y212.6848
G01 X151.2840 Y212.6887
G01 X151.2598 Y212.6920
G01 X151.2329 Y212.6950
G01 X151.2060 Y212.6973
G01 X151.1815 Y212.6988
G01 X151.1570 Y212.6997
G01 X151.1300 Y212.7001
G01 X76.6600 Y212.7001
G00 Z1.9990
G00 X70.6600 Y212.7001
G01 F80.00
G01 Z-1.5000
G01 F80.00
G01 X-3.8100 Y212.7001
G01 X-3.8370 Y212.6997
G01 X-3.8615 Y212.6988
G01 X-3.8860 Y212.6973
G01 X-3.9129 Y212.6950
G01 X-3.9398 Y212.6920
G01 X-3.9641 Y212.6887
G01 X-3.9907 Y212.6844
G01 X-4.0149 Y212.6799
G01 X-4.0413 Y212.6743
G01 X-4.0651 Y212.6686
G01 X-4.0889 Y212.6624
G01 X-4.1149 Y212.6548
G01 X-4.1405 Y212.6467
G01 X-4.1637 Y212.6387
G01 X-4.1867 Y212.6301
G01 X-4.2119 Y212.6201
G01 X-4.2344 Y212.6105
G01 X-4.2589 Y212.5993
G01 X-4.2832 Y212.5874
G01 X-4.3050 Y212.5761
G01 X-4.3265 Y212.5643
G01 X-4.3498 Y212.5507
G01 X-4.3707 Y212.5378
G01 X-4.3933 Y212.5231
G01 X-4.4136 Y212.5092
G01 X-4.4355 Y212.4934
G01 X-4.4570 Y212.4771
G01 X-4.4761 Y212.4617
G01 X-4.4949 Y212.4459
G01 X-4.5150 Y212.4282
G01 X-4.5349 Y212.4097
G01 X-4.5525 Y212.3925
G01 X-4.5696 Y212.3750
G01 X-4.5880 Y212.3552
G01 X-4.6059 Y212.3350
G01 X-4.6216 Y212.3163
G01 X-4.6370 Y212.2970
G01 X-4.6534 Y212.2755
G01 X-4.6692 Y212.2537
G01 X-4.6831 Y212.2333
G01 X-4.6964 Y212.2128
G01 X-4.7107 Y212.1898
G01 X-4.7242 Y212.1665
G01 X-4.7361 Y212.1450
G01 X-4.7484 Y212.1210
G01 X-4.7592 Y212.0991
G01 X-4.7694 Y212.0767
G01 X-4.7801 Y212.0519
G01 X-4.7901 Y212.0268
G01 X-4.7986 Y212.0039
G01 X-4.8066 Y211.9806
G01 X-4.8148 Y211.9548
G01 X-4.8223 Y211.9289
G01 X-4.8286 Y211.9052
G01 X-4.8348 Y211.8789
G01 X-4.8399 Y211.8549
G01 X-4.8448 Y211.8284
G01 X-4.8487 Y211.8041
G01 X-4.8520 Y211.7798
G01 X-4.8550 Y211.7529
G01 X-4.8573 Y211.7261
G01 X-4.8588 Y211.7017
G01 X-4.8599 Y211.6623
G01 X-4.8600 Y171.0101
G01 X-4.8597 Y170.9843
G01 X-4.8588 Y170.9585
G01 X-4.8572 Y170.9327
G01 X-4.8550 Y170.9071
G01 X-4.8521 Y170.8816
G01 X-4.8486 Y170.8559
G01 X-4.8446 Y170.8305
G01 X-4.8399 Y170.8052
G01 X-4.8345 Y170.7800
G01 X-4.8285 Y170.7549
G01 X-4.8220 Y170.7299
G01 X-4.8148 Y170.7053
G01 X-4.8070 Y170.6807
G01 X-4.7986 Y170.6563
G01 X-4.7897 Y170.6322
G01 X-4.7748 Y170.5958
G01 X-4.7644 Y170.5722
G01 X-4.7534 Y170.5489
G01 X-4.7418 Y170.5259
G01 X-4.7296 Y170.5032
G01 X-4.7169 Y170.4808
G01 X-4.7036 Y170.4587
G01 X-4.6898 Y170.4369
G01 X-4.6755 Y170.4155
G01 X-4.6606 Y170.3945
G01 X-4.6453 Y170.3738
G01 X-4.6294 Y170.3535
G01 X-4.6130 Y170.3335
G01 X-4.5962 Y170.3140
G01 X-4.5797 Y170.2959
G01 X-4.5620 Y170.2772
G01 X-4.5437 Y170.2589
G01 X-4.5251 Y170.2412
G01 X-4.5060 Y170.2238
G01 X-4.4865 Y170.2070
G01 X-4.4666 Y170.1906
G01 X-4.4463 Y170.1748
G01 X-4.4256 Y170.1594
G01 X-4.4035 Y170.1439
G01 X-4.3821 Y170.1296
G01 X-4.3499 Y170.1094
G01 X-4.3276 Y170.0965
G01 X-4.3050 Y170.0840
G01 X-4.2821 Y170.0721
G01 X-4.2589 Y170.0608
G01 X-4.2355 Y170.0501
G01 X-4.2119 Y170.0400
G01 X-4.1879 Y170.0304
G01 X-4.1510 Y170.0169
G01 X-4.1277 Y170.0092
G01 X-4.1030 Y170.0017
G01 X-4.0651 Y169.9915
G01 X-4.0400 Y169.9855
G01 X-4.0149 Y169.9802
G01 X-3.9895 Y169.9755
G01 X-3.9641 Y169.9714
G01 X-3.9385 Y169.9679
G01 X-3.9129 Y169.9651
G01 X-3.8872 Y169.9629
G01 X-3.8615 Y169.9613
G01 X-3.7992 Y169.9594
G01 X-3.7885 Y169.9587
G01 X-3.7778 Y169.9573
G01 X-3.7671 Y169.9555
G01 X-3.7566 Y169.9531
G01 X-3.7462 Y169.9503
G01 X-3.7360 Y169.9469
G01 X-3.7259 Y169.9430
G01 X-3.7161 Y169.9386
G01 X-3.7065 Y169.9338
G01 X-3.6971 Y169.9285
G01 X-3.6880 Y169.9227
G01 X-3.6791 Y169.9165
G01 X-3.6707 Y169.9098
G01 X-3.6625 Y169.9028
G01 X-3.6547 Y169.8954
G01 X-3.6472 Y169.8876
G01 X-3.6402 Y169.8794
G01 X-3.6336 Y169.8709
G01 X-3.6274 Y169.8621
G01 X-3.6216 Y169.8530
G01 X-3.6163 Y169.8436
G01 X-3.6114 Y169.8340
G01 X-3.6071 Y169.8241
G01 X-3.6032 Y169.8141
G01 X-3.5998 Y169.8038
G01 X-3.5969 Y169.7934
G01 X-3.5946 Y169.7829
G01 X-3.5927 Y169.7723
G01 X-3.5914 Y169.7616
G01 X-3.5906 Y169.7508
G01 X-3.5903 Y169.7401
G01 X-3.5906 Y169.7293
G01 X-3.5914 Y169.7185
G01 X-3.5927 Y169.7078
G01 X-3.5946 Y169.6972
G01 X-3.5969 Y169.6867
G01 X-3.5998 Y169.6763
G01 X-3.6032 Y169.6660
G01 X-3.6071 Y169.6560
G01 X-3.6114 Y169.6461
G01 X-3.6163 Y169.6365
G01 X-3.6216 Y169.6271
G01 X-3.6274 Y169.6180
G01 X-3.6336 Y169.6092
G01 X-3.6402 Y169.6007
G01 X-3.6472 Y169.5925
G01 X-3.6547 Y169.5847
G01 X-3.6625 Y169.5773
G01 X-3.6707 Y169.5703
G01 X-3.6791 Y169.5636
G01 X-3.6880 Y169.5574
G01 X-3.6971 Y169.5516
G01 X-3.7065 Y169.5463
G01 X-3.7161 Y169.5415
G01 X-3.7259 Y169.5371
G01 X-3.7360 Y169.5332
G01 X-3.7462 Y169.5298
G01 X-3.7566 Y169.5270
G01 X-3.7671 Y169.5246
G01 X-3.7778 Y169.5228
G01 X-3.7885 Y169.5214
G01 X-3.7992 Y169.5207
G01 X-3.8615 Y169.5188
G01 X-3.9007 Y169.5161
G01 X-3.9263 Y169.5136
G01 X-3.9519 Y169.5104
G01 X-3.9774 Y169.5066
G01 X-4.0028 Y169.5022
G01 X-4.0269 Y169.4974
G01 X-4.0520 Y169.4918
G01 X-4.0901 Y169.4820
G01 X-4.1277 Y169.4709
G01 X-4.1638 Y169.4587
G01 X-4.1879 Y169.4497
G01 X-4.2119 Y169.4401
G01 X-4.2355 Y169.4300
G01 X-4.2590 Y169.4192
G01 X-4.2821 Y169.4080
G01 X-4.3050 Y169.3961
G01 X-4.3276 Y169.3836
G01 X-4.3498 Y169.3707
G01 X-4.3718 Y169.3571
G01 X-4.3934 Y169.3431
G01 X-4.4146 Y169.3285
G01 X-4.4355 Y169.3134
G01 X-4.4561 Y169.2978
G01 X-4.4761 Y169.2817
G01 X-4.5060 Y169.2563
G01 X-4.5251 Y169.2389
G01 X-4.5437 Y169.2212
G01 X-4.5611 Y169.2038
G01 X-4.5789 Y169.1851
G01 X-4.6051 Y169.1559
G01 X-4.6217 Y169.1362
G01 X-4.6377 Y169.1161
G01 X-4.6614 Y169.0847
G01 X-4.6755 Y169.0646
G01 X-4.6898 Y169.0432
G01 X-4.7107 Y169.0098
G01 X-4.7236 Y168.9876
G01 X-4.7361 Y168.9650
G01 X-4.7479 Y168.9422
G01 X-4.7592 Y168.9191
G01 X-4.7753 Y168.8832
G01 X-4.7852 Y168.8594
G01 X-4.7940 Y168.8365
G01 X-4.8070 Y168.7994
G01 X-4.8186 Y168.7619
G01 X-4.8255 Y168.7371
G01 X-4.8315 Y168.7133
G01 X-4.8399 Y168.6749
G01 X-4.8446 Y168.6496
G01 X-4.8486 Y168.6242
G01 X-4.8536 Y168.5864
G01 X-4.8572 Y168.5474
G01 X-4.8593 Y168.5093
G01 X-4.8600 Y168.4701
G01 X-4.8600 Y161.3101
G00 Z1.9990
G00 X-4.8600 Y155.3101
G01 F80.00
G01 Z-1.5000
G01 F80.00
G01 X-4.8599 Y104.9578
G01 X-4.8588 Y104.9185
G01 X-4.8573 Y104.8940
G01 X-4.8550 Y104.8671
G01 X-4.8520 Y104.8403
G01 X-4.8487 Y104.8160
G01 X-4.8448 Y104.7917
G01 X-4.8399 Y104.7653
G01 X-4.8348 Y104.7412
G01 X-4.8285 Y104.7149
G01 X-4.8216 Y104.6888
G01 X-4.8148 Y104.6653
G01 X-4.8074 Y104.6418
G01 X-4.7987 Y104.6163
G01 X-4.7892 Y104.5910
G01 X-4.7801 Y104.5682
G01 X-4.7704 Y104.5457
G01 X-4.7592 Y104.5210
G01 X-4.7473 Y104.4969
G01 X-4.7361 Y104.4751
G01 X-4.7230 Y104.4514
G01 X-4.7107 Y104.4303
G01 X-4.6978 Y104.4093
G01 X-4.6831 Y104.3867
G01 X-4.6678 Y104.3644
G01 X-4.6534 Y104.3445
G01 X-4.6385 Y104.3250
G01 X-4.6217 Y104.3040
G01 X-4.6043 Y104.2833
G01 X-4.5880 Y104.2649
G01 X-4.5696 Y104.2451
G01 X-4.5525 Y104.2276
G01 X-4.5331 Y104.2087
G01 X-4.5152 Y104.1920
G01 X-4.4968 Y104.1758
G01 X-4.4761 Y104.1584
G01 X-4.4550 Y104.1415
G01 X-4.4355 Y104.1267
G01 X-4.4156 Y104.1123
G01 X-4.3934 Y104.0970
G01 X-4.3707 Y104.0823
G01 X-4.3498 Y104.0694
G01 X-4.3286 Y104.0571
G01 X-4.3050 Y104.0440
G01 X-4.2832 Y104.0327
G01 X-4.2590 Y104.0208
G01 X-4.2344 Y104.0096
G01 X-4.2118 Y104.0000
G01 X-4.1890 Y103.9908
G01 X-4.1638 Y103.9814
G01 X-4.1405 Y103.9734
G01 X-4.1148 Y103.9652
G01 X-4.0889 Y103.9577
G01 X-4.0651 Y103.9515
G01 X-4.0413 Y103.9458
G01 X-4.0149 Y103.9402
G01 X-3.9907 Y103.9357
G01 X-3.9641 Y103.9314
G01 X-3.9373 Y103.9278
G01 X-3.9129 Y103.9251
G01 X-3.8885 Y103.9230
G01 X-3.8615 Y103.9213
G01 X-3.8345 Y103.9203
G01 X-3.8100 Y103.9200
G01 X70.6600 Y103.9200
G00 Z1.9990
G00 X70.6600 Y103.9200
G01 F80.00
G01 Z-1.5000
G01 F80.00
G01 X-3.8100 Y103.9200
G01 X-3.8370 Y103.9197
G01 X-3.8615 Y103.9188
G01 X-3.8860 Y103.9173
G01 X-3.9129 Y103.9150
G01 X-3.9398 Y103.9120
G01 X-3.9641 Y103.9087
G01 X-3.9907 Y103.9043
G01 X-4.0149 Y103.8998
G01 X-4.0389 Y103.8948
G01 X-4.0651 Y103.8886
G01 X-4.0889 Y103.8823
G01 X-4.1148 Y103.8748
G01 X-4.1405 Y103.8666
G01 X-4.1638 Y103.8586
G01 X-4.1890 Y103.8492
G01 X-4.2118 Y103.8401
G01 X-4.2344 Y103.8304
G01 X-4.2590 Y103.8192
G01 X-4.2810 Y103.8084
G01 X-4.3050 Y103.7961
G01 X-4.3286 Y103.7830
G01 X-4.3498 Y103.7707
G01 X-4.3707 Y103.7578
G01 X-4.3934 Y103.7431
G01 X-4.4156 Y103.7278
G01 X-4.4355 Y103.7134
G01 X-4.4570 Y103.6970
G01 X-4.4761 Y103.6817
G01 X-4.4949 Y103.6659
G01 X-4.5151 Y103.6481
G01 X-4.5349 Y103.6296
G01 X-4.5525 Y103.6125
G01 X-4.5696 Y103.5949
G01 X-4.5880 Y103.5752
G01 X-4.6059 Y103.5549
G01 X-4.6216 Y103.5362
G01 X-4.6370 Y103.5170
G01 X-4.6534 Y103.4955
G01 X-4.6692 Y103.4736
G01 X-4.6831 Y103.4533
G01 X-4.6964 Y103.4328
G01 X-4.7107 Y103.4098
G01 X-4.7242 Y103.3865
G01 X-4.7361 Y103.3649
G01 X-4.7484 Y103.3410
G01 X-4.7592 Y103.3190
G01 X-4.7694 Y103.2966
G01 X-4.7801 Y103.2719
G01 X-4.7901 Y103.2467
G01 X-4.7986 Y103.2238
G01 X-4.8066 Y103.2005
G01 X-4.8148 Y103.1748
G01 X-4.8223 Y103.1489
G01 X-4.8286 Y103.1251
G01 X-4.8348 Y103.0989
G01 X-4.8399 Y103.0748
G01 X-4.8448 Y103.0483
G01 X-4.8487 Y103.0240
G01 X-4.8520 Y102.9998
G01 X-4.8550 Y102.9728
G01 X-4.8573 Y102.9460
G01 X-4.8588 Y102.9217
G01 X-4.8599 Y102.8823
G01 X-4.8600 Y62.2300
G01 X-4.8597 Y62.2043
G01 X-4.8588 Y62.1785
G01 X-4.8572 Y62.1527
G01 X-4.8550 Y62.1270
G01 X-4.8521 Y62.1015
G01 X-4.8486 Y62.0758
G01 X-4.8446 Y62.0505
G01 X-4.8399 Y62.0252
G01 X-4.8345 Y61.9999
G01 X-4.8285 Y61.9748
G01 X-4.8220 Y61.9499
G01 X-4.8148 Y61.9252
G01 X-4.8070 Y61.9007
G01 X-4.7986 Y61.8762
G01 X-4.7897 Y61.8521
G01 X-4.7748 Y61.8157
G01 X-4.7644 Y61.7922
G01 X-4.7534 Y61.7689
G01 X-4.7418 Y61.7459
G01 X-4.7296 Y61.7232
G01 X-4.7169 Y61.7007
G01 X-4.7036 Y61.6786
G01 X-4.6898 Y61.6569
G01 X-4.6755 Y61.6355
G01 X-4.6606 Y61.6144
G01 X-4.6453 Y61.5937
G01 X-4.6302 Y61.5744
G01 X-4.6138 Y61.5544
G01 X-4.5970 Y61.5349
G01 X-4.5797 Y61.5158
G01 X-4.5620 Y61.4971
G01 X-4.5437 Y61.4789
G01 X-4.5251 Y61.4611
G01 X-4.5060 Y61.4438
G01 X-4.4865 Y61.4270
G01 X-4.4666 Y61.4106
G01 X-4.4463 Y61.3947
G01 X-4.4256 Y61.3794
G01 X-4.4045 Y61.3645
G01 X-4.3821 Y61.3495
G01 X-4.3498 Y61.3294
G01 X-4.3276 Y61.3164
G01 X-4.3050 Y61.3040
G01 X-4.2821 Y61.2921
G01 X-4.2589 Y61.2808
G01 X-4.2355 Y61.2700
G01 X-4.2118 Y61.2599
G01 X-4.1879 Y61.2503
G01 X-4.1510 Y61.2369
G01 X-4.1277 Y61.2292
G01 X-4.1030 Y61.2217
G01 X-4.0652 Y61.2114
G01 X-4.0401 Y61.2055
G01 X-4.0149 Y61.2002
G01 X-3.9895 Y61.1954
G01 X-3.9641 Y61.1913
G01 X-3.9385 Y61.1879
G01 X-3.9129 Y61.1850
G01 X-3.8872 Y61.1828
G01 X-3.8615 Y61.1812
G01 X-3.7992 Y61.1794
G01 X-3.7885 Y61.1786
G01 X-3.7778 Y61.1773
G01 X-3.7671 Y61.1754
G01 X-3.7566 Y61.1731
G01 X-3.7462 Y61.1702
G01 X-3.7360 Y61.1668
G01 X-3.7259 Y61.1629
G01 X-3.7161 Y61.1586
G01 X-3.7065 Y61.1537
G01 X-3.6971 Y61.1484
G01 X-3.6880 Y61.1426
G01 X-3.6791 Y61.1364
G01 X-3.6707 Y61.1298
G01 X-3.6625 Y61.1228
G01 X-3.6547 Y61.1153
G01 X-3.6472 Y61.1075
G01 X-3.6402 Y61.0993
G01 X-3.6336 Y61.0909
G01 X-3.6274 Y61.0820
G01 X-3.6216 Y61.0729
G01 X-3.6163 Y61.0635
G01 X-3.6114 Y61.0539
G01 X-3.6071 Y61.0441
G01 X-3.6032 Y61.0340
G01 X-3.5998 Y61.0238
G01 X-3.5969 Y61.0134
G01 X-3.5946 Y61.0029
G01 X-3.5927 Y60.9922
G01 X-3.5914 Y60.9815
G01 X-3.5906 Y60.9708
G01 X-3.5903 Y60.9600
G01 X-3.5906 Y60.9492
G01 X-3.5914 Y60.9385
G01 X-3.5927 Y60.9278
G01 X-3.5946 Y60.9171
G01 X-3.5969 Y60.9066
G01 X-3.5998 Y60.8962
G01 X-3.6032 Y60.8860
G01 X-3.6071 Y60.8759
G01 X-3.6114 Y60.8661
G01 X-3.6163 Y60.8565
G01 X-3.6216 Y60.8471
G01 X-3.6274 Y60.8380
G01 X-3.6336 Y60.8291
G01 X-3.6402 Y60.8207
G01 X-3.6472 Y60.8125
G01 X-3.6547 Y60.8047
G01 X-3.6625 Y60.7972
G01 X-3.6707 Y60.7902
G01 X-3.6791 Y60.7836
G01 X-3.6880 Y60.7774
G01 X-3.6971 Y60.7716
G01 X-3.7065 Y60.7663
G01 X-3.7161 Y60.7614
G01 X-3.7259 Y60.7571
G01 X-3.7360 Y60.7532
G01 X-3.7462 Y60.7498
G01 X-3.7566 Y60.7469
G01 X-3.7671 Y60.7446
G01 X-3.7778 Y60.7427
G01 X-3.7885 Y60.7414
G01 X-3.7992 Y60.7406
G01 X-3.8615 Y60.7388
G01 X-3.9007 Y60.7361
G01 X-3.9263 Y60.7336
G01 X-3.9519 Y60.7304
G01 X-3.9774 Y60.7266
G01 X-4.0028 Y60.7222
G01 X-4.0281 Y60.7171
G01 X-4.0520 Y60.7117
G01 X-4.0900 Y60.7020
G01 X-4.1265 Y60.6912
G01 X-4.1637 Y60.6786
G01 X-4.1879 Y60.6697
G01 X-4.2118 Y60.6601
G01 X-4.2355 Y60.6500
G01 X-4.2589 Y60.6392
G01 X-4.2821 Y60.6279
G01 X-4.3050 Y60.6160
G01 X-4.3276 Y60.6036
G01 X-4.3498 Y60.5906
G01 X-4.3718 Y60.5771
G01 X-4.3934 Y60.5631
G01 X-4.4147 Y60.5485
G01 X-4.4355 Y60.5334
G01 X-4.4561 Y60.5178
G01 X-4.4761 Y60.5017
G01 X-4.5060 Y60.4762
G01 X-4.5251 Y60.4589
G01 X-4.5437 Y60.4411
G01 X-4.5611 Y60.4237
G01 X-4.5789 Y60.4051
G01 X-4.6051 Y60.3758
G01 X-4.6217 Y60.3562
G01 X-4.6378 Y60.3360
G01 X-4.6534 Y60.3155
G01 X-4.6685 Y60.2946
G01 X-4.6905 Y60.2621
G01 X-4.7043 Y60.2403
G01 X-4.7169 Y60.2193
G01 X-4.7361 Y60.1849
G01 X-4.7479 Y60.1621
G01 X-4.7592 Y60.1390
G01 X-4.7753 Y60.1031
G01 X-4.7852 Y60.0793
G01 X-4.7940 Y60.0564
G01 X-4.8070 Y60.0193
G01 X-4.8186 Y59.9819
G01 X-4.8252 Y59.9582
G01 X-4.8315 Y59.9332
G01 X-4.8399 Y59.8948
G01 X-4.8446 Y59.8695
G01 X-4.8486 Y59.8442
G01 X-4.8536 Y59.8063
G01 X-4.8572 Y59.7673
G01 X-4.8593 Y59.7293
G01 X-4.8600 Y59.6900
G01 X-4.8600 Y52.5300
G00 Z1.9990
G00 X-0.0000 Y60.9000
G01 F80.00
G01 Z-1.5000
G01 F80.00
G01 X147.4000 Y60.9000
G00 Z1.9990
G00 X147.2000 Y169.8000
G01 F80.00
G01 Z-1.5000
G01 F80.00
G01 X-0.0000 Y169.7000
G00 Z1.9990
M05
G00 Z1.9990
G00 Z12.70
G00 X0.0 Y0.0

M02