(G-CODE GENERATED BY FLATCAM v8.97 - www.flatcam.org - Version Date: 2019/09/27)

(Name: Entrenador1-SchDoc_4Display_en_uno-B_Cu.gbr_panelized_iso_cnc)
(Type: G-code from Geometry)
(Units: MM)

(Created on Sunday, 09 February 2020 at 17:41)

(TOOL DIAMETER: 0.2007 mm)
(Feedrate: 79.9998 mm/min)
(Feedrate_Z: 79.9998 mm/min)
(Feedrate rapids 79.9998 mm/min)

(Z_Cut: -0.1866 mm)
(Z_Move: 2.0 mm)
(Z Toolchange: 25.4 mm)
(X,Y Toolchange: 0.0000, 0.0000 mm)
(Z Start: None mm)
(Z End: 25.4 mm)
(Steps per circle: 128)
(Postprocessor Geometry: default)

(X range:   -1.1543 ...  149.8343  mm)
(Y range:    0.4047 ...  210.1526  mm)

(Spindle Speed: None RPM)

G21
G90
G94

G01 F80.00
G00 Z2.0000

M03
G00 X19.6861 Y18.9101
G01 F80.00
G01 Z-0.1866
G01 F80.00
G01 X19.6906 Y18.8479
G01 X19.6981 Y18.7860
G01 X19.7086 Y18.7246
G01 X19.7233 Y18.6589
G01 X19.7401 Y18.5989
G01 X19.7598 Y18.5397
G01 X19.7804 Y18.4861
G01 X19.8056 Y18.4291
G01 X19.8358 Y18.3690
G01 X19.8667 Y18.3148
G01 X19.8974 Y18.2663
G01 X19.9332 Y18.2152
G01 X19.9746 Y18.1622
G01 X20.0154 Y18.1151
G01 X20.0585 Y18.0700
G01 X20.1037 Y18.0271
G01 X20.1510 Y17.9865
G01 X20.1963 Y17.9511
G01 X20.2472 Y17.9151
G01 X20.3000 Y17.8816
G01 X20.3540 Y17.8508
G01 X20.4141 Y17.8206
G01 X20.4711 Y17.7954
G01 X20.5294 Y17.7731
G01 X20.5839 Y17.7551
G01 X20.6439 Y17.7383
G01 X20.7096 Y17.7236
G01 X20.7710 Y17.7131
G01 X20.8280 Y17.7060
G01 X20.8902 Y17.7013
G01 X20.9525 Y17.6997
G01 X21.0198 Y17.7013
G01 X21.0820 Y17.7060
G01 X21.1438 Y17.7138
G01 X21.2004 Y17.7236
G01 X21.2613 Y17.7372
G01 X21.3261 Y17.7551
G01 X21.3853 Y17.7748
G01 X21.4434 Y17.7973
G01 X21.5004 Y17.8227
G01 X21.5560 Y17.8508
G01 X21.6102 Y17.8817
G01 X21.6628 Y17.9151
G01 X21.7137 Y17.9511
G01 X21.7628 Y17.9896
G01 X21.8099 Y18.0304
G01 X21.8550 Y18.0735
G01 X21.8979 Y18.1187
G01 X21.9385 Y18.1660
G01 X21.9739 Y18.2113
G01 X22.0099 Y18.2622
G01 X22.0434 Y18.3150
G01 X22.0742 Y18.3690
G01 X22.1023 Y18.4246
G01 X22.1277 Y18.4818
G01 X22.1420 Y18.4851
G01 X22.1609 Y18.4903
G01 X22.1889 Y18.4996
G01 X22.2118 Y18.5085
G01 X22.2298 Y18.5165
G01 X22.2521 Y18.5276
G01 X22.2774 Y18.5420
G01 X22.2940 Y18.5525
G01 X22.3142 Y18.5665
G01 X22.3374 Y18.5847
G01 X22.3560 Y18.6008
G01 X22.3719 Y18.6161
G01 X23.9759 Y20.2201
G01 X23.9915 Y20.2364
G01 X24.0073 Y20.2546
G01 X24.0226 Y20.2739
G01 X24.0368 Y20.2939
G01 X24.0526 Y20.3188
G01 X24.0646 Y20.3402
G01 X24.0755 Y20.3622
G01 X24.0835 Y20.3802
G01 X24.0924 Y20.4031
G01 X24.1003 Y20.4264
G01 X24.1069 Y20.4500
G01 X24.1124 Y20.4739
G01 X24.1167 Y20.4981
G01 X24.1199 Y20.5225
G01 X24.1218 Y20.5470
G01 X24.1226 Y20.5740
G01 X24.1226 Y39.1630
G01 X24.1220 Y39.1851
G01 X24.1204 Y39.2096
G01 X24.1167 Y39.2389
G01 X24.1124 Y39.2631
G01 X24.1069 Y39.2870
G01 X24.1003 Y39.3106
G01 X24.0924 Y39.3339
G01 X24.0835 Y39.3568
G01 X24.0755 Y39.3748
G01 X24.0623 Y39.4011
G01 X24.0500 Y39.4224
G01 X24.0395 Y39.4390
G01 X24.0255 Y39.4592
G01 X24.0105 Y39.4786
G01 X23.9912 Y39.5010
G01 X23.9759 Y39.5169
G01 X22.1343 Y41.3585
G01 X22.1519 Y41.4044
G01 X22.1713 Y41.4636
G01 X22.1878 Y41.5237
G01 X22.2014 Y41.5846
G01 X22.2119 Y41.6460
G01 X22.2194 Y41.7079
G01 X22.2239 Y41.7701
G01 X22.2253 Y41.8325
G01 X22.2237 Y41.8948
G01 X22.2190 Y41.9570
G01 X22.2112 Y42.0188
G01 X22.2004 Y42.0802
G01 X22.1867 Y42.1411
G01 X22.1699 Y42.2011
G01 X22.1502 Y42.2603
G01 X22.1277 Y42.3184
G01 X22.1023 Y42.3754
G01 X22.0763 Y42.4269
G01 X22.0459 Y42.4810
G01 X22.0126 Y42.5337
G01 X21.9768 Y42.5848
G01 X21.9385 Y42.6340
G01 X21.8979 Y42.6813
G01 X21.8550 Y42.7265
G01 X21.8096 Y42.7699
G01 X21.7628 Y42.8104
G01 X21.7137 Y42.8489
G01 X21.6628 Y42.8849
G01 X21.6100 Y42.9184
G01 X21.5560 Y42.9492
G01 X21.5004 Y42.9773
G01 X21.4556 Y42.9973
G01 X21.4556 Y48.9646
G01 X21.8050 Y48.9646
G01 X21.8148 Y48.9651
G01 X21.8246 Y48.9666
G01 X21.8388 Y48.9705
G01 X21.8523 Y48.9765
G01 X21.8648 Y48.9844
G01 X21.8760 Y48.9940
G01 X21.8856 Y49.0052
G01 X21.8935 Y49.0177
G01 X21.8995 Y49.0312
G01 X21.9023 Y49.0406
G01 X21.9043 Y49.0503
G01 X21.9053 Y49.0650
G01 X21.9052 Y51.2699
G01 X21.9043 Y51.2797
G01 X21.9023 Y51.2894
G01 X21.8995 Y51.2988
G01 X21.8957 Y51.3079
G01 X21.8884 Y51.3208
G01 X21.8826 Y51.3287
G01 X21.8760 Y51.3360
G01 X21.8687 Y51.3426
G01 X21.8608 Y51.3484
G01 X21.8479 Y51.3557
G01 X21.8388 Y51.3595
G01 X21.8294 Y51.3623
G01 X21.8197 Y51.3643
G01 X21.8099 Y51.3652
G01 X20.1001 Y51.3652
G01 X20.0903 Y51.3643
G01 X20.0806 Y51.3623
G01 X20.0666 Y51.3577
G01 X20.0534 Y51.3511
G01 X20.0452 Y51.3456
G01 X20.0376 Y51.3394
G01 X20.0306 Y51.3324
G01 X20.0244 Y51.3248
G01 X20.0165 Y51.3123
G01 X20.0105 Y51.2988
G01 X20.0066 Y51.2846
G01 X20.0051 Y51.2748
G01 X20.0046 Y51.2650
G01 X20.0046 Y49.0650
G01 X20.0051 Y49.0552
G01 X20.0066 Y49.0454
G01 X20.0105 Y49.0312
G01 X20.0165 Y49.0177
G01 X20.0244 Y49.0052
G01 X20.0340 Y48.9940
G01 X20.0452 Y48.9844
G01 X20.0577 Y48.9765
G01 X20.0712 Y48.9705
G01 X20.0854 Y48.9666
G01 X20.0952 Y48.9651
G01 X20.1050 Y48.9646
G01 X20.4544 Y48.9646
G01 X20.4544 Y42.9973
G01 X20.4096 Y42.9773
G01 X20.3540 Y42.9492
G01 X20.2998 Y42.9183
G01 X20.2513 Y42.8876
G01 X20.1963 Y42.8489
G01 X20.1472 Y42.8104
G01 X20.1037 Y42.7729
G01 X20.0550 Y42.7265
G01 X20.0151 Y42.6846
G01 X19.9746 Y42.6378
G01 X19.9332 Y42.5848
G01 X19.8974 Y42.5337
G01 X19.8666 Y42.4850
G01 X19.8335 Y42.4267
G01 X19.8077 Y42.3754
G01 X19.7823 Y42.3184
G01 X19.7581 Y42.2556
G01 X19.7387 Y42.1964
G01 X19.7233 Y42.1411
G01 X19.7086 Y42.0754
G01 X19.6981 Y42.0140
G01 X19.6910 Y41.9570
G01 X19.6861 Y41.8899
G01 X19.6847 Y41.8325
G01 X19.6861 Y41.7701
G01 X19.6906 Y41.7079
G01 X19.6981 Y41.6460
G01 X19.7086 Y41.5846
G01 X19.7222 Y41.5237
G01 X19.7401 Y41.4589
G01 X19.7598 Y41.3997
G01 X19.7823 Y41.3416
G01 X19.8077 Y41.2846
G01 X19.8358 Y41.2290
G01 X19.8667 Y41.1748
G01 X19.8974 Y41.1263
G01 X19.9332 Y41.0752
G01 X19.9715 Y41.0260
G01 X20.0121 Y40.9787
G01 X20.0550 Y40.9335
G01 X20.1004 Y40.8901
G01 X20.1510 Y40.8465
G01 X20.1963 Y40.8111
G01 X20.2472 Y40.7751
G01 X20.3000 Y40.7416
G01 X20.3583 Y40.7085
G01 X20.4141 Y40.6806
G01 X20.4666 Y40.6573
G01 X20.5247 Y40.6348
G01 X20.5886 Y40.6137
G01 X20.6487 Y40.5972
G01 X20.7048 Y40.5846
G01 X20.7662 Y40.5738
G01 X20.8280 Y40.5660
G01 X20.8951 Y40.5611
G01 X20.9525 Y40.5597
G01 X21.0149 Y40.5611
G01 X21.0820 Y40.5660
G01 X21.1438 Y40.5738
G01 X21.2004 Y40.5836
G01 X21.2613 Y40.5972
G01 X21.3261 Y40.6151
G01 X21.3806 Y40.6331
G01 X21.4265 Y40.6507
G01 X23.1214 Y38.9557
G01 X23.1214 Y20.7813
G01 X22.0131 Y19.6730
G01 X21.9739 Y19.7287
G01 X21.9354 Y19.7778
G01 X21.8946 Y19.8249
G01 X21.8515 Y19.8700
G01 X21.8096 Y19.9099
G01 X21.7590 Y19.9535
G01 X21.7098 Y19.9918
G01 X21.6587 Y20.0276
G01 X21.6100 Y20.0584
G01 X21.5560 Y20.0892
G01 X21.5004 Y20.1173
G01 X21.4434 Y20.1427
G01 X21.3853 Y20.1652
G01 X21.3261 Y20.1849
G01 X21.2661 Y20.2017
G01 X21.2052 Y20.2154
G01 X21.1438 Y20.2262
G01 X21.0820 Y20.2340
G01 X21.0198 Y20.2387
G01 X20.9575 Y20.2403
G01 X20.8951 Y20.2389
G01 X20.8329 Y20.2344
G01 X20.7710 Y20.2269
G01 X20.7048 Y20.2154
G01 X20.6439 Y20.2017
G01 X20.5839 Y20.1849
G01 X20.5247 Y20.1652
G01 X20.4666 Y20.1427
G01 X20.4096 Y20.1173
G01 X20.3540 Y20.0892
G01 X20.2998 Y20.0583
G01 X20.2513 Y20.0276
G01 X20.2002 Y19.9918
G01 X20.1472 Y19.9504
G01 X20.1001 Y19.9096
G01 X20.0585 Y19.8700
G01 X20.0121 Y19.8213
G01 X19.9715 Y19.7740
G01 X19.9361 Y19.7287
G01 X19.8974 Y19.6737
G01 X19.8666 Y19.6250
G01 X19.8358 Y19.5710
G01 X19.8056 Y19.5109
G01 X19.7804 Y19.4539
G01 X19.7581 Y19.3956
G01 X19.7401 Y19.3411
G01 X19.7222 Y19.2763
G01 X19.7096 Y19.2202
G01 X19.6988 Y19.1588
G01 X19.6906 Y19.0921
G01 X19.6861 Y19.0299
G01 X19.6847 Y18.9725
G01 X19.6861 Y18.9101
G00 Z2.0000
G00 X26.5327 Y11.8963
G01 F80.00
G01 Z-0.1866
G01 F80.00
G01 X26.5358 Y11.8522
G01 X26.5411 Y11.8083
G01 X26.5485 Y11.7648
G01 X26.5581 Y11.7216
G01 X26.5712 Y11.6743
G01 X26.5851 Y11.6324
G01 X26.6012 Y11.5912
G01 X26.6192 Y11.5508
G01 X26.6391 Y11.5114
G01 X26.6610 Y11.4730
G01 X26.6821 Y11.4398
G01 X26.7074 Y11.4037
G01 X26.7345 Y11.3687
G01 X26.7633 Y11.3352
G01 X26.7936 Y11.3031
G01 X26.8259 Y11.2722
G01 X26.8627 Y11.2405
G01 X26.8937 Y11.2163
G01 X26.9298 Y11.1908
G01 X26.9672 Y11.1669
G01 X27.0098 Y11.1428
G01 X27.0493 Y11.1231
G01 X27.0897 Y11.1053
G01 X27.1310 Y11.0895
G01 X27.1683 Y11.0772
G01 X27.2109 Y11.0653
G01 X27.2588 Y11.0545
G01 X27.3023 Y11.0471
G01 X27.3413 Y11.0423
G01 X27.3854 Y11.0389
G01 X27.4295 Y11.0377
G01 X27.4786 Y11.0389
G01 X27.5227 Y11.0423
G01 X27.5617 Y11.0471
G01 X27.6052 Y11.0545
G01 X27.6531 Y11.0653
G01 X27.6910 Y11.0757
G01 X27.7002 Y11.0786
G01 X28.2564 Y10.5224
G01 X28.2698 Y10.5096
G01 X28.2849 Y10.4965
G01 X28.3010 Y10.4837
G01 X28.3218 Y10.4691
G01 X28.3392 Y10.4582
G01 X28.3571 Y10.4482
G01 X28.3711 Y10.4412
G01 X28.3898 Y10.4328
G01 X28.4089 Y10.4253
G01 X28.4283 Y10.4187
G01 X28.4481 Y10.4131
G01 X28.4680 Y10.4085
G01 X28.4882 Y10.4049
G01 X28.5086 Y10.4023
G01 X28.5290 Y10.4006
G01 X28.5495 Y10.4000
G01 X30.1198 Y10.4000
G01 X30.1348 Y10.3462
G01 X30.1518 Y10.2950
G01 X30.1714 Y10.2447
G01 X30.1913 Y10.1998
G01 X30.2156 Y10.1512
G01 X30.2445 Y10.1002
G01 X30.2735 Y10.0546
G01 X30.3047 Y10.0106
G01 X30.3349 Y9.9719
G01 X30.3701 Y9.9309
G01 X30.4072 Y9.8917
G01 X30.4499 Y9.8511
G01 X30.4909 Y9.8159
G01 X30.5296 Y9.7857
G01 X30.5736 Y9.7545
G01 X30.6194 Y9.7254
G01 X30.6661 Y9.6988
G01 X30.7188 Y9.6723
G01 X30.7682 Y9.6505
G01 X30.8186 Y9.6312
G01 X30.8652 Y9.6158
G01 X30.9173 Y9.6013
G01 X30.9699 Y9.5893
G01 X31.0280 Y9.5792
G01 X31.0816 Y9.5727
G01 X31.1355 Y9.5689
G01 X31.1845 Y9.5677
G01 X31.2385 Y9.5689
G01 X31.2924 Y9.5727
G01 X31.3460 Y9.5792
G01 X31.3992 Y9.5883
G01 X31.4520 Y9.6001
G01 X31.5088 Y9.6158
G01 X31.5600 Y9.6328
G01 X31.6058 Y9.6505
G01 X31.6552 Y9.6723
G01 X31.7038 Y9.6966
G01 X31.7548 Y9.7255
G01 X31.7963 Y9.7518
G01 X31.8405 Y9.7827
G01 X31.8831 Y9.8159
G01 X31.9241 Y9.8511
G01 X31.9633 Y9.8882
G01 X32.0009 Y9.9276
G01 X32.0360 Y9.9681
G01 X32.0693 Y10.0106
G01 X32.1005 Y10.0546
G01 X32.1296 Y10.1004
G01 X32.1562 Y10.1471
G01 X32.1806 Y10.1953
G01 X32.2026 Y10.2447
G01 X32.2222 Y10.2950
G01 X32.2392 Y10.3462
G01 X32.2537 Y10.3983
G01 X32.2657 Y10.4509
G01 X32.2750 Y10.5041
G01 X32.2818 Y10.5577
G01 X32.2859 Y10.6116
G01 X32.2873 Y10.6655
G01 X32.2861 Y10.7195
G01 X32.2823 Y10.7734
G01 X32.2758 Y10.8270
G01 X32.2667 Y10.8802
G01 X32.2549 Y10.9330
G01 X32.2407 Y10.9850
G01 X32.2238 Y11.0364
G01 X32.2045 Y11.0868
G01 X32.1827 Y11.1362
G01 X32.1584 Y11.1848
G01 X32.1536 Y11.1935
G01 X42.3326 Y21.3724
G01 X42.3484 Y21.3891
G01 X42.3617 Y21.4047
G01 X42.3713 Y21.4170
G01 X42.3859 Y21.4378
G01 X42.3943 Y21.4512
G01 X42.4045 Y21.4688
G01 X42.4138 Y21.4871
G01 X42.4241 Y21.5103
G01 X42.4314 Y21.5295
G01 X42.4377 Y21.5490
G01 X42.4419 Y21.5641
G01 X42.4474 Y21.5889
G01 X42.4508 Y21.6091
G01 X42.4527 Y21.6246
G01 X42.4544 Y21.6450
G01 X42.4550 Y21.6680
G01 X42.4550 Y38.6247
G01 X42.4871 Y38.6411
G01 X42.5234 Y38.6616
G01 X42.5670 Y38.6892
G01 X42.6051 Y38.7162
G01 X42.6380 Y38.7418
G01 X42.6770 Y38.7755
G01 X42.7107 Y38.8078
G01 X42.7398 Y38.8383
G01 X42.7732 Y38.8770
G01 X42.7988 Y38.9099
G01 X42.8258 Y38.9480
G01 X42.8509 Y38.9875
G01 X42.8763 Y39.0322
G01 X42.8950 Y39.0695
G01 X42.9140 Y39.1121
G01 X42.9309 Y39.1555
G01 X42.9471 Y39.2045
G01 X42.9582 Y39.2447
G01 X42.9686 Y39.2902
G01 X42.9774 Y39.3410
G01 X42.9825 Y39.3824
G01 X42.9861 Y39.4289
G01 X42.9873 Y39.4780
G01 X42.9873 Y40.2780
G01 X42.9863 Y40.3222
G01 X42.9825 Y40.3736
G01 X42.9767 Y40.4199
G01 X42.9695 Y40.4610
G01 X42.9594 Y40.5066
G01 X42.9457 Y40.5562
G01 X42.9309 Y40.6005
G01 X42.9140 Y40.6439
G01 X42.8950 Y40.6865
G01 X42.8739 Y40.7281
G01 X42.8509 Y40.7687
G01 X42.8258 Y40.8080
G01 X42.7988 Y40.8461
G01 X42.7700 Y40.8828
G01 X42.7395 Y40.9180
G01 X42.7107 Y40.9482
G01 X42.6767 Y40.9808
G01 X42.6418 Y41.0110
G01 X42.6051 Y41.0398
G01 X42.5670 Y41.0668
G01 X42.5275 Y41.0919
G01 X42.4871 Y41.1149
G01 X42.4411 Y41.1381
G01 X42.3984 Y41.1569
G01 X42.3548 Y41.1736
G01 X42.3152 Y41.1867
G01 X42.2703 Y41.1992
G01 X42.2200 Y41.2105
G01 X42.1740 Y41.2184
G01 X42.1326 Y41.2235
G01 X42.0861 Y41.2271
G01 X42.0345 Y41.2283
G01 X41.9879 Y41.2271
G01 X41.9463 Y41.2240
G01 X41.9000 Y41.2184
G01 X41.8540 Y41.2105
G01 X41.8037 Y41.1992
G01 X41.7588 Y41.1867
G01 X41.7145 Y41.1719
G01 X41.6756 Y41.1569
G01 X41.6285 Y41.1360
G01 X41.5909 Y41.1171
G01 X41.5506 Y41.0944
G01 X41.5111 Y41.0695
G01 X41.4689 Y41.0398
G01 X41.4322 Y41.0110
G01 X41.4006 Y40.9838
G01 X41.3668 Y40.9517
G01 X41.3342 Y40.9177
G01 X41.3008 Y40.8790
G01 X41.2752 Y40.8461
G01 X41.2482 Y40.8080
G01 X41.2231 Y40.7685
G01 X41.1977 Y40.7238
G01 X41.1790 Y40.6865
G01 X41.1600 Y40.6439
G01 X41.1431 Y40.6005
G01 X41.1269 Y40.5515
G01 X41.1146 Y40.5065
G01 X41.1054 Y40.4658
G01 X41.0973 Y40.4199
G01 X41.0910 Y40.3687
G01 X41.0877 Y40.3222
G01 X41.0866 Y40.2780
G01 X41.0866 Y39.4780
G01 X41.0877 Y39.4338
G01 X41.0915 Y39.3824
G01 X41.0973 Y39.3361
G01 X41.1045 Y39.2950
G01 X41.1146 Y39.2494
G01 X41.1283 Y39.1998
G01 X41.1431 Y39.1555
G01 X41.1600 Y39.1121
G01 X41.1790 Y39.0695
G01 X41.2001 Y39.0279
G01 X41.2231 Y38.9873
G01 X41.2482 Y38.9480
G01 X41.2752 Y38.9099
G01 X41.3040 Y38.8732
G01 X41.3345 Y38.8380
G01 X41.3668 Y38.8043
G01 X41.4006 Y38.7722
G01 X41.4360 Y38.7418
G01 X41.4729 Y38.7132
G01 X41.5111 Y38.6865
G01 X41.5506 Y38.6616
G01 X41.5869 Y38.6411
G01 X41.6190 Y38.6247
G01 X41.6190 Y21.8411
G01 X31.5005 Y11.7226
G01 X31.4520 Y11.7359
G01 X31.3992 Y11.7477
G01 X31.3460 Y11.7568
G01 X31.2973 Y11.7628
G01 X31.2434 Y11.7669
G01 X31.1895 Y11.7683
G01 X31.1306 Y11.7669
G01 X31.0767 Y11.7628
G01 X31.0231 Y11.7560
G01 X30.9699 Y11.7467
G01 X30.9220 Y11.7359
G01 X30.8652 Y11.7202
G01 X30.8140 Y11.7032
G01 X30.7682 Y11.6855
G01 X30.7143 Y11.6616
G01 X30.6702 Y11.6394
G01 X30.6234 Y11.6130
G01 X30.5736 Y11.5815
G01 X30.5296 Y11.5503
G01 X30.4871 Y11.5170
G01 X30.4462 Y11.4816
G01 X30.4107 Y11.4478
G01 X30.3701 Y11.4051
G01 X30.3349 Y11.3641
G01 X30.3047 Y11.3254
G01 X30.2735 Y11.2814
G01 X30.2446 Y11.2360
G01 X28.7251 Y11.2360
G01 X28.2914 Y11.6698
G01 X28.2943 Y11.6790
G01 X28.3047 Y11.7169
G01 X28.3155 Y11.7648
G01 X28.3229 Y11.8083
G01 X28.3277 Y11.8473
G01 X28.3311 Y11.8914
G01 X28.3323 Y11.9355
G01 X28.3311 Y11.9846
G01 X28.3277 Y12.0287
G01 X28.3229 Y12.0677
G01 X28.3155 Y12.1112
G01 X28.3059 Y12.1544
G01 X28.2928 Y12.2017
G01 X28.2789 Y12.2436
G01 X28.2647 Y12.2803
G01 X28.2469 Y12.3207
G01 X28.2270 Y12.3605
G01 X28.2030 Y12.4030
G01 X28.1819 Y12.4362
G01 X28.1566 Y12.4723
G01 X28.1295 Y12.5073
G01 X28.1007 Y12.5408
G01 X28.0704 Y12.5729
G01 X28.0381 Y12.6038
G01 X28.0051 Y12.6324
G01 X27.9703 Y12.6597
G01 X27.9342 Y12.6852
G01 X27.8968 Y12.7091
G01 X27.8542 Y12.7332
G01 X27.8147 Y12.7529
G01 X27.7743 Y12.7707
G01 X27.7330 Y12.7865
G01 X27.6910 Y12.8003
G01 X27.6531 Y12.8107
G01 X27.6101 Y12.8205
G01 X27.5617 Y12.8289
G01 X27.5178 Y12.8342
G01 X27.4737 Y12.8374
G01 X27.4295 Y12.8383
G01 X27.3854 Y12.8371
G01 X27.3413 Y12.8337
G01 X27.2975 Y12.8282
G01 X27.2539 Y12.8205
G01 X27.2156 Y12.8119
G01 X27.1730 Y12.8003
G01 X27.1310 Y12.7865
G01 X27.0897 Y12.7707
G01 X27.0493 Y12.7529
G01 X27.0095 Y12.7330
G01 X26.9713 Y12.7115
G01 X26.9338 Y12.6879
G01 X26.8937 Y12.6597
G01 X26.8589 Y12.6324
G01 X26.8256 Y12.6034
G01 X26.7936 Y12.5729
G01 X26.7633 Y12.5408
G01 X26.7345 Y12.5073
G01 X26.7074 Y12.4723
G01 X26.6820 Y12.4361
G01 X26.6585 Y12.3987
G01 X26.6368 Y12.3602
G01 X26.6192 Y12.3252
G01 X26.6012 Y12.2848
G01 X26.5851 Y12.2436
G01 X26.5712 Y12.2017
G01 X26.5593 Y12.1591
G01 X26.5495 Y12.1161
G01 X26.5418 Y12.0725
G01 X26.5363 Y12.0287
G01 X26.5329 Y11.9846
G01 X26.5317 Y11.9405
G01 X26.5327 Y11.8963
G00 Z2.0000
G00 X34.5879 Y10.6165
G01 F80.00
G01 Z-0.1866
G01 F80.00
G01 X34.5917 Y10.5626
G01 X34.5982 Y10.5090
G01 X34.6073 Y10.4558
G01 X34.6191 Y10.4030
G01 X34.6333 Y10.3510
G01 X34.6502 Y10.2996
G01 X34.6695 Y10.2492
G01 X34.6913 Y10.1998
G01 X34.7156 Y10.1512
G01 X34.7420 Y10.1044
G01 X34.7708 Y10.0587
G01 X34.8017 Y10.0145
G01 X34.8349 Y9.9719
G01 X34.8701 Y9.9309
G01 X34.9072 Y9.8917
G01 X34.9466 Y9.8541
G01 X34.9871 Y9.8190
G01 X35.0296 Y9.7857
G01 X35.0736 Y9.7545
G01 X35.1194 Y9.7254
G01 X35.1661 Y9.6988
G01 X35.2143 Y9.6744
G01 X35.2637 Y9.6524
G01 X35.3140 Y9.6328
G01 X35.3652 Y9.6158
G01 X35.4173 Y9.6013
G01 X35.4699 Y9.5893
G01 X35.5231 Y9.5800
G01 X35.5767 Y9.5732
G01 X35.6306 Y9.5691
G01 X35.6845 Y9.5677
G01 X35.7385 Y9.5689
G01 X35.7924 Y9.5727
G01 X35.8460 Y9.5792
G01 X35.8992 Y9.5883
G01 X35.9520 Y9.6001
G01 X36.0040 Y9.6143
G01 X36.0554 Y9.6312
G01 X36.1058 Y9.6505
G01 X36.1552 Y9.6723
G01 X36.2038 Y9.6966
G01 X36.2506 Y9.7230
G01 X36.2963 Y9.7518
G01 X36.3405 Y9.7827
G01 X36.3831 Y9.8159
G01 X36.4241 Y9.8511
G01 X36.4633 Y9.8882
G01 X36.5009 Y9.9276
G01 X36.5360 Y9.9681
G01 X36.5693 Y10.0106
G01 X36.6005 Y10.0546
G01 X36.6296 Y10.1004
G01 X36.6562 Y10.1471
G01 X36.6806 Y10.1953
G01 X36.7026 Y10.2447
G01 X36.7222 Y10.2950
G01 X36.7392 Y10.3462
G01 X36.7537 Y10.3983
G01 X36.7657 Y10.4509
G01 X36.7750 Y10.5041
G01 X36.7818 Y10.5577
G01 X36.7859 Y10.6116
G01 X36.7873 Y10.6655
G01 X36.7861 Y10.7195
G01 X36.7823 Y10.7734
G01 X36.7758 Y10.8270
G01 X36.7667 Y10.8802
G01 X36.7549 Y10.9330
G01 X36.7407 Y10.9850
G01 X36.7238 Y11.0364
G01 X36.7045 Y11.0868
G01 X36.6827 Y11.1362
G01 X36.6584 Y11.1848
G01 X36.6320 Y11.2316
G01 X36.6032 Y11.2773
G01 X36.5723 Y11.3215
G01 X36.5391 Y11.3641
G01 X36.5039 Y11.4051
G01 X36.4668 Y11.4443
G01 X36.4274 Y11.4819
G01 X36.3869 Y11.5170
G01 X36.3444 Y11.5503
G01 X36.3004 Y11.5815
G01 X36.2546 Y11.6106
G01 X36.2079 Y11.6372
G01 X36.1597 Y11.6616
G01 X36.1103 Y11.6836
G01 X36.0600 Y11.7032
G01 X36.0088 Y11.7202
G01 X35.9567 Y11.7347
G01 X35.9041 Y11.7467
G01 X35.8509 Y11.7560
G01 X35.7973 Y11.7628
G01 X35.7434 Y11.7669
G01 X35.6895 Y11.7683
G01 X35.6355 Y11.7671
G01 X35.5816 Y11.7633
G01 X35.5280 Y11.7568
G01 X35.4748 Y11.7477
G01 X35.4220 Y11.7359
G01 X35.3700 Y11.7217
G01 X35.3186 Y11.7048
G01 X35.2682 Y11.6855
G01 X35.2188 Y11.6637
G01 X35.1702 Y11.6394
G01 X35.1234 Y11.6130
G01 X35.0777 Y11.5842
G01 X35.0335 Y11.5533
G01 X34.9909 Y11.5201
G01 X34.9499 Y11.4849
G01 X34.9107 Y11.4478
G01 X34.8731 Y11.4084
G01 X34.8380 Y11.3679
G01 X34.8047 Y11.3254
G01 X34.7735 Y11.2814
G01 X34.7444 Y11.2356
G01 X34.7178 Y11.1889
G01 X34.6934 Y11.1407
G01 X34.6714 Y11.0913
G01 X34.6518 Y11.0410
G01 X34.6348 Y10.9898
G01 X34.6203 Y10.9377
G01 X34.6083 Y10.8851
G01 X34.5990 Y10.8319
G01 X34.5922 Y10.7783
G01 X34.5881 Y10.7244
G01 X34.5867 Y10.6705
G01 X34.5879 Y10.6165
G00 Z2.0000
G00 X39.2327 Y11.8963
G01 F80.00
G01 Z-0.1866
G01 F80.00
G01 X39.2358 Y11.8522
G01 X39.2411 Y11.8083
G01 X39.2485 Y11.7648
G01 X39.2581 Y11.7216
G01 X39.2712 Y11.6743
G01 X39.2851 Y11.6324
G01 X39.3012 Y11.5912
G01 X39.3192 Y11.5508
G01 X39.3391 Y11.5114
G01 X39.3610 Y11.4730
G01 X39.3821 Y11.4398
G01 X39.4074 Y11.4037
G01 X39.4345 Y11.3687
G01 X39.4633 Y11.3352
G01 X39.4936 Y11.3031
G01 X39.5259 Y11.2722
G01 X39.5627 Y11.2405
G01 X39.5937 Y11.2163
G01 X39.6298 Y11.1908
G01 X39.6672 Y11.1669
G01 X39.7098 Y11.1428
G01 X39.7493 Y11.1231
G01 X39.7897 Y11.1053
G01 X39.8310 Y11.0895
G01 X39.8683 Y11.0772
G01 X39.9109 Y11.0653
G01 X39.9588 Y11.0545
G01 X40.0023 Y11.0471
G01 X40.0413 Y11.0423
G01 X40.0854 Y11.0389
G01 X40.1295 Y11.0377
G01 X40.1786 Y11.0389
G01 X40.2227 Y11.0423
G01 X40.2617 Y11.0471
G01 X40.3052 Y11.0545
G01 X40.3531 Y11.0653
G01 X40.3910 Y11.0757
G01 X40.4002 Y11.0786
G01 X41.1082 Y10.3707
G01 X41.1198 Y10.3596
G01 X41.1349 Y10.3465
G01 X41.1550 Y10.3308
G01 X41.1718 Y10.3191
G01 X41.1852 Y10.3107
G01 X41.2071 Y10.2982
G01 X41.2255 Y10.2891
G01 X41.2398 Y10.2828
G01 X41.2589 Y10.2753
G01 X41.2783 Y10.2687
G01 X41.2981 Y10.2631
G01 X41.3180 Y10.2585
G01 X41.3382 Y10.2549
G01 X41.3586 Y10.2523
G01 X41.3840 Y10.2504
G01 X41.4020 Y10.2500
G01 X42.8692 Y10.2500
G01 X42.8913 Y10.1998
G01 X42.9156 Y10.1512
G01 X42.9445 Y10.1002
G01 X42.9735 Y10.0546
G01 X43.0047 Y10.0106
G01 X43.0349 Y9.9719
G01 X43.0701 Y9.9309
G01 X43.1072 Y9.8917
G01 X43.1499 Y9.8511
G01 X43.1909 Y9.8159
G01 X43.2296 Y9.7857
G01 X43.2736 Y9.7545
G01 X43.3194 Y9.7254
G01 X43.3661 Y9.6988
G01 X43.4188 Y9.6723
G01 X43.4682 Y9.6505
G01 X43.5186 Y9.6312
G01 X43.5652 Y9.6158
G01 X43.6173 Y9.6013
G01 X43.6699 Y9.5893
G01 X43.7231 Y9.5800
G01 X43.7767 Y9.5732
G01 X43.8306 Y9.5691
G01 X43.8845 Y9.5677
G01 X43.9385 Y9.5689
G01 X43.9924 Y9.5727
G01 X44.0460 Y9.5792
G01 X44.0992 Y9.5883
G01 X44.1520 Y9.6001
G01 X44.2040 Y9.6143
G01 X44.2554 Y9.6312
G01 X44.3058 Y9.6505
G01 X44.3552 Y9.6723
G01 X44.4038 Y9.6966
G01 X44.4506 Y9.7230
G01 X44.4963 Y9.7518
G01 X44.5405 Y9.7827
G01 X44.5831 Y9.8159
G01 X44.6241 Y9.8511
G01 X44.6633 Y9.8882
G01 X44.7009 Y9.9276
G01 X44.7360 Y9.9681
G01 X44.7693 Y10.0106
G01 X44.8005 Y10.0546
G01 X44.8296 Y10.1004
G01 X44.8562 Y10.1471
G01 X44.8806 Y10.1953
G01 X44.9026 Y10.2447
G01 X44.9222 Y10.2950
G01 X44.9392 Y10.3462
G01 X44.9537 Y10.3983
G01 X44.9657 Y10.4509
G01 X44.9750 Y10.5041
G01 X44.9823 Y10.5626
G01 X44.9861 Y10.6165
G01 X44.9873 Y10.6655
G01 X44.9861 Y10.7195
G01 X44.9823 Y10.7734
G01 X44.9750 Y10.8319
G01 X44.9657 Y10.8851
G01 X44.9537 Y10.9377
G01 X44.9392 Y10.9898
G01 X44.9238 Y11.0364
G01 X44.9045 Y11.0868
G01 X44.9013 Y11.0943
G01 X44.9113 Y11.1070
G01 X44.9232 Y11.1237
G01 X44.9343 Y11.1412
G01 X44.9445 Y11.1588
G01 X44.9559 Y11.1815
G01 X44.9641 Y11.2003
G01 X44.9714 Y11.2195
G01 X44.9777 Y11.2390
G01 X44.9819 Y11.2541
G01 X44.9865 Y11.2740
G01 X44.9901 Y11.2942
G01 X44.9932 Y11.3195
G01 X44.9946 Y11.3400
G01 X44.9950 Y11.3580
G01 X44.9950 Y38.6247
G01 X45.0271 Y38.6411
G01 X45.0634 Y38.6616
G01 X45.1029 Y38.6865
G01 X45.1411 Y38.7132
G01 X45.1780 Y38.7418
G01 X45.2134 Y38.7722
G01 X45.2472 Y38.8043
G01 X45.2798 Y38.8383
G01 X45.3100 Y38.8732
G01 X45.3388 Y38.9099
G01 X45.3658 Y38.9480
G01 X45.3909 Y38.9875
G01 X45.4139 Y39.0279
G01 X45.4350 Y39.0695
G01 X45.4540 Y39.1121
G01 X45.4709 Y39.1555
G01 X45.4857 Y39.1998
G01 X45.4982 Y39.2447
G01 X45.5095 Y39.2950
G01 X45.5174 Y39.3410
G01 X45.5225 Y39.3824
G01 X45.5263 Y39.4338
G01 X45.5273 Y39.4780
G01 X45.5273 Y40.2780
G01 X45.5263 Y40.3222
G01 X45.5230 Y40.3687
G01 X45.5174 Y40.4150
G01 X45.5095 Y40.4610
G01 X45.4994 Y40.5066
G01 X45.4871 Y40.5515
G01 X45.4709 Y40.6005
G01 X45.4540 Y40.6439
G01 X45.4371 Y40.6821
G01 X45.4161 Y40.7241
G01 X45.3934 Y40.7644
G01 X45.3685 Y40.8039
G01 X45.3418 Y40.8421
G01 X45.3100 Y40.8828
G01 X45.2795 Y40.9180
G01 X45.2507 Y40.9482
G01 X45.2167 Y40.9808
G01 X45.1818 Y41.0110
G01 X45.1411 Y41.0428
G01 X45.1029 Y41.0695
G01 X45.0634 Y41.0944
G01 X45.0228 Y41.1173
G01 X44.9811 Y41.1381
G01 X44.9429 Y41.1550
G01 X44.8995 Y41.1719
G01 X44.8505 Y41.1881
G01 X44.8055 Y41.2004
G01 X44.7600 Y41.2105
G01 X44.7140 Y41.2184
G01 X44.6677 Y41.2240
G01 X44.6212 Y41.2273
G01 X44.5795 Y41.2283
G01 X44.5328 Y41.2273
G01 X44.4863 Y41.2240
G01 X44.4351 Y41.2177
G01 X44.3892 Y41.2096
G01 X44.3437 Y41.1992
G01 X44.2988 Y41.1867
G01 X44.2545 Y41.1719
G01 X44.2156 Y41.1569
G01 X44.1729 Y41.1381
G01 X44.1309 Y41.1171
G01 X44.0863 Y41.0919
G01 X44.0470 Y41.0668
G01 X44.0089 Y41.0398
G01 X43.9722 Y41.0110
G01 X43.9370 Y40.9805
G01 X43.9068 Y40.9517
G01 X43.8745 Y40.9180
G01 X43.8440 Y40.8828
G01 X43.8152 Y40.8461
G01 X43.7882 Y40.8080
G01 X43.7631 Y40.7685
G01 X43.7377 Y40.7238
G01 X43.7169 Y40.6821
G01 X43.6981 Y40.6394
G01 X43.6814 Y40.5958
G01 X43.6669 Y40.5515
G01 X43.6546 Y40.5065
G01 X43.6445 Y40.4610
G01 X43.6366 Y40.4150
G01 X43.6315 Y40.3736
G01 X43.6279 Y40.3271
G01 X43.6267 Y40.2805
G01 X43.6266 Y39.4780
G01 X43.6277 Y39.4338
G01 X43.6315 Y39.3824
G01 X43.6373 Y39.3361
G01 X43.6445 Y39.2950
G01 X43.6546 Y39.2494
G01 X43.6683 Y39.1998
G01 X43.6831 Y39.1555
G01 X43.7000 Y39.1121
G01 X43.7190 Y39.0695
G01 X43.7401 Y39.0279
G01 X43.7631 Y38.9873
G01 X43.7882 Y38.9480
G01 X43.8152 Y38.9099
G01 X43.8440 Y38.8732
G01 X43.8745 Y38.8380
G01 X43.9068 Y38.8043
G01 X43.9406 Y38.7722
G01 X43.9760 Y38.7418
G01 X44.0129 Y38.7132
G01 X44.0511 Y38.6865
G01 X44.0906 Y38.6616
G01 X44.1269 Y38.6411
G01 X44.1590 Y38.6247
G01 X44.1590 Y11.7341
G01 X44.0992 Y11.7477
G01 X44.0460 Y11.7568
G01 X43.9924 Y11.7633
G01 X43.9385 Y11.7671
G01 X43.8895 Y11.7683
G01 X43.8355 Y11.7671
G01 X43.7816 Y11.7633
G01 X43.7280 Y11.7568
G01 X43.6748 Y11.7477
G01 X43.6220 Y11.7359
G01 X43.5700 Y11.7217
G01 X43.5186 Y11.7048
G01 X43.4682 Y11.6855
G01 X43.4143 Y11.6616
G01 X43.3661 Y11.6372
G01 X43.3192 Y11.6105
G01 X43.2736 Y11.5815
G01 X43.2296 Y11.5503
G01 X43.1871 Y11.5170
G01 X43.1462 Y11.4816
G01 X43.1072 Y11.4443
G01 X43.0731 Y11.4084
G01 X43.0380 Y11.3679
G01 X43.0047 Y11.3254
G01 X42.9735 Y11.2814
G01 X42.9445 Y11.2358
G01 X42.9178 Y11.1889
G01 X42.8934 Y11.1407
G01 X42.8692 Y11.0860
G01 X41.5751 Y11.0860
G01 X40.9914 Y11.6698
G01 X40.9943 Y11.6790
G01 X41.0047 Y11.7169
G01 X41.0155 Y11.7648
G01 X41.0229 Y11.8083
G01 X41.0277 Y11.8473
G01 X41.0311 Y11.8914
G01 X41.0323 Y11.9355
G01 X41.0311 Y11.9846
G01 X41.0277 Y12.0287
G01 X41.0229 Y12.0677
G01 X41.0155 Y12.1112
G01 X41.0059 Y12.1544
G01 X40.9928 Y12.2017
G01 X40.9789 Y12.2436
G01 X40.9647 Y12.2803
G01 X40.9469 Y12.3207
G01 X40.9270 Y12.3605
G01 X40.9030 Y12.4030
G01 X40.8819 Y12.4362
G01 X40.8566 Y12.4723
G01 X40.8295 Y12.5073
G01 X40.8007 Y12.5408
G01 X40.7704 Y12.5729
G01 X40.7381 Y12.6038
G01 X40.7051 Y12.6324
G01 X40.6703 Y12.6597
G01 X40.6342 Y12.6852
G01 X40.5968 Y12.7091
G01 X40.5542 Y12.7332
G01 X40.5147 Y12.7529
G01 X40.4743 Y12.7707
G01 X40.4330 Y12.7865
G01 X40.3910 Y12.8003
G01 X40.3531 Y12.8107
G01 X40.3101 Y12.8205
G01 X40.2617 Y12.8289
G01 X40.2178 Y12.8342
G01 X40.1737 Y12.8374
G01 X40.1295 Y12.8383
G01 X40.0854 Y12.8371
G01 X40.0413 Y12.8337
G01 X39.9975 Y12.8282
G01 X39.9539 Y12.8205
G01 X39.9156 Y12.8119
G01 X39.8730 Y12.8003
G01 X39.8310 Y12.7865
G01 X39.7897 Y12.7707
G01 X39.7493 Y12.7529
G01 X39.7095 Y12.7330
G01 X39.6713 Y12.7115
G01 X39.6338 Y12.6879
G01 X39.5937 Y12.6597
G01 X39.5589 Y12.6324
G01 X39.5256 Y12.6034
G01 X39.4936 Y12.5729
G01 X39.4633 Y12.5408
G01 X39.4345 Y12.5073
G01 X39.4074 Y12.4723
G01 X39.3820 Y12.4361
G01 X39.3585 Y12.3987
G01 X39.3368 Y12.3602
G01 X39.3192 Y12.3252
G01 X39.3012 Y12.2848
G01 X39.2851 Y12.2436
G01 X39.2712 Y12.2017
G01 X39.2593 Y12.1591
G01 X39.2495 Y12.1161
G01 X39.2418 Y12.0725
G01 X39.2363 Y12.0287
G01 X39.2329 Y11.9846
G01 X39.2317 Y11.9405
G01 X39.2327 Y11.8963
G00 Z2.0000
G00 X42.7879 Y4.1165
G01 F80.00
G01 Z-0.1866
G01 F80.00
G01 X42.7917 Y4.0626
G01 X42.7982 Y4.0090
G01 X42.8073 Y3.9558
G01 X42.8191 Y3.9030
G01 X42.8333 Y3.8510
G01 X42.8502 Y3.7996
G01 X42.8695 Y3.7492
G01 X42.8913 Y3.6998
G01 X42.9156 Y3.6512
G01 X42.9420 Y3.6044
G01 X42.9708 Y3.5587
G01 X43.0017 Y3.5145
G01 X43.0349 Y3.4719
G01 X43.0701 Y3.4309
G01 X43.1072 Y3.3917
G01 X43.1466 Y3.3541
G01 X43.1871 Y3.3190
G01 X43.2296 Y3.2857
G01 X43.2736 Y3.2545
G01 X43.3194 Y3.2254
G01 X43.3661 Y3.1988
G01 X43.4143 Y3.1744
G01 X43.4637 Y3.1524
G01 X43.5140 Y3.1328
G01 X43.5652 Y3.1158
G01 X43.6173 Y3.1013
G01 X43.6699 Y3.0893
G01 X43.7231 Y3.0800
G01 X43.7767 Y3.0732
G01 X43.8306 Y3.0691
G01 X43.8845 Y3.0677
G01 X43.9385 Y3.0689
G01 X43.9924 Y3.0727
G01 X44.0460 Y3.0792
G01 X44.0992 Y3.0883
G01 X44.1520 Y3.1001
G01 X44.2040 Y3.1143
G01 X44.2554 Y3.1312
G01 X44.3058 Y3.1505
G01 X44.3552 Y3.1723
G01 X44.4038 Y3.1966
G01 X44.4506 Y3.2230
G01 X44.4963 Y3.2518
G01 X44.5405 Y3.2827
G01 X44.5831 Y3.3159
G01 X44.6241 Y3.3511
G01 X44.6633 Y3.3882
G01 X44.7009 Y3.4276
G01 X44.7360 Y3.4681
G01 X44.7693 Y3.5106
G01 X44.8005 Y3.5546
G01 X44.8296 Y3.6004
G01 X44.8562 Y3.6471
G01 X44.8806 Y3.6953
G01 X44.9026 Y3.7447
G01 X44.9222 Y3.7950
G01 X44.9392 Y3.8462
G01 X44.9537 Y3.8983
G01 X44.9657 Y3.9509
G01 X44.9750 Y4.0041
G01 X44.9818 Y4.0577
G01 X44.9859 Y4.1116
G01 X44.9873 Y4.1655
G01 X44.9861 Y4.2195
G01 X44.9823 Y4.2734
G01 X44.9758 Y4.3270
G01 X44.9667 Y4.3802
G01 X44.9549 Y4.4330
G01 X44.9407 Y4.4850
G01 X44.9238 Y4.5364
G01 X44.9045 Y4.5868
G01 X44.8827 Y4.6362
G01 X44.8584 Y4.6848
G01 X44.8320 Y4.7316
G01 X44.8032 Y4.7773
G01 X44.7723 Y4.8215
G01 X44.7391 Y4.8641
G01 X44.7039 Y4.9051
G01 X44.6668 Y4.9443
G01 X44.6274 Y4.9819
G01 X44.5869 Y5.0170
G01 X44.5444 Y5.0503
G01 X44.5004 Y5.0815
G01 X44.4546 Y5.1106
G01 X44.4079 Y5.1372
G01 X44.3597 Y5.1616
G01 X44.3103 Y5.1836
G01 X44.2600 Y5.2032
G01 X44.2088 Y5.2202
G01 X44.1567 Y5.2347
G01 X44.1041 Y5.2467
G01 X44.0509 Y5.2560
G01 X43.9973 Y5.2628
G01 X43.9434 Y5.2669
G01 X43.8895 Y5.2683
G01 X43.8355 Y5.2671
G01 X43.7816 Y5.2633
G01 X43.7280 Y5.2568
G01 X43.6748 Y5.2477
G01 X43.6220 Y5.2359
G01 X43.5700 Y5.2217
G01 X43.5186 Y5.2048
G01 X43.4682 Y5.1855
G01 X43.4188 Y5.1637
G01 X43.3702 Y5.1394
G01 X43.3234 Y5.1130
G01 X43.2777 Y5.0842
G01 X43.2335 Y5.0533
G01 X43.1909 Y5.0201
G01 X43.1499 Y4.9849
G01 X43.1107 Y4.9478
G01 X43.0731 Y4.9084
G01 X43.0380 Y4.8679
G01 X43.0047 Y4.8254
G01 X42.9735 Y4.7814
G01 X42.9444 Y4.7356
G01 X42.9178 Y4.6889
G01 X42.8934 Y4.6407
G01 X42.8714 Y4.5913
G01 X42.8518 Y4.5410
G01 X42.8348 Y4.4898
G01 X42.8203 Y4.4377
G01 X42.8083 Y4.3851
G01 X42.7990 Y4.3319
G01 X42.7922 Y4.2783
G01 X42.7881 Y4.2244
G01 X42.7867 Y4.1705
G01 X42.7879 Y4.1165
G00 Z2.0000
G00 X30.0879 Y4.1165
G01 F80.00
G01 Z-0.1866
G01 F80.00
G01 X30.0917 Y4.0626
G01 X30.0982 Y4.0090
G01 X30.1073 Y3.9558
G01 X30.1191 Y3.9030
G01 X30.1333 Y3.8510
G01 X30.1502 Y3.7996
G01 X30.1695 Y3.7492
G01 X30.1913 Y3.6998
G01 X30.2156 Y3.6512
G01 X30.2420 Y3.6044
G01 X30.2708 Y3.5587
G01 X30.3017 Y3.5145
G01 X30.3349 Y3.4719
G01 X30.3701 Y3.4309
G01 X30.4072 Y3.3917
G01 X30.4466 Y3.3541
G01 X30.4871 Y3.3190
G01 X30.5296 Y3.2857
G01 X30.5736 Y3.2545
G01 X30.6194 Y3.2254
G01 X30.6661 Y3.1988
G01 X30.7143 Y3.1744
G01 X30.7637 Y3.1524
G01 X30.8140 Y3.1328
G01 X30.8652 Y3.1158
G01 X30.9173 Y3.1013
G01 X30.9699 Y3.0893
G01 X31.0231 Y3.0800
G01 X31.0767 Y3.0732
G01 X31.1306 Y3.0691
G01 X31.1845 Y3.0677
G01 X31.2385 Y3.0689
G01 X31.2924 Y3.0727
G01 X31.3460 Y3.0792
G01 X31.3992 Y3.0883
G01 X31.4520 Y3.1001
G01 X31.5040 Y3.1143
G01 X31.5554 Y3.1312
G01 X31.6058 Y3.1505
G01 X31.6552 Y3.1723
G01 X31.7038 Y3.1966
G01 X31.7506 Y3.2230
G01 X31.7963 Y3.2518
G01 X31.8405 Y3.2827
G01 X31.8831 Y3.3159
G01 X31.9241 Y3.3511
G01 X31.9633 Y3.3882
G01 X32.0009 Y3.4276
G01 X32.0360 Y3.4681
G01 X32.0693 Y3.5106
G01 X32.1005 Y3.5546
G01 X32.1296 Y3.6004
G01 X32.1562 Y3.6471
G01 X32.1806 Y3.6953
G01 X32.2026 Y3.7447
G01 X32.2222 Y3.7950
G01 X32.2392 Y3.8462
G01 X32.2537 Y3.8983
G01 X32.2657 Y3.9509
G01 X32.2750 Y4.0041
G01 X32.2818 Y4.0577
G01 X32.2859 Y4.1116
G01 X32.2873 Y4.1655
G01 X32.2861 Y4.2195
G01 X32.2823 Y4.2734
G01 X32.2758 Y4.3270
G01 X32.2667 Y4.3802
G01 X32.2549 Y4.4330
G01 X32.2407 Y4.4850
G01 X32.2238 Y4.5364
G01 X32.2045 Y4.5868
G01 X32.1827 Y4.6362
G01 X32.1584 Y4.6848
G01 X32.1320 Y4.7316
G01 X32.1032 Y4.7773
G01 X32.0723 Y4.8215
G01 X32.0391 Y4.8641
G01 X32.0039 Y4.9051
G01 X31.9668 Y4.9443
G01 X31.9274 Y4.9819
G01 X31.8869 Y5.0170
G01 X31.8444 Y5.0503
G01 X31.8004 Y5.0815
G01 X31.7546 Y5.1106
G01 X31.7079 Y5.1372
G01 X31.6597 Y5.1616
G01 X31.6103 Y5.1836
G01 X31.5600 Y5.2032
G01 X31.5088 Y5.2202
G01 X31.4567 Y5.2347
G01 X31.4041 Y5.2467
G01 X31.3509 Y5.2560
G01 X31.2973 Y5.2628
G01 X31.2434 Y5.2669
G01 X31.1895 Y5.2683
G01 X31.1355 Y5.2671
G01 X31.0816 Y5.2633
G01 X31.0280 Y5.2568
G01 X30.9748 Y5.2477
G01 X30.9220 Y5.2359
G01 X30.8700 Y5.2217
G01 X30.8186 Y5.2048
G01 X30.7682 Y5.1855
G01 X30.7188 Y5.1637
G01 X30.6702 Y5.1394
G01 X30.6234 Y5.1130
G01 X30.5777 Y5.0842
G01 X30.5335 Y5.0533
G01 X30.4909 Y5.0201
G01 X30.4499 Y4.9849
G01 X30.4107 Y4.9478
G01 X30.3731 Y4.9084
G01 X30.3380 Y4.8679
G01 X30.3047 Y4.8254
G01 X30.2735 Y4.7814
G01 X30.2444 Y4.7356
G01 X30.2178 Y4.6889
G01 X30.1934 Y4.6407
G01 X30.1714 Y4.5913
G01 X30.1518 Y4.5410
G01 X30.1348 Y4.4898
G01 X30.1203 Y4.4377
G01 X30.1083 Y4.3851
G01 X30.0990 Y4.3319
G01 X30.0922 Y4.2783
G01 X30.0881 Y4.2244
G01 X30.0867 Y4.1705
G01 X30.0879 Y4.1165
G00 Z2.0000
G00 X63.3455 Y6.2739
G01 F80.00
G01 Z-0.1866
G01 F80.00
G01 X63.3516 Y6.1907
G01 X63.3614 Y6.1127
G01 X63.3749 Y6.0354
G01 X63.3922 Y5.9588
G01 X63.4133 Y5.8831
G01 X63.4381 Y5.8085
G01 X63.4664 Y5.7353
G01 X63.4984 Y5.6635
G01 X63.5316 Y5.5975
G01 X63.5726 Y5.5252
G01 X63.6148 Y5.4589
G01 X63.6601 Y5.3947
G01 X63.7085 Y5.3329
G01 X63.7599 Y5.2735
G01 X63.8141 Y5.2167
G01 X63.8678 Y5.1656
G01 X63.9269 Y5.1145
G01 X63.9887 Y5.0661
G01 X64.0529 Y5.0208
G01 X64.1193 Y4.9785
G01 X64.1874 Y4.9398
G01 X64.2575 Y4.9044
G01 X64.3293 Y4.8724
G01 X64.4025 Y4.8441
G01 X64.4771 Y4.8193
G01 X64.5528 Y4.7982
G01 X64.6294 Y4.7809
G01 X64.7067 Y4.7674
G01 X64.7847 Y4.7576
G01 X64.8630 Y4.7517
G01 X64.9261 Y4.7501
G01 X68.1251 Y1.5511
G01 X68.1410 Y1.5358
G01 X68.1634 Y1.5165
G01 X68.1828 Y1.5015
G01 X68.2030 Y1.4875
G01 X68.2197 Y1.4769
G01 X68.2409 Y1.4647
G01 X68.2628 Y1.4536
G01 X68.2852 Y1.4435
G01 X68.3127 Y1.4329
G01 X68.3361 Y1.4253
G01 X68.3598 Y1.4189
G01 X68.3838 Y1.4136
G01 X68.4080 Y1.4095
G01 X68.4275 Y1.4071
G01 X68.4520 Y1.4052
G01 X68.4790 Y1.4044
G01 X129.2687 Y1.4044
G01 X129.2978 Y1.3286
G01 X129.3278 Y1.2613
G01 X129.3588 Y1.1996
G01 X129.3974 Y1.1316
G01 X129.4342 Y1.0735
G01 X129.4765 Y1.0132
G01 X129.5248 Y0.9513
G01 X129.5730 Y0.8956
G01 X129.6204 Y0.8459
G01 X129.6740 Y0.7947
G01 X129.7293 Y0.7468
G01 X129.7912 Y0.6985
G01 X129.8515 Y0.6562
G01 X129.9097 Y0.6193
G01 X129.9779 Y0.5807
G01 X130.0438 Y0.5477
G01 X130.1111 Y0.5179
G01 X130.1799 Y0.4916
G01 X130.2451 Y0.4700
G01 X130.3208 Y0.4490
G01 X130.3879 Y0.4340
G01 X130.4604 Y0.4213
G01 X130.5335 Y0.4121
G01 X130.6069 Y0.4066
G01 X130.6855 Y0.4047
G01 X130.7591 Y0.4066
G01 X130.8276 Y0.4117
G01 X130.9007 Y0.4206
G01 X130.9733 Y0.4330
G01 X131.0452 Y0.4491
G01 X131.1162 Y0.4686
G01 X131.1861 Y0.4916
G01 X131.2549 Y0.5179
G01 X131.3222 Y0.5477
G01 X131.3884 Y0.5808
G01 X131.4522 Y0.6169
G01 X131.5145 Y0.6562
G01 X131.5748 Y0.6985
G01 X131.6329 Y0.7437
G01 X131.6887 Y0.7917
G01 X131.7421 Y0.8424
G01 X131.7933 Y0.8960
G01 X131.8412 Y0.9513
G01 X131.8895 Y1.0132
G01 X131.9318 Y1.0735
G01 X131.9711 Y1.1358
G01 X132.0073 Y1.1999
G01 X132.0403 Y1.2658
G01 X132.0682 Y1.3286
G01 X132.0948 Y1.3972
G01 X132.1180 Y1.4671
G01 X132.1378 Y1.5381
G01 X132.1540 Y1.6099
G01 X132.1667 Y1.6824
G01 X132.1759 Y1.7555
G01 X132.1814 Y1.8289
G01 X132.1833 Y1.9025
G01 X132.1814 Y1.9811
G01 X132.1759 Y2.0545
G01 X132.1667 Y2.1276
G01 X132.1540 Y2.2001
G01 X132.1378 Y2.2719
G01 X132.1180 Y2.3429
G01 X132.0948 Y2.4128
G01 X132.0682 Y2.4814
G01 X132.0382 Y2.5487
G01 X132.0050 Y2.6144
G01 X131.9686 Y2.6784
G01 X131.9291 Y2.7406
G01 X131.8866 Y2.8007
G01 X131.8412 Y2.8587
G01 X131.7930 Y2.9144
G01 X131.7421 Y2.9676
G01 X131.6920 Y3.0153
G01 X131.6329 Y3.0663
G01 X131.5748 Y3.1115
G01 X131.5145 Y3.1538
G01 X131.4522 Y3.1931
G01 X131.3881 Y3.2293
G01 X131.3267 Y3.2602
G01 X131.2594 Y3.2902
G01 X131.1908 Y3.3168
G01 X131.1209 Y3.3400
G01 X131.0499 Y3.3598
G01 X130.9781 Y3.3760
G01 X130.9056 Y3.3887
G01 X130.8325 Y3.3979
G01 X130.7591 Y3.4034
G01 X130.6855 Y3.4053
G01 X130.6069 Y3.4034
G01 X130.5335 Y3.3979
G01 X130.4604 Y3.3887
G01 X130.3879 Y3.3760
G01 X130.3208 Y3.3609
G01 X130.2451 Y3.3400
G01 X130.1752 Y3.3168
G01 X130.1111 Y3.2921
G01 X130.0438 Y3.2623
G01 X129.9779 Y3.2293
G01 X129.9096 Y3.1906
G01 X129.8515 Y3.1538
G01 X129.7912 Y3.1115
G01 X129.7293 Y3.0632
G01 X129.6736 Y3.0150
G01 X129.6239 Y2.9676
G01 X129.5727 Y2.9140
G01 X129.5248 Y2.8587
G01 X129.4765 Y2.7968
G01 X129.4342 Y2.7365
G01 X129.3973 Y2.6783
G01 X129.3587 Y2.6101
G01 X129.3278 Y2.5487
G01 X129.2978 Y2.4814
G01 X129.2687 Y2.4056
G01 X68.6863 Y2.4056
G01 X65.9699 Y5.1220
G01 X66.0205 Y5.1659
G01 X66.0739 Y5.2167
G01 X66.1284 Y5.2738
G01 X66.1826 Y5.3367
G01 X66.2309 Y5.3987
G01 X66.2760 Y5.4630
G01 X66.3155 Y5.5253
G01 X66.3542 Y5.5934
G01 X66.3896 Y5.6635
G01 X66.4216 Y5.7353
G01 X66.4499 Y5.8085
G01 X66.4761 Y5.8878
G01 X66.4970 Y5.9635
G01 X66.5141 Y6.0402
G01 X66.5274 Y6.1176
G01 X66.5369 Y6.1956
G01 X66.5425 Y6.2739
G01 X66.5443 Y6.3475
G01 X66.5425 Y6.4261
G01 X66.5369 Y6.5044
G01 X66.5266 Y6.5873
G01 X66.5131 Y6.6646
G01 X66.4958 Y6.7412
G01 X66.4747 Y6.8169
G01 X66.4499 Y6.8915
G01 X66.4234 Y6.9601
G01 X66.3917 Y7.0320
G01 X66.3564 Y7.1025
G01 X66.3154 Y7.1748
G01 X66.2732 Y7.2411
G01 X66.2279 Y7.3053
G01 X66.1795 Y7.3671
G01 X66.1314 Y7.4229
G01 X66.0773 Y7.4799
G01 X66.0202 Y7.5344
G01 X65.9573 Y7.5886
G01 X65.8953 Y7.6369
G01 X65.8310 Y7.6820
G01 X65.7687 Y7.7215
G01 X65.7006 Y7.7602
G01 X65.6260 Y7.7977
G01 X65.5587 Y7.8276
G01 X65.4855 Y7.8559
G01 X65.4062 Y7.8821
G01 X65.3305 Y7.9030
G01 X65.2586 Y7.9191
G01 X65.1764 Y7.9334
G01 X65.1033 Y7.9424
G01 X65.0250 Y7.9483
G01 X64.9415 Y7.9503
G01 X64.8630 Y7.9483
G01 X64.7896 Y7.9429
G01 X64.7067 Y7.9326
G01 X64.6294 Y7.9191
G01 X64.5575 Y7.9029
G01 X64.4818 Y7.8821
G01 X64.4025 Y7.8559
G01 X64.3293 Y7.8276
G01 X64.2620 Y7.7977
G01 X64.1915 Y7.7624
G01 X64.1192 Y7.7214
G01 X64.0569 Y7.6820
G01 X63.9927 Y7.6369
G01 X63.9269 Y7.5855
G01 X63.8675 Y7.5341
G01 X63.8141 Y7.4833
G01 X63.7596 Y7.4262
G01 X63.7054 Y7.3633
G01 X63.6601 Y7.3053
G01 X63.6148 Y7.2411
G01 X63.5701 Y7.1706
G01 X63.5315 Y7.1022
G01 X63.4984 Y7.0365
G01 X63.4646 Y6.9601
G01 X63.4364 Y6.8868
G01 X63.4133 Y6.8169
G01 X63.3910 Y6.7365
G01 X63.3749 Y6.6646
G01 X63.3614 Y6.5873
G01 X63.3511 Y6.5044
G01 X63.3455 Y6.4261
G01 X63.3437 Y6.3525
G01 X63.3455 Y6.2739
G00 Z2.0000
G00 X60.3340 Y20.3604
G01 F80.00
G01 Z-0.1866
G01 F80.00
G01 X60.3361 Y20.3310
G01 X60.3393 Y20.3066
G01 X60.3436 Y20.2824
G01 X60.3491 Y20.2585
G01 X60.3557 Y20.2349
G01 X60.3636 Y20.2116
G01 X60.3725 Y20.1887
G01 X60.3826 Y20.1663
G01 X60.3937 Y20.1444
G01 X60.4060 Y20.1231
G01 X60.4192 Y20.1024
G01 X60.4334 Y20.0824
G01 X60.4487 Y20.0631
G01 X60.4648 Y20.0445
G01 X60.4801 Y20.0286
G01 X75.7826 Y4.7261
G01 X75.7989 Y4.7105
G01 X75.8171 Y4.6947
G01 X75.8364 Y4.6794
G01 X75.8564 Y4.6652
G01 X75.8813 Y4.6494
G01 X75.9027 Y4.6374
G01 X75.9203 Y4.6286
G01 X75.9472 Y4.6166
G01 X75.9702 Y4.6079
G01 X75.9889 Y4.6017
G01 X76.0173 Y4.5939
G01 X76.0364 Y4.5896
G01 X76.0606 Y4.5853
G01 X76.0899 Y4.5816
G01 X76.1144 Y4.5800
G01 X76.1340 Y4.5795
G01 X80.7720 Y4.5794
G01 X80.7990 Y4.5802
G01 X80.8235 Y4.5821
G01 X80.8430 Y4.5845
G01 X80.8721 Y4.5896
G01 X80.8913 Y4.5939
G01 X80.9149 Y4.6003
G01 X80.9429 Y4.6096
G01 X80.9658 Y4.6185
G01 X80.9838 Y4.6265
G01 X81.0101 Y4.6397
G01 X81.0314 Y4.6520
G01 X81.0480 Y4.6625
G01 X81.0721 Y4.6794
G01 X81.0914 Y4.6947
G01 X81.1063 Y4.7075
G01 X81.1259 Y4.7261
G01 X81.8879 Y5.4881
G01 X81.9035 Y5.5044
G01 X81.9193 Y5.5226
G01 X81.9346 Y5.5419
G01 X81.9488 Y5.5619
G01 X81.9621 Y5.5827
G01 X81.9766 Y5.6082
G01 X81.9875 Y5.6302
G01 X81.9955 Y5.6482
G01 X82.0044 Y5.6711
G01 X82.0123 Y5.6944
G01 X82.0189 Y5.7180
G01 X82.0244 Y5.7419
G01 X82.0295 Y5.7710
G01 X82.0319 Y5.7905
G01 X82.0338 Y5.8150
G01 X82.0345 Y5.8395
G01 X82.0346 Y6.1624
G01 X82.0640 Y6.1812
G01 X82.0981 Y6.2052
G01 X82.1388 Y6.2370
G01 X82.1740 Y6.2675
G01 X82.2042 Y6.2963
G01 X82.2368 Y6.3303
G01 X82.2702 Y6.3690
G01 X82.2988 Y6.4059
G01 X82.3255 Y6.4441
G01 X82.3479 Y6.4793
G01 X82.3709 Y6.5199
G01 X82.3941 Y6.5659
G01 X82.4129 Y6.6086
G01 X82.4296 Y6.6522
G01 X82.4427 Y6.6918
G01 X82.4552 Y6.7367
G01 X82.4656 Y6.7822
G01 X82.4744 Y6.8330
G01 X82.4795 Y6.8744
G01 X82.4831 Y6.9209
G01 X82.4844 Y6.9700
G01 X82.4843 Y8.2725
G01 X82.4831 Y8.3191
G01 X82.4795 Y8.3656
G01 X82.4737 Y8.4119
G01 X82.4656 Y8.4578
G01 X82.4552 Y8.5033
G01 X82.4427 Y8.5482
G01 X82.4279 Y8.5925
G01 X82.4110 Y8.6359
G01 X82.3920 Y8.6785
G01 X82.3709 Y8.7201
G01 X82.3479 Y8.7607
G01 X82.3228 Y8.8000
G01 X82.2958 Y8.8381
G01 X82.2670 Y8.8748
G01 X82.2365 Y8.9100
G01 X82.2042 Y8.9437
G01 X82.1704 Y8.9758
G01 X82.1350 Y9.0062
G01 X82.0981 Y9.0348
G01 X82.0640 Y9.0588
G01 X82.0350 Y9.0773
G01 X82.0346 Y19.1717
G01 X82.0723 Y19.1983
G01 X82.1071 Y19.2256
G01 X82.1404 Y19.2546
G01 X82.1689 Y19.2816
G01 X82.1998 Y19.3139
G01 X82.2315 Y19.3507
G01 X82.2557 Y19.3817
G01 X82.2812 Y19.4178
G01 X82.3051 Y19.4552
G01 X82.3292 Y19.4978
G01 X82.3468 Y19.5328
G01 X82.3648 Y19.5732
G01 X82.3809 Y19.6144
G01 X82.3963 Y19.6610
G01 X82.4079 Y19.7036
G01 X82.4165 Y19.7419
G01 X82.4242 Y19.7855
G01 X82.4297 Y19.8293
G01 X82.4331 Y19.8734
G01 X82.4344 Y19.9200
G01 X82.4344 Y20.7200
G01 X82.4334 Y20.7617
G01 X82.4302 Y20.8058
G01 X82.4242 Y20.8545
G01 X82.4165 Y20.8981
G01 X82.4067 Y20.9411
G01 X82.3948 Y20.9837
G01 X82.3809 Y21.0256
G01 X82.3648 Y21.0668
G01 X82.3489 Y21.1027
G01 X82.3290 Y21.1425
G01 X82.3075 Y21.1807
G01 X82.2839 Y21.2182
G01 X82.2586 Y21.2543
G01 X82.2284 Y21.2931
G01 X82.1994 Y21.3264
G01 X82.1689 Y21.3584
G01 X82.1401 Y21.3858
G01 X82.1071 Y21.4144
G01 X82.0723 Y21.4417
G01 X82.0362 Y21.4672
G01 X81.9988 Y21.4911
G01 X81.9562 Y21.5152
G01 X81.9212 Y21.5328
G01 X81.8808 Y21.5508
G01 X81.8350 Y21.5685
G01 X81.7930 Y21.5823
G01 X81.7504 Y21.5939
G01 X81.7121 Y21.6025
G01 X81.6637 Y21.6109
G01 X81.6198 Y21.6162
G01 X81.5757 Y21.6194
G01 X81.5365 Y21.6203
G01 X81.4923 Y21.6194
G01 X81.4482 Y21.6162
G01 X81.3995 Y21.6102
G01 X81.3559 Y21.6025
G01 X81.3176 Y21.5939
G01 X81.2750 Y21.5823
G01 X81.2284 Y21.5669
G01 X81.1872 Y21.5508
G01 X81.1513 Y21.5349
G01 X81.1115 Y21.5150
G01 X81.0690 Y21.4910
G01 X81.0358 Y21.4699
G01 X80.9997 Y21.4446
G01 X80.9609 Y21.4144
G01 X80.9276 Y21.3854
G01 X80.8991 Y21.3584
G01 X80.8682 Y21.3261
G01 X80.8365 Y21.2893
G01 X80.8094 Y21.2543
G01 X80.7840 Y21.2181
G01 X80.7629 Y21.1848
G01 X80.7411 Y21.1466
G01 X80.7191 Y21.1027
G01 X80.7032 Y21.0668
G01 X80.6871 Y21.0256
G01 X80.6717 Y20.9790
G01 X80.6601 Y20.9364
G01 X80.6515 Y20.8981
G01 X80.6438 Y20.8545
G01 X80.6378 Y20.8058
G01 X80.6346 Y20.7617
G01 X80.6336 Y20.7200
G01 X80.6337 Y19.9175
G01 X80.6349 Y19.8734
G01 X80.6383 Y19.8293
G01 X80.6431 Y19.7903
G01 X80.6505 Y19.7468
G01 X80.6601 Y19.7036
G01 X80.6717 Y19.6610
G01 X80.6855 Y19.6190
G01 X80.7013 Y19.5777
G01 X80.7191 Y19.5373
G01 X80.7390 Y19.4975
G01 X80.7605 Y19.4593
G01 X80.7868 Y19.4178
G01 X80.8123 Y19.3817
G01 X80.8396 Y19.3469
G01 X80.8686 Y19.3136
G01 X80.8991 Y19.2816
G01 X80.9312 Y19.2513
G01 X80.9647 Y19.2225
G01 X80.9997 Y19.1954
G01 X81.0334 Y19.1717
G01 X81.0334 Y9.0776
G01 X81.0040 Y9.0588
G01 X80.9699 Y9.0348
G01 X80.9330 Y9.0062
G01 X80.8976 Y8.9758
G01 X80.8638 Y8.9437
G01 X80.8312 Y8.9097
G01 X80.8010 Y8.8748
G01 X80.7722 Y8.8381
G01 X80.7452 Y8.8000
G01 X80.7201 Y8.7605
G01 X80.6971 Y8.7201
G01 X80.6760 Y8.6785
G01 X80.6570 Y8.6359
G01 X80.6401 Y8.5925
G01 X80.6253 Y8.5482
G01 X80.6128 Y8.5033
G01 X80.6024 Y8.4578
G01 X80.5943 Y8.4119
G01 X80.5885 Y8.3656
G01 X80.5849 Y8.3191
G01 X80.5836 Y8.2700
G01 X80.5836 Y6.9700
G01 X80.5847 Y6.9258
G01 X80.5880 Y6.8793
G01 X80.5943 Y6.8281
G01 X80.6024 Y6.7822
G01 X80.6128 Y6.7367
G01 X80.6253 Y6.6918
G01 X80.6401 Y6.6475
G01 X80.6551 Y6.6086
G01 X80.6739 Y6.5659
G01 X80.6949 Y6.5239
G01 X80.7201 Y6.4793
G01 X80.7425 Y6.4441
G01 X80.7692 Y6.4059
G01 X80.8010 Y6.3652
G01 X80.8315 Y6.3300
G01 X80.8603 Y6.2998
G01 X80.8940 Y6.2675
G01 X80.9292 Y6.2370
G01 X80.9699 Y6.2052
G01 X81.0040 Y6.1812
G01 X81.0331 Y6.1626
G01 X81.0334 Y6.0492
G01 X80.5647 Y5.5806
G01 X76.3438 Y5.5806
G01 X61.3345 Y20.5898
G01 X61.3345 Y22.3997
G01 X62.2669 Y23.3320
G01 X62.3010 Y23.3245
G01 X62.3470 Y23.3166
G01 X62.3933 Y23.3110
G01 X62.4398 Y23.3077
G01 X62.4865 Y23.3067
G01 X62.5331 Y23.3079
G01 X62.5796 Y23.3115
G01 X62.6210 Y23.3166
G01 X62.6718 Y23.3254
G01 X62.7173 Y23.3358
G01 X62.7622 Y23.3483
G01 X62.8065 Y23.3631
G01 X62.8499 Y23.3800
G01 X62.8925 Y23.3990
G01 X62.9341 Y23.4201
G01 X62.9747 Y23.4431
G01 X63.0140 Y23.4682
G01 X63.0521 Y23.4952
G01 X63.0888 Y23.5240
G01 X63.1240 Y23.5545
G01 X63.1542 Y23.5833
G01 X63.1868 Y23.6173
G01 X63.2170 Y23.6522
G01 X63.2488 Y23.6929
G01 X63.2755 Y23.7311
G01 X63.3004 Y23.7706
G01 X63.3233 Y23.8112
G01 X63.3441 Y23.8529
G01 X63.3629 Y23.8956
G01 X63.3796 Y23.9392
G01 X63.3941 Y23.9835
G01 X63.4064 Y24.0285
G01 X63.4165 Y24.0740
G01 X63.4244 Y24.1200
G01 X63.4295 Y24.1614
G01 X63.4331 Y24.2079
G01 X63.4343 Y24.2545
G01 X63.4333 Y24.3012
G01 X63.4295 Y24.3526
G01 X63.4237 Y24.3989
G01 X63.4156 Y24.4448
G01 X63.4064 Y24.4856
G01 X63.3941 Y24.5305
G01 X63.3796 Y24.5748
G01 X63.3629 Y24.6184
G01 X63.3441 Y24.6611
G01 X63.3233 Y24.7028
G01 X63.2979 Y24.7477
G01 X63.2728 Y24.7870
G01 X63.2458 Y24.8251
G01 X63.2170 Y24.8618
G01 X63.1898 Y24.8934
G01 X63.1577 Y24.9272
G01 X63.1240 Y24.9595
G01 X63.0850 Y24.9932
G01 X63.0521 Y25.0188
G01 X63.0140 Y25.0458
G01 X62.9745 Y25.0709
G01 X62.9341 Y25.0939
G01 X62.8881 Y25.1171
G01 X62.8499 Y25.1340
G01 X62.8065 Y25.1509
G01 X62.7575 Y25.1671
G01 X62.7125 Y25.1794
G01 X62.6718 Y25.1886
G01 X62.6210 Y25.1974
G01 X62.5796 Y25.2025
G01 X62.5331 Y25.2061
G01 X62.4865 Y25.2073
G01 X62.4398 Y25.2063
G01 X62.3884 Y25.2025
G01 X62.3421 Y25.1967
G01 X62.3010 Y25.1895
G01 X62.2507 Y25.1782
G01 X62.2058 Y25.1657
G01 X62.1662 Y25.1526
G01 X62.1181 Y25.1340
G01 X62.0755 Y25.1150
G01 X62.0379 Y25.0961
G01 X61.9933 Y25.0709
G01 X61.9540 Y25.0458
G01 X61.9159 Y25.0188
G01 X61.8792 Y24.9900
G01 X61.8476 Y24.9628
G01 X61.8138 Y24.9307
G01 X61.7782 Y24.8934
G01 X61.7478 Y24.8580
G01 X61.7222 Y24.8251
G01 X61.6925 Y24.7829
G01 X61.6676 Y24.7434
G01 X61.6447 Y24.7028
G01 X61.6260 Y24.6655
G01 X61.6051 Y24.6184
G01 X61.5884 Y24.5748
G01 X61.5753 Y24.5352
G01 X61.5628 Y24.4903
G01 X61.5515 Y24.4400
G01 X61.5436 Y24.3940
G01 X61.5385 Y24.3526
G01 X61.5347 Y24.3012
G01 X61.5337 Y24.2595
G01 X61.5347 Y24.2128
G01 X61.5380 Y24.1663
G01 X61.5443 Y24.1151
G01 X61.5515 Y24.0740
G01 X61.5589 Y24.0404
G01 X61.2800 Y23.7609
G01 X60.4783 Y22.9592
G01 X60.4645 Y22.9446
G01 X60.4487 Y22.9264
G01 X60.4334 Y22.9071
G01 X60.4165 Y22.8830
G01 X60.4059 Y22.8663
G01 X60.3937 Y22.8451
G01 X60.3805 Y22.8188
G01 X60.3706 Y22.7963
G01 X60.3619 Y22.7733
G01 X60.3543 Y22.7499
G01 X60.3491 Y22.7310
G01 X60.3436 Y22.7071
G01 X60.3385 Y22.6780
G01 X60.3361 Y22.6585
G01 X60.3342 Y22.6340
G01 X60.3335 Y22.6095
G01 X60.3334 Y20.3825
G01 X60.3340 Y20.3604
G00 Z2.0000
G00 X61.5348 Y21.6728
G01 F80.00
G01 Z-0.1866
G01 F80.00
G01 X61.5380 Y21.6263
G01 X61.5436 Y21.5800
G01 X61.5515 Y21.5340
G01 X61.5616 Y21.4884
G01 X61.5739 Y21.4435
G01 X61.5884 Y21.3992
G01 X61.6051 Y21.3556
G01 X61.6239 Y21.3129
G01 X61.6449 Y21.2709
G01 X61.6676 Y21.2306
G01 X61.6925 Y21.1911
G01 X61.7192 Y21.1529
G01 X61.7478 Y21.1160
G01 X61.7782 Y21.0806
G01 X61.8103 Y21.0468
G01 X61.8443 Y21.0142
G01 X61.8792 Y20.9840
G01 X61.9159 Y20.9552
G01 X61.9540 Y20.9282
G01 X61.9935 Y20.9031
G01 X62.0339 Y20.8801
G01 X62.0755 Y20.8590
G01 X62.1181 Y20.8400
G01 X62.1615 Y20.8231
G01 X62.2058 Y20.8083
G01 X62.2507 Y20.7958
G01 X62.2962 Y20.7854
G01 X62.3421 Y20.7773
G01 X62.3884 Y20.7715
G01 X62.4349 Y20.7679
G01 X62.4815 Y20.7667
G01 X62.5282 Y20.7677
G01 X62.5747 Y20.7710
G01 X62.6210 Y20.7766
G01 X62.6670 Y20.7845
G01 X62.7126 Y20.7946
G01 X62.7575 Y20.8069
G01 X62.8018 Y20.8214
G01 X62.8454 Y20.8381
G01 X62.8881 Y20.8569
G01 X62.9301 Y20.8779
G01 X62.9704 Y20.9006
G01 X63.0099 Y20.9255
G01 X63.0481 Y20.9522
G01 X63.0850 Y20.9808
G01 X63.1204 Y21.0112
G01 X63.1542 Y21.0433
G01 X63.1868 Y21.0773
G01 X63.2170 Y21.1122
G01 X63.2458 Y21.1489
G01 X63.2728 Y21.1870
G01 X63.2979 Y21.2265
G01 X63.3209 Y21.2669
G01 X63.3420 Y21.3085
G01 X63.3610 Y21.3511
G01 X63.3779 Y21.3945
G01 X63.3927 Y21.4388
G01 X63.4052 Y21.4837
G01 X63.4156 Y21.5292
G01 X63.4237 Y21.5751
G01 X63.4295 Y21.6214
G01 X63.4331 Y21.6679
G01 X63.4343 Y21.7145
G01 X63.4333 Y21.7612
G01 X63.4300 Y21.8077
G01 X63.4244 Y21.8540
G01 X63.4165 Y21.9000
G01 X63.4064 Y21.9456
G01 X63.3941 Y21.9905
G01 X63.3796 Y22.0348
G01 X63.3629 Y22.0784
G01 X63.3441 Y22.1211
G01 X63.3231 Y22.1631
G01 X63.3004 Y22.2034
G01 X63.2755 Y22.2429
G01 X63.2488 Y22.2811
G01 X63.2202 Y22.3180
G01 X63.1898 Y22.3534
G01 X63.1577 Y22.3872
G01 X63.1237 Y22.4198
G01 X63.0888 Y22.4500
G01 X63.0521 Y22.4788
G01 X63.0140 Y22.5058
G01 X62.9745 Y22.5309
G01 X62.9341 Y22.5539
G01 X62.8925 Y22.5750
G01 X62.8499 Y22.5940
G01 X62.8065 Y22.6109
G01 X62.7622 Y22.6257
G01 X62.7173 Y22.6382
G01 X62.6718 Y22.6486
G01 X62.6259 Y22.6567
G01 X62.5796 Y22.6625
G01 X62.5331 Y22.6661
G01 X62.4865 Y22.6673
G01 X62.4398 Y22.6663
G01 X62.3933 Y22.6630
G01 X62.3470 Y22.6574
G01 X62.3010 Y22.6495
G01 X62.2554 Y22.6394
G01 X62.2105 Y22.6271
G01 X62.1662 Y22.6126
G01 X62.1226 Y22.5959
G01 X62.0799 Y22.5771
G01 X62.0379 Y22.5561
G01 X61.9976 Y22.5334
G01 X61.9581 Y22.5085
G01 X61.9199 Y22.4818
G01 X61.8830 Y22.4532
G01 X61.8476 Y22.4228
G01 X61.8138 Y22.3907
G01 X61.7812 Y22.3567
G01 X61.7510 Y22.3218
G01 X61.7222 Y22.2851
G01 X61.6952 Y22.2470
G01 X61.6701 Y22.2075
G01 X61.6471 Y22.1671
G01 X61.6260 Y22.1255
G01 X61.6070 Y22.0829
G01 X61.5901 Y22.0395
G01 X61.5753 Y21.9952
G01 X61.5628 Y21.9503
G01 X61.5524 Y21.9048
G01 X61.5443 Y21.8589
G01 X61.5385 Y21.8126
G01 X61.5349 Y21.7661
G01 X61.5337 Y21.7195
G01 X61.5348 Y21.6728
G00 Z2.0000
G00 X61.5348 Y26.7528
G01 F80.00
G01 Z-0.1866
G01 F80.00
G01 X61.5380 Y26.7063
G01 X61.5436 Y26.6600
G01 X61.5515 Y26.6140
G01 X61.5616 Y26.5684
G01 X61.5739 Y26.5235
G01 X61.5884 Y26.4792
G01 X61.6051 Y26.4356
G01 X61.6239 Y26.3929
G01 X61.6449 Y26.3509
G01 X61.6676 Y26.3106
G01 X61.6925 Y26.2711
G01 X61.7222 Y26.2289
G01 X61.7510 Y26.1922
G01 X61.7815 Y26.1570
G01 X61.8138 Y26.1233
G01 X61.8476 Y26.0912
G01 X61.8830 Y26.0608
G01 X61.9199 Y26.0322
G01 X61.9581 Y26.0055
G01 X61.9933 Y25.9831
G01 X62.0339 Y25.9601
G01 X62.0799 Y25.9369
G01 X62.1226 Y25.9181
G01 X62.1662 Y25.9014
G01 X62.2058 Y25.8883
G01 X62.2507 Y25.8758
G01 X62.2962 Y25.8654
G01 X62.3470 Y25.8566
G01 X62.3933 Y25.8510
G01 X62.4398 Y25.8477
G01 X62.4815 Y25.8467
G01 X62.5331 Y25.8479
G01 X62.5796 Y25.8515
G01 X62.6259 Y25.8573
G01 X62.6670 Y25.8645
G01 X62.7006 Y25.8719
G01 X64.3964 Y24.1767
G01 X64.3964 Y18.4150
G01 X64.3970 Y18.3929
G01 X64.3986 Y18.3684
G01 X64.4023 Y18.3391
G01 X64.4066 Y18.3149
G01 X64.4109 Y18.2957
G01 X64.4187 Y18.2674
G01 X64.4266 Y18.2441
G01 X64.4355 Y18.2212
G01 X64.4435 Y18.2032
G01 X64.4546 Y18.1809
G01 X64.4664 Y18.1598
G01 X64.4795 Y18.1390
G01 X64.4964 Y18.1149
G01 X64.5117 Y18.0956
G01 X64.5278 Y18.0770
G01 X64.5413 Y18.0628
G01 X66.9561 Y15.6481
G01 X66.9757 Y15.6295
G01 X66.9944 Y15.6135
G01 X67.0138 Y15.5985
G01 X67.0340 Y15.5845
G01 X67.0507 Y15.5739
G01 X67.0719 Y15.5617
G01 X67.0982 Y15.5485
G01 X67.1162 Y15.5405
G01 X67.1391 Y15.5316
G01 X67.1671 Y15.5223
G01 X67.1908 Y15.5159
G01 X67.2099 Y15.5116
G01 X67.2390 Y15.5065
G01 X67.2585 Y15.5041
G01 X67.2830 Y15.5022
G01 X67.3100 Y15.5014
G01 X78.4934 Y15.5014
G01 X78.4934 Y9.2204
G01 X78.1440 Y9.2203
G01 X78.1342 Y9.2199
G01 X78.1244 Y9.2184
G01 X78.1102 Y9.2145
G01 X78.0967 Y9.2085
G01 X78.0882 Y9.2034
G01 X78.0803 Y9.1976
G01 X78.0696 Y9.1874
G01 X78.0606 Y9.1758
G01 X78.0533 Y9.1629
G01 X78.0480 Y9.1491
G01 X78.0447 Y9.1347
G01 X78.0436 Y9.1200
G01 X78.0436 Y6.1200
G01 X78.0447 Y6.1053
G01 X78.0480 Y6.0909
G01 X78.0513 Y6.0816
G01 X78.0555 Y6.0727
G01 X78.0634 Y6.0602
G01 X78.0696 Y6.0526
G01 X78.0766 Y6.0456
G01 X78.0842 Y6.0394
G01 X78.0924 Y6.0339
G01 X78.1056 Y6.0273
G01 X78.1149 Y6.0240
G01 X78.1244 Y6.0216
G01 X78.1391 Y6.0198
G01 X79.8440 Y6.0197
G01 X79.8538 Y6.0201
G01 X79.8636 Y6.0216
G01 X79.8778 Y6.0255
G01 X79.8869 Y6.0293
G01 X79.8956 Y6.0339
G01 X79.9038 Y6.0394
G01 X79.9114 Y6.0456
G01 X79.9184 Y6.0526
G01 X79.9274 Y6.0642
G01 X79.9325 Y6.0727
G01 X79.9367 Y6.0816
G01 X79.9400 Y6.0909
G01 X79.9424 Y6.1004
G01 X79.9439 Y6.1102
G01 X79.9444 Y6.1200
G01 X79.9444 Y9.1200
G01 X79.9433 Y9.1347
G01 X79.9400 Y9.1491
G01 X79.9347 Y9.1629
G01 X79.9274 Y9.1758
G01 X79.9184 Y9.1874
G01 X79.9077 Y9.1976
G01 X79.8998 Y9.2034
G01 X79.8913 Y9.2085
G01 X79.8778 Y9.2145
G01 X79.8636 Y9.2184
G01 X79.8538 Y9.2199
G01 X79.8440 Y9.2203
G01 X79.4946 Y9.2203
G01 X79.4946 Y19.1717
G01 X79.5323 Y19.1983
G01 X79.5671 Y19.2256
G01 X79.6004 Y19.2546
G01 X79.6289 Y19.2816
G01 X79.6598 Y19.3139
G01 X79.6915 Y19.3507
G01 X79.7186 Y19.3857
G01 X79.7440 Y19.4219
G01 X79.7651 Y19.4552
G01 X79.7869 Y19.4934
G01 X79.8089 Y19.5373
G01 X79.8267 Y19.5777
G01 X79.8425 Y19.6190
G01 X79.8563 Y19.6610
G01 X79.8667 Y19.6989
G01 X79.8765 Y19.7419
G01 X79.8849 Y19.7903
G01 X79.8897 Y19.8293
G01 X79.8931 Y19.8734
G01 X79.8943 Y19.9175
G01 X79.8944 Y20.7200
G01 X79.8934 Y20.7617
G01 X79.8902 Y20.8058
G01 X79.8842 Y20.8545
G01 X79.8765 Y20.8981
G01 X79.8679 Y20.9364
G01 X79.8563 Y20.9790
G01 X79.8409 Y21.0256
G01 X79.8248 Y21.0668
G01 X79.8089 Y21.1027
G01 X79.7869 Y21.1466
G01 X79.7650 Y21.1850
G01 X79.7439 Y21.2182
G01 X79.7157 Y21.2583
G01 X79.6884 Y21.2931
G01 X79.6627 Y21.3228
G01 X79.6289 Y21.3584
G01 X79.6001 Y21.3858
G01 X79.5671 Y21.4144
G01 X79.5323 Y21.4417
G01 X79.4921 Y21.4700
G01 X79.4588 Y21.4911
G01 X79.4206 Y21.5129
G01 X79.3767 Y21.5349
G01 X79.3363 Y21.5527
G01 X79.2950 Y21.5685
G01 X79.2577 Y21.5808
G01 X79.2104 Y21.5939
G01 X79.1721 Y21.6025
G01 X79.1285 Y21.6102
G01 X79.0847 Y21.6157
G01 X79.0357 Y21.6194
G01 X78.9965 Y21.6203
G01 X78.9523 Y21.6194
G01 X78.9033 Y21.6157
G01 X78.8595 Y21.6102
G01 X78.8208 Y21.6035
G01 X78.7776 Y21.5939
G01 X78.7303 Y21.5808
G01 X78.6884 Y21.5669
G01 X78.6517 Y21.5527
G01 X78.6068 Y21.5328
G01 X78.5715 Y21.5150
G01 X78.5333 Y21.4935
G01 X78.4958 Y21.4699
G01 X78.4557 Y21.4417
G01 X78.4209 Y21.4144
G01 X78.3912 Y21.3887
G01 X78.3556 Y21.3549
G01 X78.3282 Y21.3261
G01 X78.2996 Y21.2931
G01 X78.2723 Y21.2583
G01 X78.2440 Y21.2181
G01 X78.2229 Y21.1848
G01 X78.2011 Y21.1466
G01 X78.1791 Y21.1027
G01 X78.1613 Y21.0623
G01 X78.1455 Y21.0210
G01 X78.1332 Y20.9837
G01 X78.1201 Y20.9364
G01 X78.1115 Y20.8981
G01 X78.1038 Y20.8545
G01 X78.0983 Y20.8107
G01 X78.0949 Y20.7666
G01 X78.0936 Y20.7200
G01 X78.0937 Y19.9175
G01 X78.0949 Y19.8734
G01 X78.0983 Y19.8293
G01 X78.1038 Y19.7855
G01 X78.1115 Y19.7419
G01 X78.1213 Y19.6989
G01 X78.1332 Y19.6563
G01 X78.1471 Y19.6144
G01 X78.1632 Y19.5732
G01 X78.1812 Y19.5328
G01 X78.2011 Y19.4934
G01 X78.2230 Y19.4550
G01 X78.2468 Y19.4178
G01 X78.2723 Y19.3817
G01 X78.2996 Y19.3469
G01 X78.3286 Y19.3136
G01 X78.3591 Y19.2816
G01 X78.3912 Y19.2513
G01 X78.4247 Y19.2225
G01 X78.4597 Y19.1954
G01 X78.4934 Y19.1717
G01 X78.4934 Y16.5026
G01 X67.5173 Y16.5026
G01 X65.3976 Y18.6223
G01 X65.3976 Y24.3840
G01 X65.3968 Y24.4110
G01 X65.3949 Y24.4355
G01 X65.3925 Y24.4550
G01 X65.3874 Y24.4841
G01 X65.3819 Y24.5080
G01 X65.3753 Y24.5316
G01 X65.3691 Y24.5503
G01 X65.3585 Y24.5778
G01 X65.3484 Y24.6002
G01 X65.3394 Y24.6181
G01 X65.3276 Y24.6392
G01 X65.3145 Y24.6600
G01 X65.2976 Y24.6841
G01 X65.2823 Y24.7034
G01 X65.2695 Y24.7183
G01 X65.2509 Y24.7379
G01 X63.4090 Y26.5799
G01 X63.4165 Y26.6140
G01 X63.4244 Y26.6600
G01 X63.4295 Y26.7014
G01 X63.4331 Y26.7479
G01 X63.4343 Y26.7945
G01 X63.4333 Y26.8412
G01 X63.4295 Y26.8926
G01 X63.4237 Y26.9389
G01 X63.4156 Y26.9848
G01 X63.4064 Y27.0256
G01 X63.3941 Y27.0705
G01 X63.3779 Y27.1195
G01 X63.3610 Y27.1629
G01 X63.3441 Y27.2011
G01 X63.3209 Y27.2471
G01 X63.2979 Y27.2877
G01 X63.2755 Y27.3229
G01 X63.2488 Y27.3611
G01 X63.2202 Y27.3980
G01 X63.1865 Y27.4370
G01 X63.1542 Y27.4707
G01 X63.1237 Y27.4998
G01 X63.0850 Y27.5332
G01 X63.0521 Y27.5588
G01 X63.0140 Y27.5858
G01 X62.9745 Y27.6109
G01 X62.9341 Y27.6339
G01 X62.8881 Y27.6571
G01 X62.8454 Y27.6759
G01 X62.8018 Y27.6926
G01 X62.7622 Y27.7057
G01 X62.7125 Y27.7194
G01 X62.6718 Y27.7286
G01 X62.6259 Y27.7367
G01 X62.5747 Y27.7430
G01 X62.5282 Y27.7463
G01 X62.4865 Y27.7473
G01 X62.4398 Y27.7463
G01 X62.3933 Y27.7430
G01 X62.3421 Y27.7367
G01 X62.2962 Y27.7286
G01 X62.2554 Y27.7194
G01 X62.2105 Y27.7071
G01 X62.1615 Y27.6909
G01 X62.1181 Y27.6740
G01 X62.0755 Y27.6550
G01 X62.0379 Y27.6361
G01 X61.9933 Y27.6109
G01 X61.9581 Y27.5885
G01 X61.9199 Y27.5618
G01 X61.8792 Y27.5300
G01 X61.8440 Y27.4995
G01 X61.8138 Y27.4707
G01 X61.7812 Y27.4367
G01 X61.7478 Y27.3980
G01 X61.7222 Y27.3651
G01 X61.6952 Y27.3270
G01 X61.6701 Y27.2875
G01 X61.6447 Y27.2428
G01 X61.6260 Y27.2055
G01 X61.6070 Y27.1629
G01 X61.5901 Y27.1195
G01 X61.5739 Y27.0705
G01 X61.5616 Y27.0255
G01 X61.5524 Y26.9848
G01 X61.5436 Y26.9340
G01 X61.5380 Y26.8877
G01 X61.5347 Y26.8412
G01 X61.5337 Y26.7995
G01 X61.5348 Y26.7528
G00 Z2.0000
G00 X70.7829 Y30.4055
G01 F80.00
G01 Z-0.1866
G01 F80.00
G01 X70.7867 Y30.3516
G01 X70.7932 Y30.2980
G01 X70.8023 Y30.2448
G01 X70.8141 Y30.1920
G01 X70.8283 Y30.1400
G01 X70.8452 Y30.0886
G01 X70.8645 Y30.0382
G01 X70.8863 Y29.9888
G01 X70.9106 Y29.9402
G01 X70.9370 Y29.8934
G01 X70.9658 Y29.8477
G01 X70.9967 Y29.8035
G01 X71.0299 Y29.7609
G01 X71.0651 Y29.7199
G01 X71.1022 Y29.6807
G01 X71.1416 Y29.6431
G01 X71.1821 Y29.6080
G01 X71.2246 Y29.5747
G01 X71.2686 Y29.5435
G01 X71.3144 Y29.5144
G01 X71.3611 Y29.4878
G01 X71.4093 Y29.4634
G01 X71.4587 Y29.4414
G01 X71.5090 Y29.4218
G01 X71.5602 Y29.4048
G01 X71.6123 Y29.3903
G01 X71.6649 Y29.3783
G01 X71.7181 Y29.3690
G01 X71.7717 Y29.3622
G01 X71.8256 Y29.3581
G01 X71.8795 Y29.3567
G01 X71.9335 Y29.3579
G01 X71.9874 Y29.3617
G01 X72.0410 Y29.3682
G01 X72.0942 Y29.3773
G01 X72.1470 Y29.3891
G01 X72.1990 Y29.4033
G01 X72.2504 Y29.4202
G01 X72.3008 Y29.4395
G01 X72.3502 Y29.4613
G01 X72.3988 Y29.4856
G01 X72.4456 Y29.5120
G01 X72.4913 Y29.5408
G01 X72.5355 Y29.5717
G01 X72.5781 Y29.6049
G01 X72.6191 Y29.6401
G01 X72.6583 Y29.6772
G01 X72.6959 Y29.7166
G01 X72.7310 Y29.7571
G01 X72.7643 Y29.7996
G01 X72.7955 Y29.8436
G01 X72.8246 Y29.8894
G01 X72.8512 Y29.9361
G01 X72.8756 Y29.9843
G01 X72.8976 Y30.0337
G01 X72.9172 Y30.0840
G01 X72.9342 Y30.1352
G01 X72.9487 Y30.1873
G01 X72.9607 Y30.2399
G01 X72.9700 Y30.2931
G01 X72.9768 Y30.3467
G01 X72.9809 Y30.4006
G01 X72.9823 Y30.4545
G01 X72.9811 Y30.5085
G01 X72.9773 Y30.5624
G01 X72.9708 Y30.6160
G01 X72.9617 Y30.6692
G01 X72.9499 Y30.7220
G01 X72.9357 Y30.7740
G01 X72.9188 Y30.8254
G01 X72.8995 Y30.8758
G01 X72.8777 Y30.9252
G01 X72.8534 Y30.9738
G01 X72.8270 Y31.0206
G01 X72.7982 Y31.0663
G01 X72.7673 Y31.1105
G01 X72.7341 Y31.1531
G01 X72.6989 Y31.1941
G01 X72.6618 Y31.2333
G01 X72.6224 Y31.2709
G01 X72.5819 Y31.3060
G01 X72.5394 Y31.3393
G01 X72.4954 Y31.3705
G01 X72.4496 Y31.3996
G01 X72.4029 Y31.4262
G01 X72.3547 Y31.4506
G01 X72.3053 Y31.4726
G01 X72.2550 Y31.4922
G01 X72.2038 Y31.5092
G01 X72.1517 Y31.5237
G01 X72.0991 Y31.5357
G01 X72.0459 Y31.5450
G01 X71.9923 Y31.5518
G01 X71.9384 Y31.5559
G01 X71.8845 Y31.5573
G01 X71.8305 Y31.5561
G01 X71.7766 Y31.5523
G01 X71.7230 Y31.5458
G01 X71.6698 Y31.5367
G01 X71.6170 Y31.5249
G01 X71.5650 Y31.5107
G01 X71.5136 Y31.4938
G01 X71.4632 Y31.4745
G01 X71.4138 Y31.4527
G01 X71.3652 Y31.4284
G01 X71.3184 Y31.4020
G01 X71.2727 Y31.3732
G01 X71.2285 Y31.3423
G01 X71.1859 Y31.3091
G01 X71.1449 Y31.2739
G01 X71.1057 Y31.2368
G01 X71.0681 Y31.1974
G01 X71.0330 Y31.1569
G01 X70.9997 Y31.1144
G01 X70.9685 Y31.0704
G01 X70.9394 Y31.0246
G01 X70.9128 Y30.9779
G01 X70.8884 Y30.9297
G01 X70.8664 Y30.8803
G01 X70.8468 Y30.8300
G01 X70.8298 Y30.7788
G01 X70.8153 Y30.7267
G01 X70.8033 Y30.6741
G01 X70.7940 Y30.6209
G01 X70.7872 Y30.5673
G01 X70.7831 Y30.5134
G01 X70.7817 Y30.4595
G01 X70.7829 Y30.4055
G00 Z2.0000
G00 X66.2829 Y36.9055
G01 F80.00
G01 Z-0.1866
G01 F80.00
G01 X66.2867 Y36.8516
G01 X66.2932 Y36.7980
G01 X66.3023 Y36.7448
G01 X66.3141 Y36.6920
G01 X66.3283 Y36.6400
G01 X66.3452 Y36.5886
G01 X66.3645 Y36.5382
G01 X66.3863 Y36.4888
G01 X66.4106 Y36.4402
G01 X66.4370 Y36.3934
G01 X66.4658 Y36.3477
G01 X66.4967 Y36.3035
G01 X66.5299 Y36.2609
G01 X66.5651 Y36.2199
G01 X66.6022 Y36.1807
G01 X66.6416 Y36.1431
G01 X66.6821 Y36.1080
G01 X66.7246 Y36.0747
G01 X66.7686 Y36.0435
G01 X66.8144 Y36.0144
G01 X66.8611 Y35.9878
G01 X66.9093 Y35.9634
G01 X66.9587 Y35.9414
G01 X67.0090 Y35.9218
G01 X67.0602 Y35.9048
G01 X67.1123 Y35.8903
G01 X67.1649 Y35.8783
G01 X67.2181 Y35.8690
G01 X67.2717 Y35.8622
G01 X67.3256 Y35.8581
G01 X67.3795 Y35.8567
G01 X67.4335 Y35.8579
G01 X67.4874 Y35.8617
G01 X67.5410 Y35.8682
G01 X67.5942 Y35.8773
G01 X67.6470 Y35.8891
G01 X67.6990 Y35.9033
G01 X67.7504 Y35.9202
G01 X67.8008 Y35.9395
G01 X67.8502 Y35.9613
G01 X67.8988 Y35.9856
G01 X67.9456 Y36.0120
G01 X67.9913 Y36.0408
G01 X68.0355 Y36.0717
G01 X68.0781 Y36.1049
G01 X68.1191 Y36.1401
G01 X68.1583 Y36.1772
G01 X68.1959 Y36.2166
G01 X68.2310 Y36.2571
G01 X68.2643 Y36.2996
G01 X68.2955 Y36.3436
G01 X68.3246 Y36.3894
G01 X68.3512 Y36.4361
G01 X68.3756 Y36.4843
G01 X68.3976 Y36.5337
G01 X68.4172 Y36.5840
G01 X68.4342 Y36.6352
G01 X68.4487 Y36.6873
G01 X68.4607 Y36.7399
G01 X68.4700 Y36.7931
G01 X68.4768 Y36.8467
G01 X68.4809 Y36.9006
G01 X68.4823 Y36.9545
G01 X68.4811 Y37.0085
G01 X68.4773 Y37.0624
G01 X68.4708 Y37.1160
G01 X68.4617 Y37.1692
G01 X68.4499 Y37.2220
G01 X68.4357 Y37.2740
G01 X68.4188 Y37.3254
G01 X68.3995 Y37.3758
G01 X68.3777 Y37.4252
G01 X68.3534 Y37.4738
G01 X68.3270 Y37.5206
G01 X68.2982 Y37.5663
G01 X68.2673 Y37.6105
G01 X68.2341 Y37.6531
G01 X68.1989 Y37.6941
G01 X68.1618 Y37.7333
G01 X68.1224 Y37.7709
G01 X68.0819 Y37.8060
G01 X68.0394 Y37.8393
G01 X67.9954 Y37.8705
G01 X67.9496 Y37.8996
G01 X67.9029 Y37.9262
G01 X67.8547 Y37.9506
G01 X67.8053 Y37.9726
G01 X67.7550 Y37.9922
G01 X67.7038 Y38.0092
G01 X67.6517 Y38.0237
G01 X67.5991 Y38.0357
G01 X67.5459 Y38.0450
G01 X67.4923 Y38.0518
G01 X67.4384 Y38.0559
G01 X67.3845 Y38.0573
G01 X67.3305 Y38.0561
G01 X67.2766 Y38.0523
G01 X67.2230 Y38.0458
G01 X67.1698 Y38.0367
G01 X67.1170 Y38.0249
G01 X67.0650 Y38.0107
G01 X67.0136 Y37.9938
G01 X66.9632 Y37.9745
G01 X66.9138 Y37.9527
G01 X66.8652 Y37.9284
G01 X66.8184 Y37.9020
G01 X66.7727 Y37.8732
G01 X66.7285 Y37.8423
G01 X66.6859 Y37.8091
G01 X66.6449 Y37.7739
G01 X66.6057 Y37.7368
G01 X66.5681 Y37.6974
G01 X66.5330 Y37.6569
G01 X66.4997 Y37.6144
G01 X66.4685 Y37.5704
G01 X66.4394 Y37.5246
G01 X66.4128 Y37.4779
G01 X66.3884 Y37.4297
G01 X66.3664 Y37.3803
G01 X66.3468 Y37.3300
G01 X66.3298 Y37.2788
G01 X66.3153 Y37.2267
G01 X66.3033 Y37.1741
G01 X66.2940 Y37.1209
G01 X66.2872 Y37.0673
G01 X66.2831 Y37.0134
G01 X66.2817 Y36.9595
G01 X66.2829 Y36.9055
G00 Z2.0000
G00 X62.0847 Y36.9537
G01 F80.00
G01 Z-0.1866
G01 F80.00
G01 X62.0779 Y36.9292
G01 X62.0745 Y36.9140
G01 X62.0709 Y36.8938
G01 X62.0678 Y36.8685
G01 X62.0664 Y36.8480
G01 X62.0660 Y36.8300
G01 X62.0660 Y35.3674
G01 X61.6340 Y35.3673
G01 X61.6193 Y35.3663
G01 X61.6096 Y35.3643
G01 X61.6002 Y35.3615
G01 X61.5867 Y35.3555
G01 X61.5742 Y35.3476
G01 X61.5630 Y35.3380
G01 X61.5534 Y35.3268
G01 X61.5455 Y35.3143
G01 X61.5395 Y35.3008
G01 X61.5367 Y35.2914
G01 X61.5347 Y35.2817
G01 X61.5336 Y35.2670
G01 X61.5336 Y33.5670
G01 X61.5347 Y33.5523
G01 X61.5367 Y33.5426
G01 X61.5395 Y33.5332
G01 X61.5455 Y33.5197
G01 X61.5534 Y33.5072
G01 X61.5630 Y33.4960
G01 X61.5742 Y33.4864
G01 X61.5867 Y33.4785
G01 X61.6002 Y33.4725
G01 X61.6144 Y33.4686
G01 X61.6291 Y33.4668
G01 X63.3340 Y33.4667
G01 X63.3438 Y33.4671
G01 X63.3536 Y33.4686
G01 X63.3631 Y33.4710
G01 X63.3724 Y33.4743
G01 X63.3856 Y33.4809
G01 X63.3977 Y33.4894
G01 X63.4084 Y33.4996
G01 X63.4174 Y33.5112
G01 X63.4225 Y33.5197
G01 X63.4267 Y33.5286
G01 X63.4300 Y33.5379
G01 X63.4324 Y33.5474
G01 X63.4342 Y33.5621
G01 X63.4344 Y35.2670
G01 X63.4333 Y35.2817
G01 X63.4313 Y35.2914
G01 X63.4285 Y35.3008
G01 X63.4225 Y35.3143
G01 X63.4146 Y35.3268
G01 X63.4050 Y35.3380
G01 X63.3938 Y35.3476
G01 X63.3813 Y35.3555
G01 X63.3678 Y35.3615
G01 X63.3584 Y35.3643
G01 X63.3487 Y35.3663
G01 X63.3340 Y35.3673
G01 X62.9020 Y35.3673
G01 X62.9020 Y36.6569
G01 X65.8321 Y39.5870
G01 X74.7660 Y39.5870
G01 X74.7660 Y37.6273
G01 X74.7574 Y37.6229
G01 X74.7233 Y37.6035
G01 X74.6858 Y37.5799
G01 X74.6457 Y37.5517
G01 X74.6109 Y37.5244
G01 X74.5776 Y37.4954
G01 X74.5456 Y37.4649
G01 X74.5153 Y37.4328
G01 X74.4896 Y37.4031
G01 X74.4676 Y37.3750
G01 X72.8998 Y37.3750
G01 X72.8756 Y37.4297
G01 X72.8512 Y37.4779
G01 X72.8245 Y37.5248
G01 X72.7955 Y37.5704
G01 X72.7643 Y37.6144
G01 X72.7310 Y37.6569
G01 X72.6956 Y37.6978
G01 X72.6583 Y37.7368
G01 X72.6224 Y37.7709
G01 X72.5781 Y37.8091
G01 X72.5355 Y37.8423
G01 X72.4913 Y37.8733
G01 X72.4456 Y37.9020
G01 X72.3985 Y37.9286
G01 X72.3502 Y37.9527
G01 X72.3008 Y37.9745
G01 X72.2504 Y37.9938
G01 X72.1990 Y38.0107
G01 X72.1470 Y38.0249
G01 X72.0942 Y38.0367
G01 X72.0410 Y38.0458
G01 X71.9874 Y38.0523
G01 X71.9335 Y38.0561
G01 X71.8795 Y38.0573
G01 X71.8256 Y38.0559
G01 X71.7717 Y38.0518
G01 X71.7181 Y38.0450
G01 X71.6649 Y38.0357
G01 X71.6123 Y38.0237
G01 X71.5602 Y38.0092
G01 X71.5090 Y37.9922
G01 X71.4587 Y37.9726
G01 X71.4138 Y37.9527
G01 X71.3652 Y37.9284
G01 X71.3142 Y37.8995
G01 X71.2686 Y37.8705
G01 X71.2246 Y37.8393
G01 X71.1859 Y37.8091
G01 X71.1449 Y37.7739
G01 X71.1057 Y37.7368
G01 X71.0681 Y37.6974
G01 X71.0299 Y37.6531
G01 X70.9997 Y37.6144
G01 X70.9685 Y37.5704
G01 X70.9394 Y37.5246
G01 X70.9104 Y37.4735
G01 X70.8884 Y37.4297
G01 X70.8664 Y37.3803
G01 X70.8468 Y37.3300
G01 X70.8283 Y37.2740
G01 X70.8141 Y37.2220
G01 X70.8033 Y37.1741
G01 X70.7940 Y37.1209
G01 X70.7872 Y37.0673
G01 X70.7831 Y37.0134
G01 X70.7817 Y36.9545
G01 X70.7831 Y36.9006
G01 X70.7867 Y36.8516
G01 X70.7932 Y36.7980
G01 X70.8023 Y36.7448
G01 X70.8153 Y36.6873
G01 X70.8298 Y36.6352
G01 X70.8468 Y36.5840
G01 X70.8645 Y36.5382
G01 X70.8863 Y36.4888
G01 X70.9128 Y36.4361
G01 X70.9395 Y36.3892
G01 X70.9658 Y36.3477
G01 X70.9967 Y36.3035
G01 X71.0330 Y36.2571
G01 X71.0684 Y36.2162
G01 X71.1022 Y36.1807
G01 X71.1412 Y36.1434
G01 X71.1821 Y36.1080
G01 X71.2246 Y36.0747
G01 X71.2727 Y36.0407
G01 X71.3184 Y36.0120
G01 X71.3655 Y35.9854
G01 X71.4093 Y35.9634
G01 X71.4587 Y35.9414
G01 X71.5090 Y35.9218
G01 X71.5650 Y35.9033
G01 X71.6170 Y35.8891
G01 X71.6649 Y35.8783
G01 X71.7181 Y35.8690
G01 X71.7717 Y35.8622
G01 X71.8256 Y35.8581
G01 X71.8795 Y35.8567
G01 X71.9384 Y35.8581
G01 X71.9923 Y35.8622
G01 X72.0459 Y35.8690
G01 X72.0942 Y35.8773
G01 X72.1470 Y35.8891
G01 X72.2038 Y35.9048
G01 X72.2550 Y35.9218
G01 X72.3008 Y35.9395
G01 X72.3547 Y35.9634
G01 X72.3988 Y35.9856
G01 X72.4456 Y36.0120
G01 X72.4913 Y36.0408
G01 X72.5394 Y36.0747
G01 X72.5819 Y36.1080
G01 X72.6191 Y36.1401
G01 X72.6583 Y36.1772
G01 X72.6989 Y36.2199
G01 X72.7341 Y36.2609
G01 X72.7643 Y36.2996
G01 X72.7983 Y36.3477
G01 X72.8246 Y36.3894
G01 X72.8512 Y36.4361
G01 X72.8777 Y36.4888
G01 X72.8998 Y36.5390
G01 X74.3322 Y36.5390
G01 X74.3371 Y36.5244
G01 X74.3532 Y36.4832
G01 X74.3712 Y36.4428
G01 X74.3890 Y36.4075
G01 X74.4105 Y36.3693
G01 X74.4341 Y36.3318
G01 X74.4623 Y36.2917
G01 X74.4896 Y36.2569
G01 X74.5153 Y36.2272
G01 X74.5491 Y36.1916
G01 X74.5779 Y36.1642
G01 X74.6109 Y36.1356
G01 X74.6457 Y36.1083
G01 X74.6818 Y36.0828
G01 X74.7192 Y36.0589
G01 X74.7574 Y36.0371
G01 X74.8013 Y36.0151
G01 X74.8417 Y35.9973
G01 X74.8830 Y35.9815
G01 X74.9250 Y35.9677
G01 X74.9629 Y35.9573
G01 X75.0059 Y35.9475
G01 X75.0543 Y35.9391
G01 X75.0933 Y35.9343
G01 X75.1374 Y35.9309
G01 X75.1815 Y35.9297
G01 X75.2257 Y35.9306
G01 X75.2698 Y35.9338
G01 X75.3185 Y35.9398
G01 X75.3621 Y35.9475
G01 X75.4051 Y35.9573
G01 X75.4430 Y35.9677
G01 X75.4522 Y35.9706
G01 X76.1584 Y35.2644
G01 X76.1718 Y35.2516
G01 X76.1869 Y35.2385
G01 X76.2030 Y35.2257
G01 X76.2197 Y35.2138
G01 X76.2372 Y35.2027
G01 X76.2548 Y35.1925
G01 X76.2731 Y35.1832
G01 X76.2918 Y35.1748
G01 X76.3109 Y35.1673
G01 X76.3350 Y35.1593
G01 X76.3548 Y35.1539
G01 X76.3749 Y35.1496
G01 X76.3951 Y35.1462
G01 X76.4106 Y35.1443
G01 X76.4310 Y35.1426
G01 X76.4515 Y35.1420
G01 X78.0936 Y35.1420
G01 X78.0938 Y34.3551
G01 X78.0947 Y34.3453
G01 X78.0980 Y34.3309
G01 X78.1033 Y34.3171
G01 X78.1106 Y34.3042
G01 X78.1196 Y34.2926
G01 X78.1303 Y34.2824
G01 X78.1424 Y34.2739
G01 X78.1556 Y34.2673
G01 X78.1649 Y34.2640
G01 X78.1744 Y34.2616
G01 X78.1842 Y34.2601
G01 X78.1940 Y34.2597
G01 X79.7940 Y34.2597
G01 X79.8038 Y34.2601
G01 X79.8136 Y34.2616
G01 X79.8278 Y34.2655
G01 X79.8413 Y34.2715
G01 X79.8498 Y34.2766
G01 X79.8577 Y34.2824
G01 X79.8684 Y34.2926
G01 X79.8746 Y34.3002
G01 X79.8801 Y34.3084
G01 X79.8847 Y34.3171
G01 X79.8885 Y34.3262
G01 X79.8913 Y34.3356
G01 X79.8933 Y34.3453
G01 X79.8944 Y34.3600
G01 X79.8944 Y36.7600
G01 X79.8933 Y36.7747
G01 X79.8913 Y36.7844
G01 X79.8885 Y36.7938
G01 X79.8847 Y36.8029
G01 X79.8801 Y36.8116
G01 X79.8746 Y36.8198
G01 X79.8684 Y36.8274
G01 X79.8577 Y36.8376
G01 X79.8498 Y36.8434
G01 X79.8413 Y36.8485
G01 X79.8278 Y36.8545
G01 X79.8136 Y36.8584
G01 X79.8038 Y36.8599
G01 X79.7940 Y36.8603
G01 X78.1940 Y36.8603
G01 X78.1842 Y36.8599
G01 X78.1696 Y36.8573
G01 X78.1556 Y36.8527
G01 X78.1424 Y36.8461
G01 X78.1303 Y36.8376
G01 X78.1230 Y36.8310
G01 X78.1164 Y36.8237
G01 X78.1079 Y36.8116
G01 X78.1013 Y36.7984
G01 X78.0967 Y36.7844
G01 X78.0941 Y36.7698
G01 X78.0936 Y36.7600
G01 X78.0936 Y35.9780
G01 X76.6271 Y35.9780
G01 X76.0434 Y36.5618
G01 X76.0463 Y36.5710
G01 X76.0579 Y36.6136
G01 X76.0675 Y36.6568
G01 X76.0749 Y36.7003
G01 X76.0802 Y36.7442
G01 X76.0834 Y36.7883
G01 X76.0843 Y36.8275
G01 X76.0834 Y36.8717
G01 X76.0802 Y36.9158
G01 X76.0749 Y36.9597
G01 X76.0665 Y37.0081
G01 X76.0579 Y37.0464
G01 X76.0463 Y37.0890
G01 X76.0325 Y37.1310
G01 X76.0167 Y37.1723
G01 X75.9968 Y37.2172
G01 X75.9769 Y37.2566
G01 X75.9550 Y37.2950
G01 X75.9312 Y37.3322
G01 X75.9057 Y37.3683
G01 X75.8784 Y37.4031
G01 X75.8494 Y37.4364
G01 X75.8189 Y37.4684
G01 X75.7901 Y37.4958
G01 X75.7571 Y37.5244
G01 X75.7223 Y37.5517
G01 X75.6862 Y37.5772
G01 X75.6488 Y37.6011
G01 X75.6106 Y37.6229
G01 X75.6020 Y37.6273
G01 X75.6020 Y39.8319
G01 X77.7238 Y41.9537
G01 X77.7349 Y41.9653
G01 X77.7480 Y41.9804
G01 X77.7637 Y42.0005
G01 X77.7754 Y42.0173
G01 X77.7838 Y42.0307
G01 X77.7963 Y42.0526
G01 X77.8033 Y42.0666
G01 X77.8117 Y42.0853
G01 X77.8209 Y42.1090
G01 X77.8272 Y42.1285
G01 X77.8314 Y42.1435
G01 X77.8369 Y42.1684
G01 X77.8403 Y42.1886
G01 X77.8427 Y42.2090
G01 X77.8441 Y42.2294
G01 X77.8445 Y42.2475
G01 X77.8445 Y49.9069
G01 X79.5896 Y51.6520
G01 X111.2209 Y51.6520
G01 X113.6551 Y49.2178
G01 X113.6439 Y49.1835
G01 X113.6328 Y49.1433
G01 X113.6215 Y49.0930
G01 X113.6136 Y49.0470
G01 X113.6085 Y49.0056
G01 X113.6047 Y48.9542
G01 X113.6036 Y48.9100
G01 X113.6036 Y47.6100
G01 X113.6047 Y47.5658
G01 X113.6080 Y47.5193
G01 X113.6143 Y47.4681
G01 X113.6224 Y47.4222
G01 X113.6316 Y47.3814
G01 X113.6439 Y47.3365
G01 X113.6584 Y47.2922
G01 X113.6770 Y47.2441
G01 X113.6960 Y47.2015
G01 X113.7149 Y47.1639
G01 X113.7401 Y47.1193
G01 X113.7625 Y47.0841
G01 X113.7892 Y47.0459
G01 X113.8210 Y47.0052
G01 X113.8515 Y46.9700
G01 X113.8803 Y46.9398
G01 X113.9176 Y46.9042
G01 X113.9530 Y46.8738
G01 X113.9859 Y46.8482
G01 X114.0281 Y46.8185
G01 X114.0635 Y46.7961
G01 X114.1039 Y46.7731
G01 X114.1499 Y46.7499
G01 X114.1881 Y46.7330
G01 X114.2315 Y46.7161
G01 X114.2805 Y46.6999
G01 X114.3255 Y46.6876
G01 X114.3662 Y46.6784
G01 X114.4170 Y46.6696
G01 X114.4584 Y46.6645
G01 X114.5049 Y46.6609
G01 X114.5565 Y46.6597
G01 X114.6031 Y46.6609
G01 X114.6447 Y46.6640
G01 X114.6959 Y46.6703
G01 X114.7418 Y46.6784
G01 X114.7826 Y46.6876
G01 X114.8275 Y46.6999
G01 X114.8718 Y46.7144
G01 X114.9199 Y46.7330
G01 X114.9625 Y46.7520
G01 X115.0001 Y46.7709
G01 X115.0447 Y46.7961
G01 X115.0840 Y46.8212
G01 X115.1221 Y46.8482
G01 X115.1588 Y46.8770
G01 X115.1904 Y46.9042
G01 X115.2277 Y46.9398
G01 X115.2568 Y46.9703
G01 X115.2870 Y47.0052
G01 X115.3188 Y47.0459
G01 X115.3455 Y47.0841
G01 X115.3679 Y47.1195
G01 X115.3909 Y47.1599
G01 X115.4120 Y47.2015
G01 X115.4329 Y47.2486
G01 X115.4496 Y47.2922
G01 X115.4641 Y47.3365
G01 X115.4752 Y47.3767
G01 X115.4856 Y47.4222
G01 X115.4937 Y47.4681
G01 X115.4995 Y47.5144
G01 X115.5031 Y47.5609
G01 X115.5043 Y47.6075
G01 X115.5043 Y48.9125
G01 X115.5031 Y48.9591
G01 X115.5000 Y49.0007
G01 X115.4944 Y49.0470
G01 X115.4865 Y49.0930
G01 X115.4764 Y49.1386
G01 X115.4627 Y49.1882
G01 X115.4479 Y49.2325
G01 X115.4310 Y49.2759
G01 X115.4120 Y49.3185
G01 X115.3909 Y49.3601
G01 X115.3679 Y49.4007
G01 X115.3428 Y49.4400
G01 X115.3158 Y49.4781
G01 X115.2870 Y49.5148
G01 X115.2565 Y49.5500
G01 X115.2242 Y49.5837
G01 X115.1904 Y49.6158
G01 X115.1550 Y49.6462
G01 X115.1181 Y49.6748
G01 X115.0799 Y49.7015
G01 X115.0447 Y49.7239
G01 X115.0041 Y49.7469
G01 X114.9581 Y49.7701
G01 X114.9154 Y49.7889
G01 X114.8718 Y49.8056
G01 X114.8275 Y49.8201
G01 X114.7825 Y49.8324
G01 X114.7370 Y49.8425
G01 X114.6910 Y49.8504
G01 X114.6447 Y49.8560
G01 X114.5982 Y49.8593
G01 X114.5515 Y49.8603
G01 X114.5049 Y49.8591
G01 X114.4584 Y49.8555
G01 X114.4121 Y49.8497
G01 X114.3662 Y49.8416
G01 X114.3207 Y49.8312
G01 X114.2805 Y49.8201
G01 X114.2462 Y49.8089
G01 X111.6896 Y52.3656
G01 X111.6765 Y52.3780
G01 X111.6573 Y52.3947
G01 X111.6450 Y52.4043
G01 X111.6283 Y52.4162
G01 X111.6068 Y52.4298
G01 X111.5889 Y52.4398
G01 X111.5705 Y52.4489
G01 X111.5562 Y52.4552
G01 X111.5371 Y52.4627
G01 X111.5177 Y52.4693
G01 X111.4979 Y52.4749
G01 X111.4780 Y52.4795
G01 X111.4578 Y52.4831
G01 X111.4325 Y52.4862
G01 X111.4120 Y52.4876
G01 X111.3940 Y52.4880
G01 X79.4165 Y52.4880
G01 X79.3935 Y52.4874
G01 X79.3731 Y52.4857
G01 X79.3527 Y52.4831
G01 X79.3374 Y52.4804
G01 X79.3173 Y52.4760
G01 X79.2928 Y52.4693
G01 X79.2734 Y52.4627
G01 X79.2588 Y52.4571
G01 X79.2400 Y52.4489
G01 X79.2173 Y52.4375
G01 X79.1995 Y52.4272
G01 X79.1863 Y52.4189
G01 X79.1655 Y52.4043
G01 X79.1494 Y52.3915
G01 X79.1376 Y52.3814
G01 X79.1209 Y52.3656
G01 X77.1292 Y50.3738
G01 X77.1181 Y50.3622
G01 X77.1050 Y50.3471
G01 X77.0922 Y50.3310
G01 X77.0803 Y50.3143
G01 X77.0692 Y50.2968
G01 X77.0567 Y50.2749
G01 X77.0476 Y50.2565
G01 X77.0394 Y50.2377
G01 X77.0321 Y50.2185
G01 X77.0258 Y50.1990
G01 X77.0216 Y50.1840
G01 X77.0170 Y50.1640
G01 X77.0134 Y50.1438
G01 X77.0103 Y50.1185
G01 X77.0089 Y50.0981
G01 X77.0085 Y50.0800
G01 X77.0085 Y42.4206
G01 X75.0109 Y40.4230
G01 X70.9440 Y40.4230
G01 X70.9556 Y40.4289
G01 X70.9677 Y40.4374
G01 X70.9784 Y40.4476
G01 X70.9874 Y40.4592
G01 X70.9947 Y40.4721
G01 X71.0000 Y40.4859
G01 X71.0033 Y40.5003
G01 X71.0044 Y40.5150
G01 X71.0044 Y42.1150
G01 X71.0033 Y42.1297
G01 X71.0013 Y42.1394
G01 X70.9985 Y42.1488
G01 X70.9947 Y42.1579
G01 X70.9901 Y42.1666
G01 X70.9846 Y42.1748
G01 X70.9784 Y42.1824
G01 X70.9677 Y42.1926
G01 X70.9598 Y42.1984
G01 X70.9513 Y42.2035
G01 X70.9424 Y42.2077
G01 X70.9331 Y42.2110
G01 X70.9236 Y42.2134
G01 X70.9138 Y42.2149
G01 X70.9040 Y42.2154
G01 X69.3040 Y42.2154
G01 X69.2942 Y42.2149
G01 X69.2796 Y42.2123
G01 X69.2656 Y42.2077
G01 X69.2567 Y42.2035
G01 X69.2482 Y42.1984
G01 X69.2403 Y42.1926
G01 X69.2330 Y42.1860
G01 X69.2234 Y42.1748
G01 X69.2179 Y42.1666
G01 X69.2133 Y42.1579
G01 X69.2080 Y42.1441
G01 X69.2047 Y42.1297
G01 X69.2036 Y42.1150
G01 X69.2038 Y40.5101
G01 X69.2056 Y40.4954
G01 X69.2095 Y40.4812
G01 X69.2155 Y40.4677
G01 X69.2206 Y40.4592
G01 X69.2296 Y40.4476
G01 X69.2403 Y40.4374
G01 X69.2524 Y40.4289
G01 X69.2640 Y40.4230
G01 X65.6590 Y40.4230
G01 X65.6360 Y40.4224
G01 X65.6156 Y40.4207
G01 X65.5952 Y40.4181
G01 X65.5799 Y40.4154
G01 X65.5598 Y40.4110
G01 X65.5353 Y40.4043
G01 X65.5159 Y40.3977
G01 X65.4968 Y40.3902
G01 X65.4781 Y40.3818
G01 X65.4639 Y40.3746
G01 X65.4462 Y40.3648
G01 X65.4288 Y40.3539
G01 X65.4120 Y40.3422
G01 X65.3919 Y40.3265
G01 X65.3765 Y40.3130
G01 X65.3634 Y40.3006
G01 X62.1884 Y37.1256
G01 X62.1726 Y37.1089
G01 X62.1593 Y37.0933
G01 X62.1497 Y37.0810
G01 X62.1378 Y37.0643
G01 X62.1267 Y37.0468
G01 X62.1142 Y37.0249
G01 X62.1051 Y37.0065
G01 X62.0988 Y36.9922
G01 X62.0913 Y36.9731
G01 X62.0847 Y36.9537
G00 Z2.0000
G00 X49.7236 Y32.2643
G01 F80.00
G01 Z-0.1866
G01 F80.00
G01 X49.7914 Y32.1964
G01 X49.7914 Y32.3197
G01 X49.7763 Y32.3055
G01 X49.7576 Y32.2895
G01 X49.7421 Y32.2774
G01 X49.7236 Y32.2643
G00 Z2.0000
G00 X48.8876 Y35.5674
G01 F80.00
G01 Z-0.1866
G01 F80.00
G01 X48.8877 Y33.1786
G01 X49.0085 Y33.1786
G01 X48.9964 Y33.2102
G01 X48.9819 Y33.2545
G01 X48.9696 Y33.2994
G01 X48.9595 Y33.3450
G01 X48.9516 Y33.3910
G01 X48.9460 Y33.4373
G01 X48.9427 Y33.4838
G01 X48.9417 Y33.5305
G01 X48.9429 Y33.5771
G01 X48.9465 Y33.6236
G01 X48.9523 Y33.6699
G01 X48.9604 Y33.7158
G01 X48.9696 Y33.7565
G01 X48.9819 Y33.8015
G01 X48.9964 Y33.8458
G01 X49.0131 Y33.8894
G01 X49.0340 Y33.9365
G01 X49.0527 Y33.9738
G01 X49.0756 Y34.0144
G01 X49.1032 Y34.0580
G01 X49.1302 Y34.0961
G01 X49.1558 Y34.1290
G01 X49.1862 Y34.1644
G01 X49.2218 Y34.2017
G01 X49.2556 Y34.2338
G01 X49.2872 Y34.2610
G01 X49.3239 Y34.2898
G01 X49.3661 Y34.3195
G01 X49.4056 Y34.3444
G01 X49.4459 Y34.3671
G01 X49.4835 Y34.3860
G01 X49.5306 Y34.4069
G01 X49.5695 Y34.4219
G01 X49.6138 Y34.4367
G01 X49.6587 Y34.4492
G01 X49.7090 Y34.4605
G01 X49.7501 Y34.4677
G01 X49.7914 Y34.4729
G01 X49.7914 Y35.1177
G01 X49.1920 Y35.1177
G01 X49.1822 Y35.1181
G01 X49.1676 Y35.1207
G01 X49.1582 Y35.1235
G01 X49.1491 Y35.1273
G01 X49.1404 Y35.1319
G01 X49.1283 Y35.1404
G01 X49.1176 Y35.1506
G01 X49.1114 Y35.1582
G01 X49.1059 Y35.1664
G01 X49.0993 Y35.1796
G01 X49.0947 Y35.1936
G01 X49.0927 Y35.2033
G01 X49.0916 Y35.2180
G01 X49.0916 Y35.5674
G01 X48.8876 Y35.5674
G00 Z2.0000
G00 X38.5478 Y39.4338
G01 F80.00
G01 Z-0.1866
G01 F80.00
G01 X38.5515 Y39.3824
G01 X38.5573 Y39.3361
G01 X38.5645 Y39.2950
G01 X38.5758 Y39.2447
G01 X38.5883 Y39.1998
G01 X38.6014 Y39.1602
G01 X38.6200 Y39.1121
G01 X38.6390 Y39.0695
G01 X38.6579 Y39.0319
G01 X38.6831 Y38.9873
G01 X38.7055 Y38.9521
G01 X38.7322 Y38.9139
G01 X38.7640 Y38.8732
G01 X38.7945 Y38.8380
G01 X38.8233 Y38.8078
G01 X38.8606 Y38.7722
G01 X38.8960 Y38.7418
G01 X38.9289 Y38.7162
G01 X38.9711 Y38.6865
G01 X39.0065 Y38.6641
G01 X39.0469 Y38.6411
G01 X39.0885 Y38.6200
G01 X39.1311 Y38.6010
G01 X39.1792 Y38.5824
G01 X39.2235 Y38.5679
G01 X39.2637 Y38.5568
G01 X39.3140 Y38.5455
G01 X39.3600 Y38.5376
G01 X39.4014 Y38.5325
G01 X39.4528 Y38.5287
G01 X39.4945 Y38.5277
G01 X39.5412 Y38.5287
G01 X39.5926 Y38.5325
G01 X39.6389 Y38.5383
G01 X39.6800 Y38.5455
G01 X39.7303 Y38.5568
G01 X39.7752 Y38.5693
G01 X39.8148 Y38.5824
G01 X39.8629 Y38.6010
G01 X39.9055 Y38.6200
G01 X39.9431 Y38.6389
G01 X39.9877 Y38.6641
G01 X40.0270 Y38.6892
G01 X40.0651 Y38.7162
G01 X40.1018 Y38.7450
G01 X40.1334 Y38.7722
G01 X40.1707 Y38.8078
G01 X40.1998 Y38.8383
G01 X40.2300 Y38.8732
G01 X40.2618 Y38.9139
G01 X40.2885 Y38.9521
G01 X40.3109 Y38.9873
G01 X40.3339 Y39.0279
G01 X40.3571 Y39.0739
G01 X40.3740 Y39.1121
G01 X40.3909 Y39.1555
G01 X40.4071 Y39.2045
G01 X40.4194 Y39.2495
G01 X40.4286 Y39.2902
G01 X40.4367 Y39.3361
G01 X40.4430 Y39.3873
G01 X40.4463 Y39.4338
G01 X40.4473 Y39.4780
G01 X40.4473 Y40.2780
G01 X40.4461 Y40.3271
G01 X40.4425 Y40.3736
G01 X40.4374 Y40.4150
G01 X40.4286 Y40.4658
G01 X40.4194 Y40.5066
G01 X40.4071 Y40.5515
G01 X40.3926 Y40.5958
G01 X40.3759 Y40.6394
G01 X40.3550 Y40.6865
G01 X40.3361 Y40.7241
G01 X40.3134 Y40.7644
G01 X40.2885 Y40.8039
G01 X40.2588 Y40.8461
G01 X40.2300 Y40.8828
G01 X40.2028 Y40.9144
G01 X40.1707 Y40.9482
G01 X40.1334 Y40.9838
G01 X40.0980 Y41.0142
G01 X40.0651 Y41.0398
G01 X40.0270 Y41.0668
G01 X39.9834 Y41.0944
G01 X39.9471 Y41.1149
G01 X39.9150 Y41.1313
G01 X39.9150 Y43.4492
G01 X39.9588 Y43.4395
G01 X40.0023 Y43.4321
G01 X40.0413 Y43.4273
G01 X40.0903 Y43.4236
G01 X40.1345 Y43.4227
G01 X40.1786 Y43.4239
G01 X40.2178 Y43.4268
G01 X40.2665 Y43.4328
G01 X40.3101 Y43.4405
G01 X40.3484 Y43.4491
G01 X40.3910 Y43.4607
G01 X40.4376 Y43.4761
G01 X40.4788 Y43.4922
G01 X40.5192 Y43.5102
G01 X40.5545 Y43.5280
G01 X40.5927 Y43.5495
G01 X40.6302 Y43.5731
G01 X40.6703 Y43.6013
G01 X40.7051 Y43.6286
G01 X40.7348 Y43.6543
G01 X40.7704 Y43.6881
G01 X40.7978 Y43.7169
G01 X40.8264 Y43.7499
G01 X40.8537 Y43.7847
G01 X40.8820 Y43.8249
G01 X40.9031 Y43.8582
G01 X40.9249 Y43.8964
G01 X40.9469 Y43.9403
G01 X40.9647 Y43.9807
G01 X40.9805 Y44.0220
G01 X40.9928 Y44.0593
G01 X41.0059 Y44.1066
G01 X41.0145 Y44.1449
G01 X41.0222 Y44.1885
G01 X41.0282 Y44.2372
G01 X41.0314 Y44.2813
G01 X41.0323 Y44.3205
G01 X41.0314 Y44.3647
G01 X41.0277 Y44.4137
G01 X41.0222 Y44.4575
G01 X41.0155 Y44.4962
G01 X41.0047 Y44.5441
G01 X40.9943 Y44.5820
G01 X40.9914 Y44.5912
G01 X43.3531 Y46.9530
G01 X44.4500 Y46.9530
G01 X44.4680 Y46.9534
G01 X44.4885 Y46.9548
G01 X44.5089 Y46.9572
G01 X44.5291 Y46.9606
G01 X44.5492 Y46.9650
G01 X44.5737 Y46.9717
G01 X44.5931 Y46.9783
G01 X44.6122 Y46.9858
G01 X44.6309 Y46.9942
G01 X44.6451 Y47.0014
G01 X44.6628 Y47.0112
G01 X44.6843 Y47.0248
G01 X44.7010 Y47.0367
G01 X44.7171 Y47.0495
G01 X44.7325 Y47.0630
G01 X44.7438 Y47.0737
G01 X45.8716 Y48.2015
G01 X48.0240 Y46.0491
G01 X48.0240 Y45.8258
G01 X47.9738 Y45.8037
G01 X47.9211 Y45.7772
G01 X47.8742 Y45.7505
G01 X47.8327 Y45.7242
G01 X47.7885 Y45.6933
G01 X47.7421 Y45.6570
G01 X47.7012 Y45.6216
G01 X47.6657 Y45.5878
G01 X47.6284 Y45.5488
G01 X47.5930 Y45.5079
G01 X47.5597 Y45.4654
G01 X47.5257 Y45.4173
G01 X47.4970 Y45.3716
G01 X47.4704 Y45.3245
G01 X47.4484 Y45.2807
G01 X47.4264 Y45.2313
G01 X47.4052 Y45.1764
G01 X47.3883 Y45.1250
G01 X47.3741 Y45.0730
G01 X47.3633 Y45.0251
G01 X47.3540 Y44.9719
G01 X47.3472 Y44.9183
G01 X47.3431 Y44.8644
G01 X47.3417 Y44.8055
G01 X47.3431 Y44.7516
G01 X47.3467 Y44.7026
G01 X47.3532 Y44.6490
G01 X47.3623 Y44.5958
G01 X47.3741 Y44.5430
G01 X47.3898 Y44.4862
G01 X47.4068 Y44.4350
G01 X47.4264 Y44.3847
G01 X47.4484 Y44.3353
G01 X47.4704 Y44.2915
G01 X47.4970 Y44.2444
G01 X47.5258 Y44.1987
G01 X47.5597 Y44.1506
G01 X47.5930 Y44.1081
G01 X47.6284 Y44.0672
G01 X47.6622 Y44.0317
G01 X47.7012 Y43.9944
G01 X47.7421 Y43.9590
G01 X47.7846 Y43.9257
G01 X47.8286 Y43.8945
G01 X47.8744 Y43.8654
G01 X47.9255 Y43.8364
G01 X47.9738 Y43.8123
G01 X48.0232 Y43.7905
G01 X48.0736 Y43.7712
G01 X48.1250 Y43.7543
G01 X48.1770 Y43.7401
G01 X48.2249 Y43.7293
G01 X48.2781 Y43.7200
G01 X48.3317 Y43.7132
G01 X48.3856 Y43.7091
G01 X48.4395 Y43.7077
G01 X48.4984 Y43.7091
G01 X48.5523 Y43.7132
G01 X48.6059 Y43.7200
G01 X48.6591 Y43.7293
G01 X48.7117 Y43.7413
G01 X48.7638 Y43.7558
G01 X48.8150 Y43.7728
G01 X48.8608 Y43.7905
G01 X48.9102 Y43.8123
G01 X48.9588 Y43.8366
G01 X49.0056 Y43.8630
G01 X49.0513 Y43.8918
G01 X49.0994 Y43.9257
G01 X49.1419 Y43.9590
G01 X49.1828 Y43.9944
G01 X49.2183 Y44.0282
G01 X49.2556 Y44.0672
G01 X49.2910 Y44.1081
G01 X49.3243 Y44.1506
G01 X49.3583 Y44.1987
G01 X49.3870 Y44.2444
G01 X49.4136 Y44.2915
G01 X49.4377 Y44.3398
G01 X49.4595 Y44.3892
G01 X49.4788 Y44.4396
G01 X49.4942 Y44.4862
G01 X49.5087 Y44.5383
G01 X49.5217 Y44.5958
G01 X49.5308 Y44.6490
G01 X49.5373 Y44.7026
G01 X49.5411 Y44.7565
G01 X49.5423 Y44.8055
G01 X49.5409 Y44.8644
G01 X49.5368 Y44.9183
G01 X49.5300 Y44.9719
G01 X49.5207 Y45.0251
G01 X49.5099 Y45.0730
G01 X49.4957 Y45.1250
G01 X49.4788 Y45.1764
G01 X49.4595 Y45.2268
G01 X49.4356 Y45.2807
G01 X49.4134 Y45.3248
G01 X49.3870 Y45.3716
G01 X49.3582 Y45.4173
G01 X49.3243 Y45.4654
G01 X49.2910 Y45.5079
G01 X49.2556 Y45.5488
G01 X49.2218 Y45.5843
G01 X49.1828 Y45.6216
G01 X49.1419 Y45.6570
G01 X49.0955 Y45.6933
G01 X49.0513 Y45.7243
G01 X49.0096 Y45.7506
G01 X48.9629 Y45.7772
G01 X48.9102 Y45.8037
G01 X48.8600 Y45.8258
G01 X48.8600 Y46.2222
G01 X48.8594 Y46.2452
G01 X48.8577 Y46.2656
G01 X48.8551 Y46.2860
G01 X48.8515 Y46.3062
G01 X48.8480 Y46.3214
G01 X48.8427 Y46.3412
G01 X48.8364 Y46.3607
G01 X48.8291 Y46.3799
G01 X48.8209 Y46.3987
G01 X48.8116 Y46.4174
G01 X48.7992 Y46.4392
G01 X48.7882 Y46.4565
G01 X48.7763 Y46.4732
G01 X48.7667 Y46.4855
G01 X48.7534 Y46.5011
G01 X48.7376 Y46.5178
G01 X46.4628 Y48.7926
G01 X47.9798 Y50.3096
G01 X48.0232 Y50.2905
G01 X48.0736 Y50.2712
G01 X48.1250 Y50.2543
G01 X48.1723 Y50.2413
G01 X48.2249 Y50.2293
G01 X48.2781 Y50.2200
G01 X48.3366 Y50.2127
G01 X48.3905 Y50.2089
G01 X48.4395 Y50.2077
G01 X48.4935 Y50.2089
G01 X48.5474 Y50.2127
G01 X48.6059 Y50.2200
G01 X48.6591 Y50.2293
G01 X48.7070 Y50.2401
G01 X48.7590 Y50.2543
G01 X48.8104 Y50.2712
G01 X48.8653 Y50.2924
G01 X48.9147 Y50.3144
G01 X48.9588 Y50.3366
G01 X49.0056 Y50.3630
G01 X49.0513 Y50.3917
G01 X49.0994 Y50.4257
G01 X49.1419 Y50.4590
G01 X49.1791 Y50.4911
G01 X49.2183 Y50.5282
G01 X49.2556 Y50.5672
G01 X49.2941 Y50.6119
G01 X49.3273 Y50.6545
G01 X49.3583 Y50.6987
G01 X49.3870 Y50.7444
G01 X49.4136 Y50.7915
G01 X49.4377 Y50.8398
G01 X49.4595 Y50.8892
G01 X49.4788 Y50.9396
G01 X49.4957 Y50.9910
G01 X49.5099 Y51.0430
G01 X49.5217 Y51.0958
G01 X49.5308 Y51.1490
G01 X49.5373 Y51.2026
G01 X49.5411 Y51.2565
G01 X49.5423 Y51.3105
G01 X49.5409 Y51.3644
G01 X49.5368 Y51.4183
G01 X49.5300 Y51.4719
G01 X49.5207 Y51.5251
G01 X49.5087 Y51.5777
G01 X49.4942 Y51.6298
G01 X49.4772 Y51.6810
G01 X49.4576 Y51.7313
G01 X49.4356 Y51.7807
G01 X49.4134 Y51.8248
G01 X49.3870 Y51.8716
G01 X49.3582 Y51.9173
G01 X49.3273 Y51.9615
G01 X49.2941 Y52.0041
G01 X49.2589 Y52.0451
G01 X49.2218 Y52.0843
G01 X49.1824 Y52.1219
G01 X49.1419 Y52.1570
G01 X49.0994 Y52.1903
G01 X49.0554 Y52.2215
G01 X49.0056 Y52.2530
G01 X48.9585 Y52.2796
G01 X48.9102 Y52.3037
G01 X48.8653 Y52.3236
G01 X48.8150 Y52.3432
G01 X48.7590 Y52.3617
G01 X48.7070 Y52.3759
G01 X48.6542 Y52.3877
G01 X48.6010 Y52.3968
G01 X48.5523 Y52.4028
G01 X48.4984 Y52.4069
G01 X48.4445 Y52.4083
G01 X48.3905 Y52.4071
G01 X48.3366 Y52.4033
G01 X48.2781 Y52.3960
G01 X48.2249 Y52.3867
G01 X48.1770 Y52.3759
G01 X48.1202 Y52.3602
G01 X48.0690 Y52.3432
G01 X48.0187 Y52.3236
G01 X47.9693 Y52.3016
G01 X47.9252 Y52.2794
G01 X47.8784 Y52.2530
G01 X47.8327 Y52.2242
G01 X47.7846 Y52.1903
G01 X47.7421 Y52.1570
G01 X47.7049 Y52.1249
G01 X47.6622 Y52.0843
G01 X47.6281 Y52.0484
G01 X47.5930 Y52.0079
G01 X47.5597 Y51.9654
G01 X47.5285 Y51.9214
G01 X47.4970 Y51.8716
G01 X47.4704 Y51.8245
G01 X47.4484 Y51.7807
G01 X47.4245 Y51.7268
G01 X47.4052 Y51.6764
G01 X47.3883 Y51.6250
G01 X47.3741 Y51.5730
G01 X47.3623 Y51.5202
G01 X47.3532 Y51.4670
G01 X47.3472 Y51.4183
G01 X47.3429 Y51.3595
G01 X47.3417 Y51.3105
G01 X47.3429 Y51.2565
G01 X47.3472 Y51.1977
G01 X47.3540 Y51.1441
G01 X47.3633 Y51.0909
G01 X47.3741 Y51.0430
G01 X47.3883 Y50.9910
G01 X47.4052 Y50.9396
G01 X47.4113 Y50.9234
G01 X44.2769 Y47.7890
G01 X43.1800 Y47.7890
G01 X43.1620 Y47.7886
G01 X43.1415 Y47.7872
G01 X43.1162 Y47.7841
G01 X43.0960 Y47.7805
G01 X43.0808 Y47.7770
G01 X43.0610 Y47.7717
G01 X43.0369 Y47.7637
G01 X43.0178 Y47.7562
G01 X42.9991 Y47.7478
G01 X42.9849 Y47.7406
G01 X42.9672 Y47.7308
G01 X42.9498 Y47.7199
G01 X42.9290 Y47.7053
G01 X42.9129 Y47.6925
G01 X42.9011 Y47.6824
G01 X42.8844 Y47.6666
G01 X40.4002 Y45.1824
G01 X40.3910 Y45.1853
G01 X40.3484 Y45.1969
G01 X40.3101 Y45.2055
G01 X40.2665 Y45.2132
G01 X40.2178 Y45.2192
G01 X40.1737 Y45.2224
G01 X40.1345 Y45.2233
G01 X40.0854 Y45.2221
G01 X40.0413 Y45.2187
G01 X40.0023 Y45.2139
G01 X39.9539 Y45.2055
G01 X39.9156 Y45.1969
G01 X39.8730 Y45.1853
G01 X39.8264 Y45.1699
G01 X39.7852 Y45.1538
G01 X39.7493 Y45.1379
G01 X39.7054 Y45.1159
G01 X39.6670 Y45.0940
G01 X39.6338 Y45.0729
G01 X39.5937 Y45.0447
G01 X39.5589 Y45.0174
G01 X39.5292 Y44.9917
G01 X39.4936 Y44.9579
G01 X39.4662 Y44.9291
G01 X39.4376 Y44.8961
G01 X39.4103 Y44.8613
G01 X39.3820 Y44.8211
G01 X39.3609 Y44.7878
G01 X39.3391 Y44.7496
G01 X39.3171 Y44.7057
G01 X39.2993 Y44.6653
G01 X39.2835 Y44.6240
G01 X39.2712 Y44.5867
G01 X39.2593 Y44.5441
G01 X39.2485 Y44.4962
G01 X39.2411 Y44.4527
G01 X39.2363 Y44.4137
G01 X39.2329 Y44.3696
G01 X39.2317 Y44.3255
G01 X39.2329 Y44.2764
G01 X39.2363 Y44.2323
G01 X39.2411 Y44.1933
G01 X39.2485 Y44.1498
G01 X39.2593 Y44.1019
G01 X39.2697 Y44.0640
G01 X39.2726 Y44.0548
G01 X39.2014 Y43.9836
G01 X39.1856 Y43.9669
G01 X39.1723 Y43.9513
G01 X39.1598 Y43.9350
G01 X39.1481 Y43.9182
G01 X39.1372 Y43.9008
G01 X39.1272 Y43.8829
G01 X39.1202 Y43.8689
G01 X39.1118 Y43.8502
G01 X39.1043 Y43.8311
G01 X39.0977 Y43.8117
G01 X39.0921 Y43.7919
G01 X39.0875 Y43.7720
G01 X39.0832 Y43.7469
G01 X39.0808 Y43.7265
G01 X39.0794 Y43.7060
G01 X39.0790 Y43.6880
G01 X39.0790 Y41.1313
G01 X39.0469 Y41.1149
G01 X39.0106 Y41.0944
G01 X38.9711 Y41.0695
G01 X38.9329 Y41.0428
G01 X38.8960 Y41.0142
G01 X38.8606 Y40.9838
G01 X38.8268 Y40.9517
G01 X38.7942 Y40.9177
G01 X38.7640 Y40.8828
G01 X38.7352 Y40.8461
G01 X38.7082 Y40.8080
G01 X38.6831 Y40.7685
G01 X38.6601 Y40.7281
G01 X38.6390 Y40.6865
G01 X38.6200 Y40.6439
G01 X38.6031 Y40.6005
G01 X38.5883 Y40.5562
G01 X38.5758 Y40.5113
G01 X38.5645 Y40.4610
G01 X38.5566 Y40.4150
G01 X38.5515 Y40.3736
G01 X38.5477 Y40.3222
G01 X38.5466 Y40.2780
G01 X38.5466 Y39.4780
G01 X38.5478 Y39.4338
G00 Z2.0000
G00 X30.1429 Y44.7565
G01 F80.00
G01 Z-0.1866
G01 F80.00
G01 X30.1467 Y44.7026
G01 X30.1532 Y44.6490
G01 X30.1623 Y44.5958
G01 X30.1741 Y44.5430
G01 X30.1883 Y44.4910
G01 X30.2052 Y44.4396
G01 X30.2245 Y44.3892
G01 X30.2463 Y44.3398
G01 X30.2706 Y44.2912
G01 X30.2970 Y44.2444
G01 X30.3258 Y44.1987
G01 X30.3567 Y44.1545
G01 X30.3899 Y44.1119
G01 X30.4251 Y44.0709
G01 X30.4622 Y44.0317
G01 X30.5016 Y43.9941
G01 X30.5421 Y43.9590
G01 X30.5846 Y43.9257
G01 X30.6286 Y43.8945
G01 X30.6744 Y43.8654
G01 X30.7211 Y43.8388
G01 X30.7693 Y43.8144
G01 X30.8187 Y43.7924
G01 X30.8690 Y43.7728
G01 X30.9202 Y43.7558
G01 X30.9723 Y43.7413
G01 X31.0249 Y43.7293
G01 X31.0781 Y43.7200
G01 X31.1317 Y43.7132
G01 X31.1856 Y43.7091
G01 X31.2395 Y43.7077
G01 X31.2935 Y43.7089
G01 X31.3474 Y43.7127
G01 X31.4010 Y43.7192
G01 X31.4542 Y43.7283
G01 X31.5070 Y43.7401
G01 X31.5590 Y43.7543
G01 X31.6104 Y43.7712
G01 X31.6608 Y43.7905
G01 X31.7102 Y43.8123
G01 X31.7588 Y43.8366
G01 X31.8056 Y43.8630
G01 X31.8513 Y43.8918
G01 X31.8955 Y43.9227
G01 X31.9381 Y43.9559
G01 X31.9791 Y43.9911
G01 X32.0183 Y44.0282
G01 X32.0559 Y44.0676
G01 X32.0910 Y44.1081
G01 X32.1243 Y44.1506
G01 X32.1555 Y44.1946
G01 X32.1846 Y44.2404
G01 X32.2112 Y44.2871
G01 X32.2356 Y44.3353
G01 X32.2576 Y44.3847
G01 X32.2772 Y44.4350
G01 X32.2942 Y44.4862
G01 X32.3087 Y44.5383
G01 X32.3207 Y44.5909
G01 X32.3300 Y44.6441
G01 X32.3368 Y44.6977
G01 X32.3409 Y44.7516
G01 X32.3423 Y44.8055
G01 X32.3411 Y44.8595
G01 X32.3373 Y44.9134
G01 X32.3308 Y44.9670
G01 X32.3217 Y45.0202
G01 X32.3099 Y45.0730
G01 X32.2957 Y45.1250
G01 X32.2788 Y45.1764
G01 X32.2595 Y45.2268
G01 X32.2377 Y45.2762
G01 X32.2134 Y45.3248
G01 X32.1870 Y45.3716
G01 X32.1582 Y45.4173
G01 X32.1273 Y45.4615
G01 X32.0941 Y45.5041
G01 X32.0589 Y45.5451
G01 X32.0218 Y45.5843
G01 X31.9824 Y45.6219
G01 X31.9419 Y45.6570
G01 X31.8994 Y45.6903
G01 X31.8554 Y45.7215
G01 X31.8096 Y45.7506
G01 X31.7629 Y45.7772
G01 X31.7147 Y45.8016
G01 X31.6653 Y45.8236
G01 X31.6150 Y45.8432
G01 X31.5638 Y45.8602
G01 X31.5117 Y45.8747
G01 X31.4591 Y45.8867
G01 X31.4059 Y45.8960
G01 X31.3523 Y45.9028
G01 X31.2984 Y45.9069
G01 X31.2445 Y45.9083
G01 X31.1905 Y45.9071
G01 X31.1366 Y45.9033
G01 X31.0830 Y45.8968
G01 X31.0298 Y45.8877
G01 X30.9770 Y45.8759
G01 X30.9250 Y45.8617
G01 X30.8736 Y45.8448
G01 X30.8232 Y45.8255
G01 X30.7738 Y45.8037
G01 X30.7252 Y45.7794
G01 X30.6784 Y45.7530
G01 X30.6327 Y45.7242
G01 X30.5885 Y45.6933
G01 X30.5459 Y45.6601
G01 X30.5049 Y45.6249
G01 X30.4657 Y45.5878
G01 X30.4281 Y45.5484
G01 X30.3930 Y45.5079
G01 X30.3597 Y45.4654
G01 X30.3285 Y45.4214
G01 X30.2994 Y45.3756
G01 X30.2728 Y45.3289
G01 X30.2484 Y45.2807
G01 X30.2264 Y45.2313
G01 X30.2068 Y45.1810
G01 X30.1898 Y45.1298
G01 X30.1753 Y45.0777
G01 X30.1633 Y45.0251
G01 X30.1540 Y44.9719
G01 X30.1472 Y44.9183
G01 X30.1431 Y44.8644
G01 X30.1417 Y44.8105
G01 X30.1429 Y44.7565
G00 Z2.0000
G00 X26.5327 Y44.2813
G01 F80.00
G01 Z-0.1866
G01 F80.00
G01 X26.5358 Y44.2372
G01 X26.5418 Y44.1885
G01 X26.5495 Y44.1449
G01 X26.5581 Y44.1066
G01 X26.5712 Y44.0593
G01 X26.5851 Y44.0174
G01 X26.5993 Y43.9807
G01 X26.6192 Y43.9358
G01 X26.6370 Y43.9005
G01 X26.6585 Y43.8623
G01 X26.6848 Y43.8208
G01 X26.7103 Y43.7847
G01 X26.7376 Y43.7499
G01 X26.7633 Y43.7202
G01 X26.7971 Y43.6846
G01 X26.8259 Y43.6572
G01 X26.8589 Y43.6286
G01 X26.8977 Y43.5984
G01 X26.9339 Y43.5730
G01 X26.9672 Y43.5519
G01 X27.0098 Y43.5278
G01 X27.0448 Y43.5102
G01 X27.0852 Y43.4922
G01 X27.1264 Y43.4761
G01 X27.1730 Y43.4607
G01 X27.2156 Y43.4491
G01 X27.2539 Y43.4405
G01 X27.3023 Y43.4321
G01 X27.3413 Y43.4273
G01 X27.3854 Y43.4239
G01 X27.4345 Y43.4227
G01 X27.4786 Y43.4239
G01 X27.5178 Y43.4268
G01 X27.5665 Y43.4328
G01 X27.6101 Y43.4405
G01 X27.6484 Y43.4491
G01 X27.6910 Y43.4607
G01 X27.7376 Y43.4761
G01 X27.7788 Y43.4922
G01 X27.8147 Y43.5081
G01 X27.8586 Y43.5301
G01 X27.8970 Y43.5520
G01 X27.9302 Y43.5731
G01 X27.9703 Y43.6013
G01 X28.0051 Y43.6286
G01 X28.0348 Y43.6543
G01 X28.0669 Y43.6846
G01 X28.0978 Y43.7169
G01 X28.1295 Y43.7537
G01 X28.1566 Y43.7887
G01 X28.1820 Y43.8249
G01 X28.2031 Y43.8582
G01 X28.2249 Y43.8964
G01 X28.2469 Y43.9403
G01 X28.2647 Y43.9807
G01 X28.2805 Y44.0220
G01 X28.2943 Y44.0640
G01 X28.3047 Y44.1019
G01 X28.3145 Y44.1449
G01 X28.3229 Y44.1933
G01 X28.3277 Y44.2323
G01 X28.3311 Y44.2764
G01 X28.3323 Y44.3205
G01 X28.3311 Y44.3696
G01 X28.3277 Y44.4137
G01 X28.3222 Y44.4575
G01 X28.3155 Y44.4962
G01 X28.3059 Y44.5394
G01 X28.2928 Y44.5867
G01 X28.2789 Y44.6286
G01 X28.2628 Y44.6698
G01 X28.2469 Y44.7057
G01 X28.2270 Y44.7455
G01 X28.2030 Y44.7880
G01 X28.1792 Y44.8252
G01 X28.1537 Y44.8613
G01 X28.1264 Y44.8961
G01 X28.1007 Y44.9258
G01 X28.0704 Y44.9579
G01 X28.0348 Y44.9917
G01 X28.0013 Y45.0205
G01 X27.9703 Y45.0447
G01 X27.9342 Y45.0702
G01 X27.8927 Y45.0965
G01 X27.8586 Y45.1159
G01 X27.8500 Y45.1203
G01 X27.8500 Y45.3183
G01 X28.9767 Y46.4450
G01 X33.5139 Y46.4450
G01 X34.7267 Y45.2321
G01 X34.7052 Y45.1764
G01 X34.6883 Y45.1250
G01 X34.6753 Y45.0777
G01 X34.6623 Y45.0202
G01 X34.6532 Y44.9670
G01 X34.6472 Y44.9183
G01 X34.6429 Y44.8595
G01 X34.6417 Y44.8105
G01 X34.6429 Y44.7565
G01 X34.6472 Y44.6977
G01 X34.6540 Y44.6441
G01 X34.6623 Y44.5958
G01 X34.6753 Y44.5383
G01 X34.6898 Y44.4862
G01 X34.7052 Y44.4396
G01 X34.7264 Y44.3847
G01 X34.7484 Y44.3353
G01 X34.7706 Y44.2912
G01 X34.7995 Y44.2402
G01 X34.8258 Y44.1987
G01 X34.8567 Y44.1545
G01 X34.8930 Y44.1081
G01 X34.9284 Y44.0672
G01 X34.9622 Y44.0317
G01 X35.0049 Y43.9911
G01 X35.0459 Y43.9559
G01 X35.0846 Y43.9257
G01 X35.1327 Y43.8917
G01 X35.1744 Y43.8654
G01 X35.2211 Y43.8388
G01 X35.2738 Y43.8123
G01 X35.3187 Y43.7924
G01 X35.3690 Y43.7728
G01 X35.4250 Y43.7543
G01 X35.4770 Y43.7401
G01 X35.5298 Y43.7283
G01 X35.5830 Y43.7192
G01 X35.6317 Y43.7132
G01 X35.6905 Y43.7089
G01 X35.7395 Y43.7077
G01 X35.7935 Y43.7089
G01 X35.8523 Y43.7132
G01 X35.9059 Y43.7200
G01 X35.9542 Y43.7283
G01 X36.0117 Y43.7413
G01 X36.0638 Y43.7558
G01 X36.1104 Y43.7712
G01 X36.1661 Y43.7927
G01 X36.5390 Y43.4199
G01 X36.5390 Y41.0784
G01 X36.1070 Y41.0784
G01 X36.0923 Y41.0773
G01 X36.0826 Y41.0753
G01 X36.0732 Y41.0725
G01 X36.0597 Y41.0665
G01 X36.0472 Y41.0586
G01 X36.0360 Y41.0490
G01 X36.0264 Y41.0378
G01 X36.0209 Y41.0296
G01 X36.0163 Y41.0209
G01 X36.0110 Y41.0071
G01 X36.0086 Y40.9976
G01 X36.0071 Y40.9878
G01 X36.0066 Y40.9780
G01 X36.0066 Y38.7780
G01 X36.0077 Y38.7633
G01 X36.0110 Y38.7489
G01 X36.0163 Y38.7351
G01 X36.0209 Y38.7264
G01 X36.0264 Y38.7182
G01 X36.0360 Y38.7070
G01 X36.0433 Y38.7004
G01 X36.0554 Y38.6919
G01 X36.0641 Y38.6873
G01 X36.0779 Y38.6820
G01 X36.0923 Y38.6787
G01 X36.1021 Y38.6778
G01 X37.8070 Y38.6776
G01 X37.8217 Y38.6787
G01 X37.8361 Y38.6820
G01 X37.8499 Y38.6873
G01 X37.8628 Y38.6946
G01 X37.8744 Y38.7036
G01 X37.8846 Y38.7143
G01 X37.8904 Y38.7222
G01 X37.8977 Y38.7351
G01 X37.9015 Y38.7442
G01 X37.9043 Y38.7536
G01 X37.9063 Y38.7633
G01 X37.9074 Y38.7780
G01 X37.9074 Y40.9780
G01 X37.9069 Y40.9878
G01 X37.9054 Y40.9976
G01 X37.9015 Y41.0118
G01 X37.8955 Y41.0253
G01 X37.8876 Y41.0378
G01 X37.8780 Y41.0490
G01 X37.8668 Y41.0586
G01 X37.8543 Y41.0665
G01 X37.8408 Y41.0725
G01 X37.8314 Y41.0753
G01 X37.8217 Y41.0773
G01 X37.8070 Y41.0784
G01 X37.3750 Y41.0784
G01 X37.3750 Y43.5930
G01 X37.3746 Y43.6110
G01 X37.3732 Y43.6315
G01 X37.3701 Y43.6568
G01 X37.3665 Y43.6770
G01 X37.3630 Y43.6922
G01 X37.3577 Y43.7120
G01 X37.3497 Y43.7361
G01 X37.3422 Y43.7552
G01 X37.3359 Y43.7695
G01 X37.3266 Y43.7881
G01 X37.3142 Y43.8100
G01 X37.3059 Y43.8232
G01 X37.2942 Y43.8400
G01 X37.2785 Y43.8601
G01 X37.2650 Y43.8755
G01 X37.2526 Y43.8886
G01 X36.7573 Y44.3839
G01 X36.7772 Y44.4350
G01 X36.7942 Y44.4862
G01 X36.8087 Y44.5383
G01 X36.8207 Y44.5909
G01 X36.8300 Y44.6441
G01 X36.8368 Y44.6977
G01 X36.8409 Y44.7516
G01 X36.8423 Y44.8105
G01 X36.8409 Y44.8644
G01 X36.8373 Y44.9134
G01 X36.8308 Y44.9670
G01 X36.8217 Y45.0202
G01 X36.8099 Y45.0730
G01 X36.7942 Y45.1298
G01 X36.7772 Y45.1810
G01 X36.7576 Y45.2313
G01 X36.7356 Y45.2807
G01 X36.7112 Y45.3289
G01 X36.6845 Y45.3758
G01 X36.6555 Y45.4214
G01 X36.6243 Y45.4654
G01 X36.5910 Y45.5079
G01 X36.5556 Y45.5488
G01 X36.5183 Y45.5878
G01 X36.4824 Y45.6219
G01 X36.4419 Y45.6570
G01 X36.3994 Y45.6903
G01 X36.3554 Y45.7215
G01 X36.3096 Y45.7506
G01 X36.2629 Y45.7772
G01 X36.2147 Y45.8016
G01 X36.1653 Y45.8236
G01 X36.1150 Y45.8432
G01 X36.0638 Y45.8602
G01 X36.0117 Y45.8747
G01 X35.9591 Y45.8867
G01 X35.9059 Y45.8960
G01 X35.8523 Y45.9028
G01 X35.7984 Y45.9069
G01 X35.7445 Y45.9083
G01 X35.6905 Y45.9071
G01 X35.6366 Y45.9033
G01 X35.5830 Y45.8968
G01 X35.5298 Y45.8877
G01 X35.4770 Y45.8759
G01 X35.4250 Y45.8617
G01 X35.3736 Y45.8448
G01 X35.3179 Y45.8233
G01 X33.9826 Y47.1586
G01 X33.9692 Y47.1714
G01 X33.9541 Y47.1845
G01 X33.9340 Y47.2002
G01 X33.9172 Y47.2119
G01 X33.9038 Y47.2203
G01 X33.8862 Y47.2305
G01 X33.8679 Y47.2398
G01 X33.8492 Y47.2482
G01 X33.8301 Y47.2557
G01 X33.8060 Y47.2637
G01 X33.7862 Y47.2691
G01 X33.7710 Y47.2725
G01 X33.7508 Y47.2761
G01 X33.7304 Y47.2787
G01 X33.7100 Y47.2804
G01 X33.6870 Y47.2810
G01 X28.8036 Y47.2810
G01 X28.7856 Y47.2806
G01 X28.7651 Y47.2792
G01 X28.7447 Y47.2768
G01 X28.7245 Y47.2734
G01 X28.7044 Y47.2690
G01 X28.6846 Y47.2637
G01 X28.6651 Y47.2574
G01 X28.6459 Y47.2501
G01 X28.6271 Y47.2419
G01 X28.6085 Y47.2326
G01 X28.5908 Y47.2228
G01 X28.5734 Y47.2119
G01 X28.5566 Y47.2002
G01 X28.5403 Y47.1877
G01 X28.5247 Y47.1744
G01 X28.5098 Y47.1603
G01 X27.1364 Y45.7870
G01 X27.1236 Y45.7736
G01 X27.1105 Y45.7585
G01 X27.0948 Y45.7384
G01 X27.0831 Y45.7216
G01 X27.0747 Y45.7082
G01 X27.0645 Y45.6906
G01 X27.0552 Y45.6723
G01 X27.0449 Y45.6491
G01 X27.0376 Y45.6299
G01 X27.0313 Y45.6104
G01 X27.0271 Y45.5953
G01 X27.0216 Y45.5705
G01 X27.0182 Y45.5503
G01 X27.0163 Y45.5348
G01 X27.0146 Y45.5144
G01 X27.0140 Y45.4914
G01 X27.0140 Y45.1203
G01 X27.0054 Y45.1159
G01 X26.9713 Y45.0965
G01 X26.9298 Y45.0702
G01 X26.8937 Y45.0447
G01 X26.8627 Y45.0205
G01 X26.8256 Y44.9884
G01 X26.7936 Y44.9579
G01 X26.7662 Y44.9291
G01 X26.7345 Y44.8923
G01 X26.7103 Y44.8613
G01 X26.6848 Y44.8252
G01 X26.6585 Y44.7837
G01 X26.6368 Y44.7452
G01 X26.6192 Y44.7102
G01 X26.5993 Y44.6653
G01 X26.5835 Y44.6240
G01 X26.5712 Y44.5867
G01 X26.5581 Y44.5394
G01 X26.5495 Y44.5011
G01 X26.5418 Y44.4575
G01 X26.5358 Y44.4088
G01 X26.5326 Y44.3647
G01 X26.5317 Y44.3255
G01 X26.5327 Y44.2813
G00 Z2.0000
G00 X24.5190 Y42.0403
G01 F80.00
G01 Z-0.1866
G01 F80.00
G01 X24.5211 Y42.0109
G01 X24.5243 Y41.9865
G01 X24.5286 Y41.9623
G01 X24.5329 Y41.9431
G01 X24.5393 Y41.9195
G01 X24.5469 Y41.8961
G01 X24.5556 Y41.8731
G01 X24.5676 Y41.8462
G01 X24.5787 Y41.8243
G01 X24.5910 Y41.8030
G01 X24.6042 Y41.7823
G01 X24.6184 Y41.7623
G01 X24.6337 Y41.7430
G01 X24.6498 Y41.7244
G01 X24.6651 Y41.7085
G01 X26.3726 Y40.0009
G01 X26.3726 Y15.6759
G01 X25.0207 Y14.3239
G01 X25.0051 Y14.3076
G01 X24.9861 Y14.2856
G01 X24.9740 Y14.2701
G01 X24.9598 Y14.2501
G01 X24.9440 Y14.2252
G01 X24.9320 Y14.2038
G01 X24.9232 Y14.1862
G01 X24.9112 Y14.1593
G01 X24.9025 Y14.1363
G01 X24.8963 Y14.1176
G01 X24.8885 Y14.0892
G01 X24.8842 Y14.0701
G01 X24.8799 Y14.0459
G01 X24.8762 Y14.0166
G01 X24.8746 Y13.9921
G01 X24.8740 Y13.9700
G01 X24.8740 Y6.3754
G01 X24.8748 Y6.3484
G01 X24.8767 Y6.3239
G01 X24.8799 Y6.2995
G01 X24.8832 Y6.2802
G01 X24.8897 Y6.2514
G01 X24.8963 Y6.2278
G01 X24.9042 Y6.2045
G01 X24.9131 Y6.1816
G01 X24.9211 Y6.1636
G01 X24.9343 Y6.1373
G01 X24.9466 Y6.1160
G01 X24.9571 Y6.0994
G01 X24.9711 Y6.0792
G01 X24.9861 Y6.0598
G01 X25.0054 Y6.0374
G01 X25.0207 Y6.0215
G01 X26.5489 Y4.4932
G01 X26.5418 Y4.4525
G01 X26.5363 Y4.4087
G01 X26.5326 Y4.3597
G01 X26.5317 Y4.3205
G01 X26.5326 Y4.2763
G01 X26.5363 Y4.2273
G01 X26.5418 Y4.1835
G01 X26.5485 Y4.1448
G01 X26.5593 Y4.0969
G01 X26.5712 Y4.0543
G01 X26.5835 Y4.0170
G01 X26.6012 Y3.9712
G01 X26.6192 Y3.9308
G01 X26.6370 Y3.8955
G01 X26.6610 Y3.8530
G01 X26.6821 Y3.8198
G01 X26.7074 Y3.7837
G01 X26.7376 Y3.7449
G01 X26.7666 Y3.7116
G01 X26.7936 Y3.6831
G01 X26.8292 Y3.6493
G01 X26.8627 Y3.6205
G01 X26.8937 Y3.5963
G01 X26.9298 Y3.5708
G01 X26.9469 Y3.5598
G01 X26.9537 Y3.5354
G01 X26.9616 Y3.5121
G01 X26.9705 Y3.4892
G01 X26.9785 Y3.4712
G01 X26.9896 Y3.4489
G01 X27.0040 Y3.4236
G01 X27.0172 Y3.4029
G01 X27.0314 Y3.3829
G01 X27.0467 Y3.3636
G01 X27.0628 Y3.3450
G01 X27.0781 Y3.3291
G01 X28.6038 Y1.8033
G01 X28.6184 Y1.7895
G01 X28.6366 Y1.7737
G01 X28.6559 Y1.7584
G01 X28.6800 Y1.7415
G01 X28.7008 Y1.7284
G01 X28.7222 Y1.7164
G01 X28.7398 Y1.7076
G01 X28.7622 Y1.6975
G01 X28.7851 Y1.6886
G01 X28.8131 Y1.6793
G01 X28.8368 Y1.6729
